(Name: HeadEndRelayRxTxMuxUnderside.cmp_iso_combined_cnc)
(Type: G-code from Geometry)
(Units: MM)

(Created on Wednesday, 05 July 2023 at 15:51)

(This preprocessor is the default preprocessor used by FlatCAM.)
(It is made to work with MACH3 compatible motion controllers.)

(TOOL DIAMETER: 0.1124 mm)
(Feedrate_XY: 70.0 mm/min)
(Feedrate_Z: 60.0 mm/min)
(Feedrate rapids 1500.0 mm/min)

(Z_Cut: -0.0471 mm)
(Z_Move: 2.0 mm)
(Z Start: None mm)
(Z End: 15.0 mm)
(X,Y End: None mm)
(Steps per circle: 64)
(Preprocessor Geometry: default)

(X range:   -0.1400 ...   67.8568  mm)
(Y range:   -0.1400 ...   36.0778  mm)

(Spindle Speed: 1000.0 RPM)
G21
G90
G94

G01 F70.00

M5
G00 Z15.0000
G00 X0.0000 Y0.0000
(MSG, Change to Tool Dia = 0.1124)
G00 Z15.0000

M03 S1000.0
G01 F70.00
G00 Z15.0000
(************************)
(************************)
(******re-cut start********)
(************************)
(************************)
G00 Z2.000
(O2I)
(***insertion*of*)
G00 X38.1100 Y23.3900
G01 F60.0
G00 Z-0.02500
G01 F70.0
(****endof insertion*****)

(G3678)G01 X37.9478 Y23.3931
(int)(G3679)G01 X37.8850 Y23.3902
(int)(G3680)G01 X37.8228 Y23.3816
(int)(G3681)G01 X37.7649 Y23.3682
(int)(G3682)G01 X37.7083 Y23.3499
(int)(G3683)G01 X37.6495 Y23.3248
(G3683)G01 X37.6495 Y23.3248
(I2O)
(***insertion*of*)
G01 X37.6200 Y23.3100
G00 Z2.0000
(****endof insertion*****)

G00 Z2.000
(O2I)
(***insertion*of*)
G00 X28.5100 Y23.3100
G01 F60.0
G00 Z-0.02500
G01 F70.0
(****endof insertion*****)

(G3703)G01 X28.4142 Y23.4036
(int)(G3704)G01 X28.4066 Y23.4098
(int)(G3705)G01 X28.4013 Y23.4129
(int)(G3706)G01 X28.3968 Y23.4148
(int)(G3707)G01 X28.3886 Y23.4172
(int)(G3708)G01 X28.3788 Y23.4182
(int)(G3709)G01 X27.8318 Y23.4182
(int)(G3710)G01 X27.8220 Y23.4172
(int)(G3711)G01 X27.8126 Y23.4144
(int)(G3712)G01 X27.8040 Y23.4098
(int)(G3713)G01 X27.7964 Y23.4036
(G3713)G01 X27.7964 Y23.4036
(I2O)
(***insertion*of*)
G01 X27.7000 Y23.3100
G00 Z2.0000
(****endof insertion*****)

G00 Z2.0000
(G3725)G00 X26.6499 Y24.6601
G00 Z-0.02500
(int)(G3729)G01 X26.9597 Y24.3503
(int)(G3730)G01 X26.9667 Y24.3428
(int)(G3731)G01 X26.9731 Y24.3347
(int)(G3732)G01 X26.9808 Y24.3233
(int)(G3733)G01 X26.9857 Y24.3143
(int)(G3734)G01 X26.9913 Y24.3017
(int)(G3735)G01 X26.9947 Y24.2920
(int)(G3736)G01 X26.9980 Y24.2787
(int)(G3737)G01 X27.0000 Y24.2651
(int)(G3738)G01 X27.0007 Y24.2548
(int)(G3739)G01 X27.0005 Y23.6974
(int)(G3740)G01 X26.9996 Y23.6871
(int)(G3741)G01 X26.9980 Y23.6769
(int)(G3742)G01 X26.9956 Y23.6669
(int)(G3743)G01 X26.9936 Y23.6603
(int)(G3744)G01 X26.9900 Y23.6507
(int)(G3745)G01 X26.9857 Y23.6413
(int)(G3746)G01 X26.9808 Y23.6323
(int)(G3747)G01 X26.9756 Y23.6243
(G3747)G01 X26.9756 Y23.6243
(I2O)
(***insertion*of*)
G01 X26.9800 Y23.3100
G00 Z2.0000
(****endof insertion*****)

G00 Z2.000
(O2I)
(***insertion*of*)
G00 X27.5700 Y23.3100
G01 F60.0
G00 Z-0.02500
G01 F70.0
(****endof insertion*****)

(G3876)G01 X27.7352 Y23.4696
(int)(G3877)G01 X27.7429 Y23.4764
(int)(G3878)G01 X27.7540 Y23.4846
(int)(G3879)G01 X27.7627 Y23.4900
(int)(G3880)G01 X27.7750 Y23.4962
(int)(G3881)G01 X27.7878 Y23.5011
(int)(G3882)G01 X27.8011 Y23.5048
(int)(G3883)G01 X27.8146 Y23.5071
(int)(G3884)G01 X27.8283 Y23.5082
(int)(G3885)G01 X28.3277 Y23.5082
(int)(G3886)G01 X28.2777 Y23.5582
(int)(G3887)G01 X28.2463 Y23.5929
(int)(G3888)G01 X28.2399 Y23.6009
(int)(G3889)G01 X28.2161 Y23.6329
(int)(G3890)G01 X28.2085 Y23.6444
(int)(G3891)G01 X28.1846 Y23.6846
(int)(G3892)G01 X28.1616 Y23.7331
(int)(G3893)G01 X28.1436 Y23.7836
(int)(G3894)G01 X28.1313 Y23.8322
(int)(G3895)G01 X28.1294 Y23.8424
(int)(G3896)G01 X28.1227 Y23.8887
(int)(G3897)G01 X28.1202 Y23.9354
(int)(G3898)G01 X28.1201 Y23.9457
(int)(G3899)G01 X28.1222 Y23.9890
(int)(G3900)G01 X28.1235 Y24.0026
(int)(G3901)G01 X28.1305 Y24.0489
(int)(G3902)G01 X28.1436 Y24.1009
(int)(G3903)G01 X28.1616 Y24.1514
(int)(G3904)G01 X28.1816 Y24.1939
(int)(G3905)G01 X27.8647 Y24.4474
(int)(G3906)G01 X27.8318 Y24.4474
(int)(G3907)G01 X27.8215 Y24.4478
(int)(G3908)G01 X27.8112 Y24.4489
(int)(G3909)G01 X27.7977 Y24.4516
(int)(G3910)G01 X27.7878 Y24.4545
(int)(G3911)G01 X27.7814 Y24.4568
(int)(G3912)G01 X27.7688 Y24.4624
(int)(G3913)G01 X27.7569 Y24.4691
(int)(G3914)G01 X27.7456 Y24.4770
(int)(G3915)G01 X27.7403 Y24.4814
(int)(G3916)G01 X27.7328 Y24.4884
(int)(G3917)G01 X27.5200 Y24.7012
(int)(G3918)G01 X27.0296 Y24.7012
(int)(G3919)G01 X26.9937 Y24.6844
(int)(G3920)G01 X26.9497 Y24.6685
(int)(G3921)G01 X26.9399 Y24.6654
(int)(G3922)G01 X26.8978 Y24.6548
(int)(G3923)G01 X26.8844 Y24.6521
(int)(G3924)G01 X26.8415 Y24.6458
(int)(G3925)G01 X26.8312 Y24.6449
(int)(G3926)G01 X26.7914 Y24.6429
(int)(G3927)G01 X26.7776 Y24.6429
(int)(G3928)G01 X26.7378 Y24.6449
(int)(G3929)G01 X26.7275 Y24.6458
(int)(G3930)G01 X26.6812 Y24.6527
(int)(G3931)G01 X26.6712 Y24.6548
(int)(G3932)G01 X26.6499 Y24.6601
G00 Z2.000
(O2I)
(***insertion*of*)
G00 X26.3400 Y24.7900
G01 F60.0
G00 Z-0.02500
G01 F70.0
(****endof insertion*****)

(G4054)G01 X26.5616 Y24.7912
(int)(G4055)G01 X26.5703 Y24.7861
(int)(G4056)G01 X26.6098 Y24.7675
(int)(G4057)G01 X26.6543 Y24.7518
(int)(G4058)G01 X26.6954 Y24.7416
(int)(G4059)G01 X26.7373 Y24.7353
(int)(G4060)G01 X26.7845 Y24.7328
(int)(G4061)G01 X26.8317 Y24.7353
(int)(G4062)G01 X26.8736 Y24.7416
(int)(G4063)G01 X26.9147 Y24.7518
(int)(G4064)G01 X26.9592 Y24.7675
(int)(G4065)G01 X26.9987 Y24.7861
(int)(G4066)G01 X27.0074 Y24.7912
(int)(G4067)G01 X27.5573 Y24.7912
(int)(G4068)G01 X27.7964 Y24.5520
(int)(G4069)G01 X27.8010 Y24.5480
(int)(G4070)G01 X27.8071 Y24.5439
(int)(G4071)G01 X27.8126 Y24.5412
(int)(G4072)G01 X27.8184 Y24.5392
(int)(G4073)G01 X27.8256 Y24.5378
(int)(G4074)G01 X27.8318 Y24.5374
(int)(G4075)G01 X27.8963 Y24.5374
(int)(G4076)G01 X28.3004 Y24.2141
(int)(G4077)G01 X28.2863 Y24.1949
(int)(G4078)G01 X28.2634 Y24.1564
(int)(G4079)G01 X28.2448 Y24.1170
(int)(G4080)G01 X28.2294 Y24.0736
(int)(G4081)G01 X28.2188 Y24.0313
(int)(G4082)G01 X28.2122 Y23.9870
(int)(G4083)G01 X28.2100 Y23.9422
(int)(G4084)G01 X28.2121 Y23.8987
(int)(G4085)G01 X28.2188 Y23.8532
(int)(G4086)G01 X28.2290 Y23.8121
(int)(G4087)G01 X28.2458 Y23.7653
(int)(G4088)G01 X28.2640 Y23.7270
(int)(G4089)G01 X28.2870 Y23.6886
(int)(G4090)G01 X28.3137 Y23.6526
(int)(G4091)G01 X28.3421 Y23.6212
(G4091)G01 X28.3421 Y23.6212
(I2O)
(***insertion*of*)
G01 X28.6600 Y23.3100
G00 Z2.0000
(****endof insertion*****)

G00 Z2.000
(O2I)
(***insertion*of*)
G00 X31.7700 Y23.3100
G01 F60.0
G00 Z-0.02500
G01 F70.0
(****endof insertion*****)

(G4151)G01 X30.7242 Y24.2871
(int)(G4152)G01 X30.7133 Y24.2990
(int)(G4153)G01 X30.6828 Y24.3266
(int)(G4154)G01 X30.6769 Y24.3313
(int)(G4155)G01 X29.7377 Y25.2082
(int)(G4156)G01 X29.7040 Y25.2367
(int)(G4157)G01 X29.6656 Y25.2631
(int)(G4158)G01 X29.6292 Y25.2834
(int)(G4159)G01 X29.5909 Y25.3002
(int)(G4160)G01 X29.5467 Y25.3148
(int)(G4161)G01 X29.5012 Y25.3247
(int)(G4162)G01 X29.4598 Y25.3298
(int)(G4163)G01 X29.4169 Y25.3309
(int)(G4164)G01 X29.3692 Y25.3274
(int)(G4165)G01 X29.3281 Y25.3204
(int)(G4166)G01 X29.2866 Y25.3092
(int)(G4167)G01 X29.2431 Y25.2927
(int)(G4168)G01 X29.2056 Y25.2742
(int)(G4169)G01 X29.1850 Y25.2616
(int)(G4170)G01 X28.7404 Y25.6174
(int)(G4171)G01 X28.4133 Y25.9444
(int)(G4172)G01 X28.4086 Y25.9484
(int)(G4173)G01 X28.4024 Y25.9523
(int)(G4174)G01 X28.3957 Y25.9553
(int)(G4175)G01 X28.3886 Y25.9572
(int)(G4176)G01 X28.3788 Y25.9582
(int)(G4177)G01 X27.8318 Y25.9582
(int)(G4178)G01 X27.8256 Y25.9578
(int)(G4179)G01 X27.8196 Y25.9567
(int)(G4180)G01 X27.8126 Y25.9544
(int)(G4181)G01 X27.8071 Y25.9517
(int)(G4182)G01 X27.8020 Y25.9484
(int)(G4183)G01 X27.7973 Y25.9444
(int)(G4184)G01 X27.5572 Y25.7044
(int)(G4185)G01 X27.3407 Y25.7044
(int)(G4186)G01 X27.7822 Y26.1459
(int)(G4187)G01 X27.7894 Y26.1488
(int)(G4188)G01 X27.8281 Y26.1674
(int)(G4189)G01 X27.8689 Y26.1925
(int)(G4190)G01 X27.9031 Y26.2185
(int)(G4191)G01 X27.9347 Y26.2476
(int)(G4192)G01 X27.9658 Y26.2824
(int)(G4193)G01 X27.9932 Y26.3203
(int)(G4194)G01 X28.0148 Y26.3574
(int)(G4195)G01 X28.0356 Y26.4033
(int)(G4196)G01 X28.0493 Y26.4440
(int)(G4197)G01 X28.0595 Y26.4883
(int)(G4198)G01 X28.0652 Y26.5334
(int)(G4199)G01 X28.0665 Y26.5776
(int)(G4200)G01 X28.0632 Y26.6242
(int)(G4201)G01 X28.0554 Y26.6689
(int)(G4202)G01 X28.0433 Y26.7127
(int)(G4203)G01 X28.0268 Y26.7551
(int)(G4204)G01 X28.0062 Y26.7956
(int)(G4205)G01 X27.9817 Y26.8338
(int)(G4206)G01 X27.9534 Y26.8695
(int)(G4207)G01 X27.9236 Y26.9004
(int)(G4208)G01 X27.6094 Y27.1942
(int)(G4209)G01 X27.5749 Y27.2234
(int)(G4210)G01 X27.5416 Y27.2466
(int)(G4211)G01 X27.5064 Y27.2667
(int)(G4212)G01 X27.4652 Y27.2854
(int)(G4213)G01 X27.4223 Y27.2999
(int)(G4214)G01 X27.3829 Y27.3093
(int)(G4215)G01 X27.3416 Y27.3152
(int)(G4216)G01 X27.2976 Y27.3173
(G4216)G01 X27.2976 Y27.3173
(I2O)
(***insertion*of*)
G01 X26.3400 Y27.3200
G00 Z2.0000
(****endof insertion*****)

G00 Z2.000
(O2I)
(***insertion*of*)
G00 X26.3400 Y27.4200
G01 F60.0
G00 Z-0.02500
G01 F70.0
(****endof insertion*****)

(G4528)G01 X27.5177 Y27.4200
(G4528)G01 X27.5177 Y27.4200
(I2O)
(***insertion*of*)
G01 X31.9200 Y23.3100
G00 Z2.0000
(****endof insertion*****)

G00 Z2.000
(O2I)
(***insertion*of*)
G00 X38.1100 Y26.4400
G01 F60.0
G00 Z-0.02500
G01 F70.0
(****endof insertion*****)

(G4617)G01 X34.8871 Y24.3456
(int)(G4618)G01 X32.8204 Y24.3456
(int)(G4619)G01 X28.2554 Y28.6063
(int)(G4620)G01 X28.2064 Y28.6479
(int)(G4621)G01 X28.1517 Y28.6860
(int)(G4622)G01 X28.0978 Y28.7165
(int)(G4623)G01 X28.0413 Y28.7420
(int)(G4624)G01 X27.9782 Y28.7636
(int)(G4625)G01 X27.9157 Y28.7786
(int)(G4626)G01 X27.8544 Y28.7873
(int)(G4627)G01 X27.7878 Y28.7906
(G4627)G01 X27.7878 Y28.7906
(I2O)
(***insertion*of*)
G01 X26.3400 Y28.7900
G00 Z2.0000
(****endof insertion*****)

G00 Z2.000
(O2I)
(***insertion*of*)
G00 X26.3400 Y29.0100
G01 F60.0
G00 Z-0.02500
G01 F70.0
(****endof insertion*****)

(G5097)G01 X29.7264 Y29.0075
(int)(G5098)G01 X32.5392 Y26.1947
(int)(G5099)G01 X32.5254 Y26.1391
(int)(G5100)G01 X32.5066 Y26.0110
(int)(G5101)G01 X32.5003 Y25.8828
(int)(G5102)G01 X32.5066 Y25.7546
(int)(G5103)G01 X32.5257 Y25.6253
(int)(G5104)G01 X32.5565 Y25.5020
(int)(G5105)G01 X32.6013 Y25.3765
(int)(G5106)G01 X32.6562 Y25.2606
(int)(G5107)G01 X32.7228 Y25.1494
(int)(G5108)G01 X32.7999 Y25.0454
(int)(G5109)G01 X32.8852 Y24.9512
(int)(G5110)G01 X32.9848 Y24.8609
(int)(G5111)G01 X33.0869 Y24.7853
(int)(G5112)G01 X33.1970 Y24.7193
(int)(G5113)G01 X33.3174 Y24.6624
(int)(G5114)G01 X33.4371 Y24.6196
(int)(G5115)G01 X33.5604 Y24.5887
(int)(G5116)G01 X33.6909 Y24.5692
(int)(G5117)G01 X33.8228 Y24.5629
(int)(G5118)G01 X33.9497 Y24.5692
(int)(G5119)G01 X34.0754 Y24.5877
(int)(G5120)G01 X34.2035 Y24.6196
(int)(G5121)G01 X34.3277 Y24.6643
(int)(G5122)G01 X34.4425 Y24.7187
(int)(G5123)G01 X34.5516 Y24.7840
(int)(G5124)G01 X34.6577 Y24.8624
(int)(G5125)G01 X34.7554 Y24.9512
(int)(G5126)G01 X34.8407 Y25.0454
(int)(G5127)G01 X34.9164 Y25.1474
(int)(G5128)G01 X34.9844 Y25.2606
(int)(G5129)G01 X35.0407 Y25.3799
(int)(G5130)G01 X35.0835 Y25.4996
(int)(G5131)G01 X35.1144 Y25.6229
(int)(G5132)G01 X35.1339 Y25.7534
(int)(G5133)G01 X35.1402 Y25.8853
(int)(G5134)G01 X35.1339 Y26.0122
(int)(G5135)G01 X35.1149 Y26.1403
(int)(G5136)G01 X35.0835 Y26.2660
(int)(G5137)G01 X35.0388 Y26.3902
(int)(G5138)G01 X34.9832 Y26.5072
(int)(G5139)G01 X34.9178 Y26.6162
(int)(G5140)G01 X34.8422 Y26.7183
(int)(G5141)G01 X34.7537 Y26.8162
(int)(G5142)G01 X34.6596 Y26.9016
(int)(G5143)G01 X34.5537 Y26.9803
(int)(G5144)G01 X34.4404 Y27.0480
(int)(G5145)G01 X34.3254 Y27.1023
(int)(G5146)G01 X34.2058 Y27.1452
(int)(G5147)G01 X34.0790 Y27.1772
(int)(G5148)G01 X33.9497 Y27.1964
(int)(G5149)G01 X33.8191 Y27.2028
(int)(G5150)G01 X33.6897 Y27.1963
(int)(G5151)G01 X33.5640 Y27.1777
(int)(G5152)G01 X33.5084 Y27.1639
(int)(G5153)G01 X30.4940 Y30.1782
(int)(G5154)G01 X30.4431 Y30.2241
(int)(G5155)G01 X30.3910 Y30.2626
(int)(G5156)G01 X30.3355 Y30.2960
(int)(G5157)G01 X30.2726 Y30.3259
(int)(G5158)G01 X30.2081 Y30.3489
(int)(G5159)G01 X30.1440 Y30.3649
(int)(G5160)G01 X30.0799 Y30.3745
(int)(G5161)G01 X30.0103 Y30.3781
(G5161)G01 X30.0103 Y30.3781
(I2O)
(***insertion*of*)
G01 X26.3400 Y30.3800
G00 Z2.0000
(****endof insertion*****)

G00 Z2.000
(O2I)
(***insertion*of*)
G00 X35.3600 Y31.4700
G01 F60.0
G00 Z-0.02500
G01 F70.0
(****endof insertion*****)

(G6809)G01 X35.3575 Y27.4703
(int)(G6810)G01 X35.3608 Y27.4031
(int)(G6811)G01 X35.3707 Y27.3366
(int)(G6812)G01 X35.3870 Y27.2714
(int)(G6813)G01 X35.4106 Y27.2058
(int)(G6814)G01 X35.4384 Y27.1472
(int)(G6815)G01 X35.4717 Y27.0916
(int)(G6816)G01 X35.5130 Y27.0355
(int)(G6817)G01 X35.5582 Y26.9857
(int)(G6818)G01 X35.9674 Y26.5765
(int)(G6819)G01 X35.9675 Y26.5581
(int)(G6820)G01 X35.9692 Y26.5484
(int)(G6821)G01 X35.9712 Y26.5426
(int)(G6822)G01 X35.9739 Y26.5371
(int)(G6823)G01 X35.9772 Y26.5320
(int)(G6824)G01 X35.9812 Y26.5273
(int)(G6825)G01 X36.3689 Y26.1395
(int)(G6826)G01 X36.3735 Y26.1355
(int)(G6827)G01 X36.3807 Y26.1308
(int)(G6828)G01 X36.3874 Y26.1278
(int)(G6829)G01 X36.3945 Y26.1259
(int)(G6830)G01 X36.4030 Y26.1249
(int)(G6831)G01 X36.9513 Y26.1249
(int)(G6832)G01 X36.9611 Y26.1259
(int)(G6833)G01 X36.9682 Y26.1278
(int)(G6834)G01 X36.9749 Y26.1308
(int)(G6835)G01 X36.9811 Y26.1347
(int)(G6836)G01 X36.9867 Y26.1395
(int)(G6837)G01 X37.3736 Y26.5264
(int)(G6838)G01 X37.3791 Y26.5330
(int)(G6839)G01 X37.3839 Y26.5415
(int)(G6840)G01 X37.3860 Y26.5472
(int)(G6841)G01 X37.3872 Y26.5520
(int)(G6842)G01 X37.3882 Y26.5618
(int)(G6843)G01 X37.3882 Y27.1101
(int)(G6844)G01 X37.3872 Y27.1186
(int)(G6845)G01 X37.3844 Y27.1280
(int)(G6846)G01 X37.3804 Y27.1356
(int)(G6847)G01 X37.3744 Y27.1433
(int)(G6848)G01 X36.9867 Y27.5311
(int)(G6849)G01 X36.9821 Y27.5351
(int)(G6850)G01 X36.9771 Y27.5386
(int)(G6851)G01 X36.9716 Y27.5414
(int)(G6852)G01 X36.9659 Y27.5435
(int)(G6853)G01 X36.9599 Y27.5450
(int)(G6854)G01 X36.9550 Y27.5456
(int)(G6855)G01 X36.9366 Y27.5457
(int)(G6856)G01 X36.7281 Y27.7542
(G6856)G01 X36.7281 Y27.7542
(I2O)
(***insertion*of*)
G01 X36.7300 Y31.4700
G00 Z2.0000
(****endof insertion*****)

G00 Z2.000
(O2I)
(***insertion*of*)
G00 X36.8300 Y31.4700
G01 F60.0
G00 Z-0.02500
G01 F70.0
(****endof insertion*****)

(G7094)G01 X36.8308 Y28.0215
(int)(G7095)G01 X36.8330 Y27.9767
(int)(G7096)G01 X36.8393 Y27.9336
(int)(G7097)G01 X36.8505 Y27.8889
(int)(G7098)G01 X36.8666 Y27.8445
(int)(G7099)G01 X36.8847 Y27.8062
(int)(G7100)G01 X36.9064 Y27.7699
(int)(G7101)G01 X36.9352 Y27.7309
(int)(G7102)G01 X36.9645 Y27.6986
(int)(G7103)G01 X37.4912 Y27.1719
(int)(G7104)G01 X37.4912 Y27.0017
(int)(G7105)G01 X37.4928 Y26.9654
(int)(G7106)G01 X37.4934 Y26.9582
(int)(G7107)G01 X37.4986 Y26.9210
(int)(G7108)G01 X37.5002 Y26.9127
(int)(G7109)G01 X37.5088 Y26.8774
(int)(G7110)G01 X37.5109 Y26.8704
(int)(G7111)G01 X37.5232 Y26.8350
(int)(G7112)G01 X37.5270 Y26.8260
(int)(G7113)G01 X37.5418 Y26.7941
(int)(G7114)G01 X37.5451 Y26.7877
(int)(G7115)G01 X37.5635 Y26.7564
(int)(G7116)G01 X37.5688 Y26.7483
(int)(G7117)G01 X37.5903 Y26.7189
(int)(G7118)G01 X37.5956 Y26.7123
(int)(G7119)G01 X37.6207 Y26.6844
(int)(G7120)G01 X37.6258 Y26.6792
(int)(G7121)G01 X37.6535 Y26.6538
(int)(G7122)G01 X37.6591 Y26.6492
(int)(G7123)G01 X37.6891 Y26.6267
(int)(G7124)G01 X37.6952 Y26.6226
(int)(G7125)G01 X37.7272 Y26.6031
(int)(G7126)G01 X37.7336 Y26.5997
(int)(G7127)G01 X37.7675 Y26.5834
(int)(G7128)G01 X37.7742 Y26.5806
(int)(G7129)G01 X37.8095 Y26.5678
(int)(G7130)G01 X37.8164 Y26.5657
(int)(G7131)G01 X37.8528 Y26.5563
(int)(G7132)G01 X37.8599 Y26.5549
(int)(G7133)G01 X37.8970 Y26.5492
(int)(G7134)G01 X37.9043 Y26.5484
(int)(G7135)G01 X37.9418 Y26.5464
(int)(G7136)G01 X37.9490 Y26.5464
(int)(G7137)G01 X37.9841 Y26.5478
(int)(G7138)G01 X37.9950 Y26.5488
(int)(G7139)G01 X38.0297 Y26.5538
(int)(G7140)G01 X38.0381 Y26.5554
(int)(G7141)G01 X38.0734 Y26.5640
(int)(G7142)G01 X38.0803 Y26.5660
(G7142)G01 X38.0803 Y26.5660
(I2O)
(***insertion*of*)
G01 X38.1100 Y26.5800
G00 Z2.0000
(****endof insertion*****)

G00 Z2.0000
(G8547)G00 X37.6648 Y23.4293
G00 Z-0.02500
(int)(G8551)G01 X37.6132 Y23.4478
(int)(G8552)G01 X37.5645 Y23.4710
(int)(G8553)G01 X37.5183 Y23.4988
(int)(G8554)G01 X37.4806 Y23.5268
(int)(G8555)G01 X37.4699 Y23.5356
(int)(G8556)G01 X37.4353 Y23.5674
(int)(G8557)G01 X37.4038 Y23.6023
(int)(G8558)G01 X37.3971 Y23.6102
(int)(G8559)G01 X37.3713 Y23.6453
(int)(G8560)G01 X37.3637 Y23.6568
(int)(G8561)G01 X37.3399 Y23.6974
(int)(G8562)G01 X37.3185 Y23.7430
(int)(G8563)G01 X37.3147 Y23.7527
(int)(G8564)G01 X37.2993 Y23.7971
(int)(G8565)G01 X37.2865 Y23.8495
(int)(G8566)G01 X37.2790 Y23.9029
(int)(G8567)G01 X37.2769 Y23.9498
(int)(G8568)G01 X37.2768 Y23.9602
(int)(G8569)G01 X37.2798 Y24.0105
(int)(G8570)G01 X37.2870 Y24.0570
(int)(G8571)G01 X37.2890 Y24.0672
(int)(G8572)G01 X37.2999 Y24.1093
(int)(G8573)G01 X37.3029 Y24.1193
(int)(G8574)G01 X37.3191 Y24.1634
(int)(G8575)G01 X37.3233 Y24.1728
(int)(G8576)G01 X37.3334 Y24.1936
(G8576)G01 X37.3334 Y24.1936
(I2O)
(***insertion*of*)
G01 X35.9700 Y23.3100
G00 Z2.0000
(****endof insertion*****)

G00 Z2.000
(O2I)
(***insertion*of*)
G00 X37.4400 Y23.3100
G01 F60.0
G00 Z-0.02500
G01 F70.0
(****endof insertion*****)

(G8606)G01 X37.5489 Y23.3726
(int)(G8607)G01 X37.6103 Y23.4058
(int)(G8608)G01 X37.6648 Y23.4293
(int)
(adding) 
G00 Z2.0000
(G8610)G00 X34.7170 Y26.9709
G00 Z-0.02500
G01 F60.0
(/\ /\end /\ /\)
(int)(G8614)G01 X34.8173 Y26.8798
(int)(G8615)G01 X34.9058 Y26.7825
(int)(G8616)G01 X34.9145 Y26.7719
(int)(G8617)G01 X34.9887 Y26.6718
(int)(G8618)G01 X34.9963 Y26.6603
(int)(G8619)G01 X35.0638 Y26.5475
(int)(G8620)G01 X35.1230 Y26.4224
(int)(G8621)G01 X35.1696 Y26.2921
(int)(G8622)G01 X35.2017 Y26.1646
(int)(G8623)G01 X35.2044 Y26.1511
(int)(G8624)G01 X35.2227 Y26.0278
(int)(G8625)G01 X35.2240 Y26.0142
(int)(G8626)G01 X35.2303 Y25.8828
(int)(G8627)G01 X35.2235 Y25.7446
(int)(G8628)G01 X35.2032 Y25.6077
(int)(G8629)G01 X35.1714 Y25.4801
(int)(G8630)G01 X35.1674 Y25.4670
(int)(G8631)G01 X35.1230 Y25.3432
(int)(G8632)G01 X35.0638 Y25.2181
(int)(G8633)G01 X34.9963 Y25.1053
(int)(G8634)G01 X34.9887 Y25.0938
(int)(G8635)G01 X34.9145 Y24.9937
(int)(G8636)G01 X34.9058 Y24.9831
(int)(G8637)G01 X34.8173 Y24.8858
(int)(G8638)G01 X34.7148 Y24.7929
(int)(G8639)G01 X34.6037 Y24.7104
(int)(G8640)G01 X34.4909 Y24.6427
(int)(G8641)G01 X34.4788 Y24.6362
(int)(G8642)G01 X34.3662 Y24.5829
(int)(G8643)G01 X34.3535 Y24.5777
(int)(G8644)G01 X34.2296 Y24.5335
(int)(G8645)G01 X34.0954 Y24.4999
(int)(G8646)G01 X33.9585 Y24.4796
(int)(G8647)G01 X33.8272 Y24.4730
(int)(G8648)G01 X33.8134 Y24.4730
(int)(G8649)G01 X33.6889 Y24.4791
(int)(G8650)G01 X33.6787 Y24.4800
(int)(G8651)G01 X33.5452 Y24.4999
(int)(G8652)G01 X33.4110 Y24.5335
(int)(G8653)G01 X33.2807 Y24.5801
(int)(G8654)G01 X33.1556 Y24.6393
(int)(G8655)G01 X33.0369 Y24.7104
(int)(G8656)G01 X32.9258 Y24.7929
(int)(G8657)G01 X32.8233 Y24.8858
(int)(G8658)G01 X32.7348 Y24.9831
(int)(G8659)G01 X32.7261 Y24.9937
(int)(G8660)G01 X32.6479 Y25.0994
(int)(G8661)G01 X32.5802 Y25.2122
(int)(G8662)G01 X32.5737 Y25.2243
(int)(G8663)G01 X32.5176 Y25.3432
(int)(G8664)G01 X32.4732 Y25.4670
(int)(G8665)G01 X32.4692 Y25.4801
(int)(G8666)G01 X32.4389 Y25.6010
(int)(G8667)G01 X32.4362 Y25.6145
(int)(G8668)G01 X32.4171 Y25.7446
(int)(G8669)G01 X32.4103 Y25.8828
(int)(G8670)G01 X32.4171 Y26.0210
(int)(G8671)G01 X32.4362 Y26.1511
(int)(G8672)G01 X32.4395 Y26.1671
(int)(G8673)G01 X29.6892 Y28.9175
(G8673)G01 X29.6892 Y28.9175
(I2O)
(***insertion*of*)
G01 X26.3400 Y28.9200
G00 Z2.0000
(****endof insertion*****)

G00 Z2.000
(O2I)
(***insertion*of*)
G00 X26.3400 Y28.8800
G01 F60.0
G00 Z-0.02500
G01 F70.0
(****endof insertion*****)

(G8914)G01 X27.7878 Y28.8806
(int)(G8915)G01 X27.8605 Y28.8772
(int)(G8916)G01 X27.9260 Y28.8681
(int)(G8917)G01 X27.9389 Y28.8656
(int)(G8918)G01 X27.9969 Y28.8518
(int)(G8919)G01 X28.0064 Y28.8491
(int)(G8920)G01 X28.0659 Y28.8289
(int)(G8921)G01 X28.0782 Y28.8241
(int)(G8922)G01 X28.1385 Y28.7968
(int)(G8923)G01 X28.1961 Y28.7642
(int)(G8924)G01 X28.2072 Y28.7572
(int)(G8925)G01 X28.2614 Y28.7192
(int)(G8926)G01 X28.3144 Y28.6743
(int)(G8927)G01 X32.8559 Y24.4356
(int)(G8928)G01 X34.8605 Y24.4356
(int)(G8929)G01 X37.9707 Y26.4573
(int)(G8930)G01 X37.9512 Y26.4564
(int)(G8931)G01 X37.9406 Y26.4564
(int)(G8932)G01 X37.8976 Y26.4587
(int)(G8933)G01 X37.8836 Y26.4602
(int)(G8934)G01 X37.8479 Y26.4657
(int)(G8935)G01 X37.8307 Y26.4691
(int)(G8936)G01 X37.7891 Y26.4799
(int)(G8937)G01 X37.7790 Y26.4831
(int)(G8938)G01 X37.7450 Y26.4955
(int)(G8939)G01 X37.7288 Y26.5022
(int)(G8940)G01 X37.6901 Y26.5209
(int)(G8941)G01 X37.6808 Y26.5260
(int)(G8942)G01 X37.6499 Y26.5448
(int)(G8943)G01 X37.6353 Y26.5545
(int)(G8944)G01 X37.6010 Y26.5804
(int)(G8945)G01 X37.5929 Y26.5873
(int)(G8946)G01 X37.5638 Y26.6140
(int)(G8947)G01 X37.5538 Y26.6241
(int)(G8948)G01 X37.5298 Y26.6510
(int)(G8949)G01 X37.5186 Y26.6645
(int)(G8950)G01 X37.4933 Y26.6993
(int)(G8951)G01 X37.4875 Y26.7082
(int)(G8952)G01 X37.4782 Y26.7241
(int)(G8953)G01 X37.4782 Y26.5618
(int)(G8954)G01 X37.4775 Y26.5480
(int)(G8955)G01 X37.4761 Y26.5378
(int)(G8956)G01 X37.4748 Y26.5311
(int)(G8957)G01 X37.4722 Y26.5211
(int)(G8958)G01 X37.4700 Y26.5146
(int)(G8959)G01 X37.4662 Y26.5050
(int)(G8960)G01 X37.4632 Y26.4988
(int)(G8961)G01 X37.4600 Y26.4927
(int)(G8962)G01 X37.4546 Y26.4840
(int)(G8963)G01 X37.4464 Y26.4729
(int)(G8964)G01 X37.4372 Y26.4628
(int)(G8965)G01 X37.0503 Y26.0759
(int)(G8966)G01 X37.0402 Y26.0667
(int)(G8967)G01 X37.0320 Y26.0604
(int)(G8968)G01 X37.0262 Y26.0566
(int)(G8969)G01 X37.0173 Y26.0514
(int)(G8970)G01 X37.0081 Y26.0469
(int)(G8971)G01 X36.9985 Y26.0431
(int)(G8972)G01 X36.9920 Y26.0409
(int)(G8973)G01 X36.9820 Y26.0383
(int)(G8974)G01 X36.9719 Y26.0364
(int)(G8975)G01 X36.9651 Y26.0356
(int)(G8976)G01 X36.9548 Y26.0349
(int)(G8977)G01 X36.4043 Y26.0349
(int)(G8978)G01 X36.3940 Y26.0353
(int)(G8979)G01 X36.3837 Y26.0364
(int)(G8980)G01 X36.3736 Y26.0383
(int)(G8981)G01 X36.3636 Y26.0409
(int)(G8982)G01 X36.3539 Y26.0443
(int)(G8983)G01 X36.3444 Y26.0483
(int)(G8984)G01 X36.3352 Y26.0531
(int)(G8985)G01 X36.3265 Y26.0585
(int)(G8986)G01 X36.3181 Y26.0645
(int)(G8987)G01 X36.3102 Y26.0712
(int)(G8988)G01 X35.9184 Y26.4628
(int)(G8989)G01 X35.9114 Y26.4703
(int)(G8990)G01 X35.9050 Y26.4784
(int)(G8991)G01 X35.8991 Y26.4869
(int)(G8992)G01 X35.8939 Y26.4958
(int)(G8993)G01 X35.8894 Y26.5050
(int)(G8994)G01 X35.8856 Y26.5146
(int)(G8995)G01 X35.8825 Y26.5244
(int)(G8996)G01 X35.8796 Y26.5370
(int)(G8997)G01 X35.4946 Y26.9221
(int)(G8998)G01 X35.4457 Y26.9758
(int)(G8999)G01 X35.4392 Y26.9839
(int)(G9000)G01 X35.3981 Y27.0396
(int)(G9001)G01 X35.3624 Y27.0988
(int)(G9002)G01 X35.3575 Y27.1079
(int)(G9003)G01 X35.3293 Y27.1673
(int)(G9004)G01 X35.3252 Y27.1768
(int)(G9005)G01 X35.3019 Y27.2420
(int)(G9006)G01 X35.2990 Y27.2519
(int)(G9007)G01 X35.2924 Y27.2785
(int)(G9008)G01 X35.2833 Y27.2592
(int)(G9009)G01 X35.2785 Y27.2501
(int)(G9010)G01 X35.2562 Y27.2129
(int)(G9011)G01 X35.2506 Y27.2042
(int)(G9012)G01 X35.2205 Y27.1640
(int)(G9013)G01 X35.1869 Y27.1267
(int)(G9014)G01 X35.1795 Y27.1195
(int)(G9015)G01 X35.1499 Y27.0927
(int)(G9016)G01 X35.1393 Y27.0840
(int)(G9017)G01 X35.1015 Y27.0562
(int)(G9018)G01 X35.0555 Y27.0287
(int)(G9019)G01 X35.0069 Y27.0058
(int)(G9020)G01 X34.9629 Y26.9899
(int)(G9021)G01 X34.9497 Y26.9859
(int)(G9022)G01 X34.9110 Y26.9762
(int)(G9023)G01 X34.9009 Y26.9741
(int)(G9024)G01 X34.8512 Y26.9669
(int)(G9025)G01 X34.8010 Y26.9644
(int)(G9026)G01 X34.7907 Y26.9645
(int)(G9027)G01 X34.7474 Y26.9667
(int)(G9028)G01 X34.7405 Y26.9674
(int)(G9029)G01 X34.7170 Y26.9709
(int)
(adding) 
G00 Z2.0000
(G9031)G00 X29.5411 Y25.4083
G00 Z-0.02500
G01 F60.0
(/\ /\end /\ /\)
(int)(G9035)G01 X28.1344 Y26.7213
(int)(G9036)G01 X28.1415 Y26.6955
(int)(G9037)G01 X28.1440 Y26.6853
(int)(G9038)G01 X28.1515 Y26.6420
(int)(G9039)G01 X28.1529 Y26.6316
(int)(G9040)G01 X28.1565 Y26.5808
(int)(G9041)G01 X28.1553 Y26.5334
(int)(G9042)G01 X28.1547 Y26.5230
(int)(G9043)G01 X28.1481 Y26.4725
(int)(G9044)G01 X28.1359 Y26.4195
(int)(G9045)G01 X28.1184 Y26.3679
(int)(G9046)G01 X28.0975 Y26.3215
(int)(G9047)G01 X28.0926 Y26.3123
(int)(G9048)G01 X28.0687 Y26.2713
(int)(G9049)G01 X28.0411 Y26.2327
(int)(G9050)G01 X28.0324 Y26.2219
(int)(G9051)G01 X28.0056 Y26.1916
(int)(G9052)G01 X27.9983 Y26.1840
(int)(G9053)G01 X27.9609 Y26.1495
(int)(G9054)G01 X27.9203 Y26.1187
(int)(G9055)G01 X27.9116 Y26.1129
(int)(G9056)G01 X27.8710 Y26.0884
(int)(G9057)G01 X27.8339 Y26.0703
(int)(G9058)G01 X27.8101 Y26.0465
(int)(G9059)G01 X27.8215 Y26.0478
(int)(G9060)G01 X27.8318 Y26.0482
(int)(G9061)G01 X28.3788 Y26.0482
(int)(G9062)G01 X28.3891 Y26.0478
(int)(G9063)G01 X28.4028 Y26.0461
(int)(G9064)G01 X28.4162 Y26.0431
(int)(G9065)G01 X28.4260 Y26.0400
(int)(G9066)G01 X28.4387 Y26.0348
(int)(G9067)G01 X28.4508 Y26.0283
(int)(G9068)G01 X28.4622 Y26.0206
(int)(G9069)G01 X28.4703 Y26.0142
(int)(G9070)G01 X28.4754 Y26.0096
(int)(G9071)G01 X28.8005 Y25.6845
(int)(G9072)G01 X29.1947 Y25.3692
(int)(G9073)G01 X29.2114 Y25.3771
(int)(G9074)G01 X29.2513 Y25.3922
(int)(G9075)G01 X29.2610 Y25.3955
(int)(G9076)G01 X29.3088 Y25.4083
(int)(G9077)G01 X29.3609 Y25.4171
(int)(G9078)G01 X29.4136 Y25.4209
(int)(G9079)G01 X29.4631 Y25.4197
(int)(G9080)G01 X29.4732 Y25.4189
(int)(G9081)G01 X29.5156 Y25.4136
(int)(G9082)G01 X29.5411 Y25.4083
G00 Z2.000
(O2I)
(***insertion*of*)
G00 X26.8900 Y23.3100
G01 F60.0
G00 Z-0.02500
G01 F70.0
(****endof insertion*****)

(G9153)G01 X26.8856 Y23.6585
(int)(G9154)G01 X26.8986 Y23.6716
(int)(G9155)G01 X26.9042 Y23.6796
(int)(G9156)G01 X26.9069 Y23.6851
(int)(G9157)G01 X26.9089 Y23.6909
(int)(G9158)G01 X26.9102 Y23.6969
(int)(G9159)G01 X26.9107 Y23.7030
(int)(G9160)G01 X26.9107 Y24.2513
(int)(G9161)G01 X26.9102 Y24.2587
(int)(G9162)G01 X26.9089 Y24.2647
(int)(G9163)G01 X26.9069 Y24.2705
(int)(G9164)G01 X26.9042 Y24.2760
(int)(G9165)G01 X26.9009 Y24.2811
(int)(G9166)G01 X26.8961 Y24.2867
(int)(G9167)G01 X26.5092 Y24.6736
(int)(G9168)G01 X26.5016 Y24.6798
(int)(G9169)G01 X26.4930 Y24.6844
(int)(G9170)G01 X26.4836 Y24.6872
(int)(G9171)G01 X26.4738 Y24.6882
(G9171)G01 X26.4738 Y24.6882
(I2O)
(***insertion*of*)
G01 X26.3400 Y24.6900
G00 Z2.0000
(****endof insertion*****)

G00 Z2.000
(O2I)
(***insertion*of*)
G00 X26.3400 Y30.4800
G01 F60.0
G00 Z-0.02500
G01 F70.0
(****endof insertion*****)

(G10672)G01 X30.1658 Y30.4808
(int)(G10673)G01 X30.4578 Y30.3598
(int)(G10674)G01 X33.3781 Y27.4395
(int)(G10675)G01 X33.4113 Y27.4094
(int)(G10676)G01 X33.4452 Y27.3842
(int)(G10677)G01 X33.4857 Y27.3597
(int)(G10678)G01 X33.5285 Y27.3397
(int)(G10679)G01 X33.5684 Y27.3255
(int)(G10680)G01 X33.6094 Y27.3151
(int)(G10681)G01 X33.6549 Y27.3081
(int)(G10682)G01 X33.7009 Y27.3058
(int)(G10683)G01 X34.1025 Y27.3058
(int)(G10684)G01 X34.6251 Y27.0885
(int)(G10685)G01 X34.6650 Y27.0742
(int)(G10686)G01 X34.7085 Y27.0632
(int)(G10687)G01 X34.7529 Y27.0566
(int)(G10688)G01 X34.7977 Y27.0543
(int)(G10689)G01 X34.8424 Y27.0565
(int)(G10690)G01 X34.8868 Y27.0630
(int)(G10691)G01 X34.9303 Y27.0739
(int)(G10692)G01 X34.9726 Y27.0889
(int)(G10693)G01 X35.0131 Y27.1081
(int)(G10694)G01 X35.0516 Y27.1311
(int)(G10695)G01 X35.0876 Y27.1578
(int)(G10696)G01 X35.1191 Y27.1862
(int)(G10697)G01 X35.1510 Y27.2211
(int)(G10698)G01 X35.1763 Y27.2551
(int)(G10699)G01 X35.2019 Y27.2977
(int)(G10700)G01 X35.2200 Y27.3361
(int)(G10701)G01 X35.2351 Y27.3783
(int)(G10702)G01 X35.2460 Y27.4218
(int)(G10703)G01 X35.2527 Y27.4674
(int)(G10704)G01 X35.2548 Y27.5109
(G10704)G01 X35.2548 Y27.5109
(I2O)
(***insertion*of*)
G01 X35.2500 Y31.4700
G00 Z2.0000
(****endof insertion*****)

G00 Z2.000
(O2I)
(***insertion*of*)
G00 X38.1100 Y24.6800
G01 F60.0
G00 Z-0.02500
G01 F70.0
(****endof insertion*****)

(G11046)G01 X37.6311 Y24.3720
(int)(G11047)G01 X37.6037 Y24.3556
(int)(G11048)G01 X37.5871 Y24.3434
(int)(G11049)G01 X37.5725 Y24.3339
(int)(G11050)G01 X37.5381 Y24.3089
(int)(G11051)G01 X37.5043 Y24.2791
(int)(G11052)G01 X37.4753 Y24.2479
(int)(G11053)G01 X37.4451 Y24.2081
(int)(G11054)G01 X37.4229 Y24.1718
(int)(G11055)G01 X37.4032 Y24.1313
(int)(G11056)G01 X37.3877 Y24.0890
(int)(G11057)G01 X37.3763 Y24.0455
(int)(G11058)G01 X37.3693 Y24.0010
(int)(G11059)G01 X37.3668 Y23.9585
(int)(G11060)G01 X37.3689 Y23.9086
(int)(G11061)G01 X37.3749 Y23.8664
(int)(G11062)G01 X37.3856 Y23.8227
(int)(G11063)G01 X37.4005 Y23.7802
(int)(G11064)G01 X37.4195 Y23.7394
(int)(G11065)G01 X37.4439 Y23.6986
(int)(G11066)G01 X37.4691 Y23.6643
(int)(G11067)G01 X37.4975 Y23.6326
(int)(G11068)G01 X37.5325 Y23.6004
(int)(G11069)G01 X37.5706 Y23.5722
(int)(G11070)G01 X37.6071 Y23.5502
(int)(G11071)G01 X37.6455 Y23.5319
(int)(G11072)G01 X37.6901 Y23.5157
(int)(G11073)G01 X37.7362 Y23.5042
(int)(G11074)G01 X37.7784 Y23.4980
(int)(G11075)G01 X37.8221 Y23.4958
(int)(G11076)G01 X37.8573 Y23.4958
(int)(G11077)G01 X37.8909 Y23.4971
(int)(G11078)G01 X37.9232 Y23.5007
(int)(G11079)G01 X37.9864 Y23.5102
(int)(G11080)G01 X37.9925 Y23.5088
(int)(G11081)G01 X38.0438 Y23.4993
(int)(G11082)G01 X38.1002 Y23.4958
(G11082)G01 X38.1002 Y23.4958
(I2O)
(***insertion*of*)
G01 X38.1100 Y23.5000
G00 Z2.0000
(****endof insertion*****)

G00 Z2.000
(right entry)(G4545)

(***insertion*of*)
G00 X38.1100 Y24.8000
G01 F60.0
G00 Z-0.02500
G01 F70.0
(****endof insertion*****)

(bottom crossing)(G4545)

(***insertion*of*)
G01 X35.8000 Y23.3100
G00 Z2.0000
(****endof insertion*****)

M5
G00 X0.000 Y0.000
