(G-CODE GENERATED BY FLATCAM v8.994 - www.flatcam.org - Version Date: 2020/11/7)

(Name: CNC3018_WirelessBridge.cmp_iso_combined_cnc)
(Type: G-code from Geometry)
(Units: MM)

(Created on Saturday, 21 January 2023 at 09:25)

(This preprocessor is the default preprocessor used by FlatCAM.)
(It is made to work with MACH3 compatible motion controllers.)

(TOOL DIAMETER: 0.1092 mm)
(Feedrate_XY: 60.0 mm/min)
(Feedrate_Z: 60.0 mm/min)
(Feedrate rapids 1500.0 mm/min)

(Z_Cut: -0.0349 mm)
(Z_Move: 2.0 mm)
(Z Start: None mm)
(Z End: 15.0 mm)
(X,Y End: None mm)
(Steps per circle: 64)
(Preprocessor Geometry: default)

(X range:    5.4236 ...  131.4747  mm)
(Y range:    4.7971 ...   47.6193  mm)

(Spindle Speed: 1000.0 RPM)
G21
G90
G94

G01 F60.00

M5
G00 Z15.0000
G00 X0.0000 Y0.0000
T1
M6    
(MSG, Change to Tool Dia = 0.1092)
M0
G00 Z15.0000

M03 S1000.0
G01 F60.00
G00 X8.4859 Y14.0442
G01 F60.00
G01 Z-0.0349
G01 F60.00
G01 X8.5222 Y13.9558
G01 X8.6652 Y13.8128
G01 X8.8516 Y13.7356
G01 X9.0554 Y13.7356
G01 X9.2418 Y13.8128
G01 X9.3848 Y13.9558
G01 X9.4211 Y14.0442
G01 X9.3733 Y14.0324
G01 X9.1663 Y14.0017
G01 X8.9535 Y13.9911
G01 X8.7407 Y14.0017
G01 X8.5337 Y14.0324
G01 X8.4859 Y14.0442
G00 Z2.0000
G00 X8.4854 Y18.2543
G01 F60.00
G01 Z-0.0349
G01 F60.00
G01 X8.5337 Y18.2663
G01 X8.7407 Y18.2970
G01 X8.9535 Y18.3075
G01 X9.1663 Y18.2970
G01 X9.3733 Y18.2663
G01 X9.4216 Y18.2543
G01 X9.3851 Y18.3426
G01 X9.2418 Y18.4859
G01 X9.0554 Y18.5631
G01 X8.8516 Y18.5631
G01 X8.6652 Y18.4859
G01 X8.5219 Y18.3426
G01 X8.4854 Y18.2543
G00 Z2.0000
G00 X9.9808 Y24.6646
G01 F60.00
G01 Z-0.0349
G01 F60.00
G01 X9.5097 Y25.1353
G01 X9.5061 Y25.1399
G01 X9.4953 Y25.1518
G01 X9.4833 Y25.1627
G01 X9.4787 Y25.1663
G01 X8.9974 Y25.6472
G01 X8.9845 Y25.6588
G01 X8.9725 Y25.6678
G01 X8.9556 Y25.6781
G01 X8.9377 Y25.6864
G01 X8.9236 Y25.6914
G01 X8.9091 Y25.6950
G01 X8.8908 Y25.6980
G01 X8.8722 Y25.6990
G01 X8.7322 Y25.6990
G01 X8.3198 Y25.8701
G01 X8.0063 Y26.1836
G01 X7.8352 Y26.5961
G01 X7.8352 Y28.5650
G01 X8.0063 Y28.9753
G01 X8.1690 Y29.1396
G01 X8.1727 Y29.1425
G01 X8.1846 Y29.1534
G01 X8.1955 Y29.1653
G01 X8.1992 Y29.1701
G01 X8.2411 Y29.2124
G01 X8.2519 Y29.2243
G01 X8.2629 Y29.2392
G01 X8.2728 Y29.2562
G01 X8.2790 Y29.2696
G01 X8.2841 Y29.2836
G01 X8.2890 Y29.3027
G01 X8.2915 Y29.3198
G01 X8.2924 Y29.3370
G01 X8.2924 Y30.9042
G01 X8.2915 Y30.9215
G01 X8.2890 Y30.9387
G01 X8.2840 Y30.9579
G01 X8.2789 Y30.9719
G01 X8.2726 Y30.9855
G01 X8.2625 Y31.0025
G01 X8.2514 Y31.0174
G01 X8.2405 Y31.0294
G01 X8.0063 Y31.2636
G01 X7.8704 Y31.5911
G01 X7.8674 Y31.5993
G01 X7.8636 Y31.6074
G01 X7.8352 Y31.6761
G01 X7.8351 Y32.7723
G01 X7.8343 Y32.7884
G01 X7.8322 Y32.8032
G01 X7.8275 Y32.8225
G01 X7.8207 Y32.8411
G01 X7.8143 Y32.8545
G01 X7.8066 Y32.8674
G01 X7.7950 Y32.8834
G01 X7.7833 Y32.8963
G01 X6.4099 Y34.2696
G01 X6.3988 Y34.2795
G01 X6.3869 Y34.2885
G01 X6.3700 Y34.2988
G01 X6.3543 Y34.3063
G01 X6.3402 Y34.3113
G01 X6.3210 Y34.3163
G01 X6.3014 Y34.3191
G01 X6.2865 Y34.3197
G01 X6.2691 Y34.3189
G01 X6.2496 Y34.3158
G01 X6.2351 Y34.3121
G01 X6.2199 Y34.3067
G01 X6.2009 Y34.2976
G01 X6.1881 Y34.2899
G01 X6.1742 Y34.2795
G01 X6.1613 Y34.2679
G01 X6.1512 Y34.2569
G01 X6.1393 Y34.2410
G01 X6.1292 Y34.2240
G01 X6.1229 Y34.2104
G01 X6.1171 Y34.1941
G01 X6.1128 Y34.1772
G01 X6.1106 Y34.1625
G01 X6.1094 Y34.1427
G01 X6.1094 Y5.8623
G01 X6.1106 Y5.8425
G01 X6.1128 Y5.8278
G01 X6.1164 Y5.8133
G01 X6.1229 Y5.7946
G01 X6.1316 Y5.7767
G01 X6.1393 Y5.7640
G01 X6.1481 Y5.7519
G01 X6.1613 Y5.7371
G01 X6.1761 Y5.7239
G01 X6.1881 Y5.7151
G01 X6.2020 Y5.7068
G01 X6.2187 Y5.6987
G01 X6.2375 Y5.6922
G01 X6.2520 Y5.6887
G01 X6.2667 Y5.6864
G01 X6.2865 Y5.6853
G01 X44.0893 Y5.6853
G01 X44.1091 Y5.6864
G01 X44.1239 Y5.6887
G01 X44.1384 Y5.6922
G01 X44.1571 Y5.6987
G01 X44.1749 Y5.7074
G01 X44.1877 Y5.7151
G01 X44.1997 Y5.7239
G01 X44.2145 Y5.7371
G01 X44.2277 Y5.7519
G01 X44.2365 Y5.7640
G01 X44.2449 Y5.7778
G01 X44.2538 Y5.7969
G01 X44.2588 Y5.8109
G01 X44.2630 Y5.8278
G01 X44.2655 Y5.8450
G01 X44.2663 Y5.8599
G01 X44.2652 Y5.8821
G01 X44.2630 Y5.8969
G01 X44.2588 Y5.9137
G01 X44.2529 Y5.9301
G01 X44.2466 Y5.9436
G01 X44.2351 Y5.9627
G01 X44.2262 Y5.9746
G01 X44.2154 Y5.9866
G01 X44.0830 Y6.1191
G01 X44.0781 Y6.1254
G01 X44.0672 Y6.1374
G01 X44.0553 Y6.1483
G01 X44.0489 Y6.1532
G01 X43.5826 Y6.6194
G01 X43.5777 Y6.6258
G01 X43.5668 Y6.6378
G01 X43.5549 Y6.6486
G01 X43.5485 Y6.6536
G01 X43.0822 Y7.1198
G01 X43.0773 Y7.1262
G01 X43.0664 Y7.1381
G01 X43.0545 Y7.1490
G01 X43.0481 Y7.1539
G01 X42.5819 Y7.6202
G01 X42.5769 Y7.6266
G01 X42.5661 Y7.6385
G01 X42.5541 Y7.6494
G01 X42.5477 Y7.6543
G01 X42.0815 Y8.1206
G01 X42.0766 Y8.1270
G01 X42.0657 Y8.1389
G01 X42.0537 Y8.1498
G01 X42.0474 Y8.1547
G01 X41.5811 Y8.6210
G01 X41.5762 Y8.6273
G01 X41.5653 Y8.6393
G01 X41.5534 Y8.6502
G01 X41.5470 Y8.6551
G01 X41.4126 Y8.7894
G01 X41.3124 Y9.0341
G01 X41.3124 Y13.7338
G01 X41.3113 Y13.7527
G01 X41.3088 Y13.7689
G01 X41.3045 Y13.7860
G01 X41.2984 Y13.8026
G01 X41.2919 Y13.8163
G01 X41.2801 Y13.8356
G01 X41.2709 Y13.8477
G01 X41.2588 Y13.8606
G01 X41.2436 Y13.8738
G01 X41.2312 Y13.8826
G01 X41.2181 Y13.8902
G01 X41.2010 Y13.8982
G01 X41.1759 Y13.9080
G01 X40.8287 Y14.2552
G01 X40.8168 Y14.2661
G01 X40.7998 Y14.2786
G01 X40.7870 Y14.2862
G01 X40.7735 Y14.2926
G01 X40.7549 Y14.2995
G01 X40.7356 Y14.3041
G01 X40.7184 Y14.3064
G01 X40.7035 Y14.3071
G01 X40.6886 Y14.3064
G01 X40.6702 Y14.3039
G01 X40.6545 Y14.3001
G01 X40.6357 Y14.2936
G01 X40.6200 Y14.2862
G01 X40.6051 Y14.2772
G01 X40.5921 Y14.2677
G01 X40.5783 Y14.2552
G01 X40.2297 Y13.9066
G01 X39.9130 Y13.7749
G01 X39.8963 Y13.7667
G01 X39.8836 Y13.7589
G01 X39.8716 Y13.7501
G01 X39.8568 Y13.7369
G01 X39.8451 Y13.7240
G01 X39.8348 Y13.7101
G01 X39.8248 Y13.6930
G01 X39.8185 Y13.6795
G01 X39.8134 Y13.6654
G01 X39.8090 Y13.6487
G01 X39.8059 Y13.6291
G01 X39.8051 Y13.6117
G01 X39.8062 Y13.5920
G01 X39.8085 Y13.5772
G01 X39.8127 Y13.5604
G01 X39.8186 Y13.5441
G01 X39.8249 Y13.5305
G01 X39.8356 Y13.5125
G01 X39.8453 Y13.4995
G01 X39.8552 Y13.4884
G01 X39.8805 Y13.4631
G01 X39.8900 Y13.4543
G01 X39.9567 Y13.3975
G01 X39.9611 Y13.3927
G01 X39.9661 Y13.3880
G01 X39.9690 Y13.3828
G01 X39.9770 Y13.3704
G01 X39.9859 Y13.3587
G01 X39.9937 Y13.3501
G01 X40.0311 Y13.2565
G01 X40.0372 Y13.2430
G01 X40.5583 Y12.2031
G01 X40.5607 Y12.1968
G01 X40.5671 Y12.1833
G01 X40.5749 Y12.1700
G01 X40.5985 Y12.1228
G01 X40.6072 Y12.1075
G01 X40.6182 Y12.0921
G01 X40.6286 Y12.0802
G01 X40.6671 Y11.9843
G01 X40.6735 Y11.9705
G01 X40.7176 Y11.8857
G01 X40.7181 Y11.8797
G01 X40.7213 Y11.8611
G01 X40.7255 Y11.8455
G01 X40.7296 Y11.8345
G01 X40.7296 Y11.7348
G01 X40.7300 Y11.7236
G01 X40.7375 Y11.6216
G01 X40.7354 Y11.6144
G01 X40.7321 Y11.5993
G01 X40.7303 Y11.5851
G01 X40.7296 Y11.5697
G01 X40.7296 Y8.3991
G01 X40.6294 Y8.1545
G01 X40.6233 Y8.1498
G01 X40.6113 Y8.1389
G01 X40.6004 Y8.1270
G01 X40.5955 Y8.1206
G01 X40.1293 Y7.6543
G01 X40.1229 Y7.6494
G01 X40.1109 Y7.6385
G01 X40.1001 Y7.6266
G01 X40.0951 Y7.6202
G01 X39.6289 Y7.1539
G01 X39.6225 Y7.1490
G01 X39.6106 Y7.1381
G01 X39.5997 Y7.1262
G01 X39.5948 Y7.1198
G01 X39.3848 Y6.9099
G01 X39.1732 Y6.7006
G01 X39.1222 Y6.6790
G01 X39.1143 Y6.6761
G01 X39.1045 Y6.6716
G01 X38.9303 Y6.5982
G01 X26.9191 Y6.5982
G01 X26.7450 Y6.6716
G01 X26.7352 Y6.6761
G01 X26.7273 Y6.6790
G01 X26.6763 Y6.7006
G01 X26.4647 Y6.9099
G01 X26.2547 Y7.1198
G01 X26.2498 Y7.1262
G01 X26.2389 Y7.1381
G01 X26.2270 Y7.1490
G01 X26.2206 Y7.1539
G01 X25.7544 Y7.6202
G01 X25.7494 Y7.6266
G01 X25.7386 Y7.6385
G01 X25.7266 Y7.6494
G01 X25.7202 Y7.6543
G01 X25.2540 Y8.1206
G01 X25.2491 Y8.1270
G01 X25.2382 Y8.1389
G01 X25.2262 Y8.1498
G01 X25.2199 Y8.1547
G01 X24.7536 Y8.6210
G01 X24.7487 Y8.6273
G01 X24.7378 Y8.6393
G01 X24.7259 Y8.6502
G01 X24.7195 Y8.6551
G01 X24.2532 Y9.1213
G01 X24.2483 Y9.1277
G01 X24.2374 Y9.1397
G01 X24.2255 Y9.1505
G01 X24.2191 Y9.1555
G01 X23.7528 Y9.6217
G01 X23.7479 Y9.6281
G01 X23.7370 Y9.6400
G01 X23.7251 Y9.6509
G01 X23.7187 Y9.6558
G01 X23.3738 Y10.0007
G01 X23.3609 Y10.0124
G01 X23.3449 Y10.0241
G01 X23.3321 Y10.0317
G01 X23.3186 Y10.0381
G01 X23.3012 Y10.0446
G01 X23.2832 Y10.0492
G01 X23.2660 Y10.0517
G01 X23.2486 Y10.0526
G01 X23.2322 Y10.0526
G01 X23.2174 Y10.0518
G01 X23.1992 Y10.0493
G01 X23.1825 Y10.0451
G01 X23.1663 Y10.0394
G01 X23.1529 Y10.0332
G01 X23.1339 Y10.0220
G01 X23.1221 Y10.0132
G01 X23.1101 Y10.0026
G01 X22.9810 Y9.8757
G01 X22.7378 Y9.7732
G01 X17.3941 Y9.7732
G01 X17.1513 Y9.8756
G01 X16.9397 Y10.0849
G01 X16.9025 Y10.1221
G01 X16.8975 Y10.1285
G01 X16.8867 Y10.1404
G01 X16.8747 Y10.1513
G01 X16.8683 Y10.1562
G01 X16.4021 Y10.6225
G01 X16.3972 Y10.6289
G01 X16.3863 Y10.6408
G01 X16.3743 Y10.6517
G01 X16.3680 Y10.6566
G01 X15.9017 Y11.1229
G01 X15.8968 Y11.1292
G01 X15.8859 Y11.1412
G01 X15.8740 Y11.1521
G01 X15.8676 Y11.1570
G01 X15.4363 Y11.5882
G01 X15.4234 Y11.5999
G01 X15.4105 Y11.6095
G01 X15.3924 Y11.6203
G01 X15.3789 Y11.6266
G01 X15.3625 Y11.6325
G01 X15.3432 Y11.6371
G01 X15.3285 Y11.6392
G01 X15.3123 Y11.6401
G01 X14.5665 Y11.6401
G01 X14.5532 Y11.6524
G01 X14.5468 Y11.6574
G01 X14.2594 Y11.9447
G01 X14.2474 Y11.9555
G01 X14.2335 Y11.9658
G01 X14.2186 Y11.9748
G01 X14.2017 Y11.9827
G01 X14.1865 Y11.9881
G01 X14.1696 Y11.9923
G01 X14.1525 Y11.9948
G01 X14.1363 Y11.9957
G01 X13.5841 Y11.9957
G01 X13.3413 Y12.0981
G01 X13.3049 Y12.1341
G01 X13.2976 Y12.1419
G01 X13.2878 Y12.1509
G01 X13.1297 Y12.3074
G01 X12.8131 Y12.6240
G01 X12.8081 Y12.6304
G01 X12.7973 Y12.6423
G01 X12.7853 Y12.6532
G01 X12.7789 Y12.6581
G01 X12.3127 Y13.1244
G01 X12.3078 Y13.1308
G01 X12.2969 Y13.1427
G01 X12.2849 Y13.1536
G01 X12.2786 Y13.1585
G01 X11.8851 Y13.5519
G01 X11.8803 Y13.5638
G01 X11.8785 Y13.5704
G01 X11.8730 Y13.5856
G01 X11.8661 Y13.6003
G01 X11.8633 Y13.6053
G01 X11.7849 Y13.7966
G01 X11.7849 Y22.7889
G01 X11.7840 Y22.8062
G01 X11.7817 Y22.8222
G01 X11.7765 Y22.8426
G01 X11.7714 Y22.8567
G01 X11.7639 Y22.8724
G01 X11.7550 Y22.8873
G01 X11.7461 Y22.8993
G01 X11.7329 Y22.9141
G01 X11.0038 Y23.6426
G01 X10.9964 Y23.6507
G01 X10.9881 Y23.6582
G01 X10.5073 Y24.1386
G01 X10.4960 Y24.1511
G01 X10.4834 Y24.1625
G01 X10.0087 Y24.6368
G01 X9.9956 Y24.6514
G01 X9.9808 Y24.6646
G00 Z2.0000
G00 X12.4311 Y26.5777
G01 F60.00
G01 Z-0.0349
G01 F60.00
G01 X12.4359 Y26.5923
G01 X12.4594 Y26.7422
G01 X12.4594 Y27.2753
G01 X12.3059 Y27.2753
G01 X12.3059 Y26.8173
G01 X12.3021 Y26.7389
G01 X12.2897 Y26.6564
G01 X12.2709 Y26.5815
G01 X12.2449 Y26.5087
G01 X12.2100 Y26.4344
G01 X12.1690 Y26.3660
G01 X12.1215 Y26.3020
G01 X12.0679 Y26.2429
G01 X12.0089 Y26.1893
G01 X11.9448 Y26.1419
G01 X11.8765 Y26.1009
G01 X11.8066 Y26.0678
G01 X11.7976 Y26.0643
G01 X11.7976 Y25.9004
G01 X11.8652 Y25.9223
G01 X11.9997 Y25.9907
G01 X12.1219 Y26.0807
G01 X12.2301 Y26.1889
G01 X12.3198 Y26.3107
G01 X12.3885 Y26.4480
G01 X12.4311 Y26.5777
G00 Z2.0000
G00 X10.6811 Y27.8834
G01 F60.00
G01 Z-0.0349
G01 F60.00
G01 X10.6811 Y28.3413
G01 X10.6849 Y28.4185
G01 X10.6967 Y28.4998
G01 X10.7165 Y28.5783
G01 X10.7430 Y28.6522
G01 X10.7770 Y28.7243
G01 X10.8180 Y28.7927
G01 X10.8663 Y28.8576
G01 X10.9191 Y28.9158
G01 X10.9791 Y28.9701
G01 X11.0432 Y29.0175
G01 X11.1095 Y29.0572
G01 X11.1385 Y29.0711
G01 X11.1385 Y29.2417
G01 X11.1218 Y29.2363
G01 X10.9864 Y29.1675
G01 X10.9376 Y29.1321
G01 X10.9333 Y29.1294
G01 X10.8650 Y29.0802
G01 X10.7574 Y28.9705
G01 X10.6668 Y28.8475
G01 X10.5998 Y28.7155
G01 X10.5968 Y28.7079
G01 X10.5511 Y28.5689
G01 X10.5276 Y28.4189
G01 X10.5276 Y27.8834
G01 X10.6811 Y27.8834
G00 Z2.0000
G00 X11.8485 Y29.0711
G01 F60.00
G01 Z-0.0349
G01 F60.00
G01 X11.8775 Y29.0572
G01 X11.9458 Y29.0161
G01 X12.0089 Y28.9693
G01 X12.0671 Y28.9166
G01 X12.1230 Y28.8548
G01 X12.1690 Y28.7927
G01 X12.2105 Y28.7232
G01 X12.2440 Y28.6522
G01 X12.2709 Y28.5771
G01 X12.2903 Y28.4998
G01 X12.3018 Y28.4222
G01 X12.3059 Y28.3413
G01 X12.3059 Y27.8834
G01 X12.4594 Y27.8834
G01 X12.4594 Y28.4189
G01 X12.4359 Y28.5689
G01 X12.3902 Y28.7079
G01 X12.3872 Y28.7155
G01 X12.3202 Y28.8475
G01 X12.2296 Y28.9705
G01 X12.1220 Y29.0802
G01 X12.0537 Y29.1294
G01 X12.0494 Y29.1321
G01 X12.0006 Y29.1675
G01 X11.8652 Y29.2363
G01 X11.8485 Y29.2417
G01 X11.8485 Y29.0711
G00 Z2.0000
G00 X11.8485 Y30.9969
G01 F60.00
G01 Z-0.0349
G01 F60.00
G01 X11.8652 Y31.0023
G01 X11.9997 Y31.0707
G01 X12.1219 Y31.1607
G01 X12.2301 Y31.2689
G01 X12.3198 Y31.3907
G01 X12.3885 Y31.5280
G01 X12.4044 Y31.5765
G01 X12.4065 Y31.5841
G01 X12.4117 Y31.5988
G01 X12.4359 Y31.6723
G01 X12.4549 Y31.7937
G01 X12.4553 Y31.7991
G01 X12.4573 Y31.8126
G01 X12.4594 Y31.8222
G01 X12.4594 Y32.3553
G01 X12.3059 Y32.3553
G01 X12.3059 Y31.8973
G01 X12.3021 Y31.8201
G01 X12.2903 Y31.7388
G01 X12.2705 Y31.6603
G01 X12.2440 Y31.5864
G01 X12.2100 Y31.5144
G01 X12.1690 Y31.4460
G01 X12.1207 Y31.3810
G01 X12.0679 Y31.3229
G01 X12.0079 Y31.2686
G01 X11.9438 Y31.2212
G01 X11.8775 Y31.1815
G01 X11.8485 Y31.1676
G01 X11.8485 Y30.9969
G00 Z2.0000
G00 X10.5276 Y32.3553
G01 F60.00
G01 Z-0.0349
G01 F60.00
G01 X10.5276 Y31.8222
G01 X10.5297 Y31.8126
G01 X10.5317 Y31.7991
G01 X10.5321 Y31.7937
G01 X10.5511 Y31.6723
G01 X10.5753 Y31.5988
G01 X10.5805 Y31.5841
G01 X10.5826 Y31.5765
G01 X10.5985 Y31.5280
G01 X10.6672 Y31.3907
G01 X10.7569 Y31.2689
G01 X10.8650 Y31.1607
G01 X10.9873 Y31.0707
G01 X11.1218 Y31.0023
G01 X11.1385 Y30.9969
G01 X11.1385 Y31.1676
G01 X11.1095 Y31.1815
G01 X11.0432 Y31.2212
G01 X10.9791 Y31.2686
G01 X10.9191 Y31.3229
G01 X10.8663 Y31.3810
G01 X10.8180 Y31.4460
G01 X10.7770 Y31.5144
G01 X10.7430 Y31.5864
G01 X10.7165 Y31.6603
G01 X10.6967 Y31.7388
G01 X10.6849 Y31.8201
G01 X10.6811 Y31.8973
G01 X10.6811 Y32.3553
G01 X10.5276 Y32.3553
G00 Z2.0000
G00 X10.5729 Y33.7153
G01 F60.00
G01 Z-0.0349
G01 F60.00
G01 X10.5511 Y33.6489
G01 X10.5276 Y33.4989
G01 X10.5276 Y32.9634
G01 X10.6811 Y32.9634
G01 X10.6811 Y33.4213
G01 X10.6849 Y33.4985
G01 X10.6967 Y33.5798
G01 X10.7165 Y33.6583
G01 X10.7430 Y33.7322
G01 X10.7770 Y33.8043
G01 X10.8180 Y33.8727
G01 X10.8663 Y33.9376
G01 X10.9191 Y33.9958
G01 X10.9791 Y34.0501
G01 X11.0432 Y34.0975
G01 X11.1095 Y34.1372
G01 X11.1385 Y34.1511
G01 X11.1385 Y34.3217
G01 X11.1218 Y34.3163
G01 X10.9864 Y34.2475
G01 X10.8712 Y34.1646
G01 X10.8634 Y34.1563
G01 X10.8524 Y34.1463
G01 X10.8481 Y34.1429
G01 X10.7574 Y34.0505
G01 X10.6758 Y33.9397
G01 X10.6723 Y33.9341
G01 X10.6655 Y33.9249
G01 X10.5983 Y33.7926
G01 X10.5799 Y33.7366
G01 X10.5780 Y33.7294
G01 X10.5729 Y33.7153
G00 Z2.0000
G00 X12.3059 Y32.9634
G01 F60.00
G01 Z-0.0349
G01 F60.00
G01 X12.4594 Y32.9634
G01 X12.4594 Y33.4989
G01 X12.4359 Y33.6489
G01 X12.4141 Y33.7153
G01 X12.4090 Y33.7294
G01 X12.4071 Y33.7366
G01 X12.3887 Y33.7926
G01 X12.3215 Y33.9249
G01 X12.3147 Y33.9341
G01 X12.3112 Y33.9397
G01 X12.2296 Y34.0505
G01 X12.1389 Y34.1429
G01 X12.1346 Y34.1463
G01 X12.1236 Y34.1563
G01 X12.1162 Y34.1643
G01 X12.0006 Y34.2475
G01 X11.8652 Y34.3163
G01 X11.8485 Y34.3217
G01 X11.8485 Y34.1511
G01 X11.8775 Y34.1372
G01 X11.9438 Y34.0975
G01 X12.0079 Y34.0501
G01 X12.0679 Y33.9958
G01 X12.1207 Y33.9376
G01 X12.1690 Y33.8727
G01 X12.2100 Y33.8043
G01 X12.2440 Y33.7322
G01 X12.2705 Y33.6583
G01 X12.2903 Y33.5798
G01 X12.3021 Y33.4985
G01 X12.3059 Y33.4213
G01 X12.3059 Y32.9634
G00 Z2.0000
G00 X13.2211 Y33.4213
G01 F60.00
G01 Z-0.0349
G01 F60.00
G01 X13.2211 Y31.8973
G01 X13.2250 Y31.8177
G01 X13.2367 Y31.7388
G01 X13.2561 Y31.6615
G01 X13.2840 Y31.5842
G01 X13.3170 Y31.5144
G01 X13.3567 Y31.4481
G01 X13.4048 Y31.3829
G01 X13.4591 Y31.3229
G01 X13.5191 Y31.2686
G01 X13.5832 Y31.2212
G01 X13.6495 Y31.1815
G01 X13.6786 Y31.1676
G01 X13.6785 Y29.0711
G01 X13.6495 Y29.0572
G01 X13.5832 Y29.0175
G01 X13.5172 Y28.9685
G01 X13.4574 Y28.9140
G01 X13.4055 Y28.8567
G01 X13.3587 Y28.7937
G01 X13.3170 Y28.7243
G01 X13.2821 Y28.6499
G01 X13.2561 Y28.5771
G01 X13.2373 Y28.5022
G01 X13.2249 Y28.4197
G01 X13.2211 Y28.3413
G01 X13.2212 Y26.8149
G01 X13.2253 Y26.7353
G01 X13.2367 Y26.6588
G01 X13.2554 Y26.5839
G01 X13.2830 Y26.5064
G01 X13.3170 Y26.4344
G01 X13.3580 Y26.3660
G01 X13.4055 Y26.3020
G01 X13.4591 Y26.2429
G01 X13.5181 Y26.1893
G01 X13.5822 Y26.1419
G01 X13.6505 Y26.1009
G01 X13.7226 Y26.0668
G01 X13.7831 Y26.0451
G01 X14.3732 Y25.1599
G01 X14.3931 Y25.1329
G01 X14.4191 Y25.1043
G01 X14.4431 Y25.0826
G01 X14.4711 Y25.0618
G01 X14.5032 Y25.0428
G01 X14.5325 Y25.0289
G01 X14.5642 Y25.0176
G01 X14.6016 Y25.0083
G01 X14.6337 Y25.0036
G01 X14.6685 Y25.0019
G01 X17.4219 Y25.0019
G01 X17.4558 Y25.0035
G01 X17.4918 Y25.0089
G01 X17.5225 Y25.0164
G01 X17.5523 Y25.0268
G01 X17.5855 Y25.0418
G01 X17.6148 Y25.0589
G01 X17.6405 Y25.0773
G01 X17.6680 Y25.1011
G01 X17.6914 Y25.1258
G01 X17.7108 Y25.1508
G01 X17.7304 Y25.1814
G01 X18.1533 Y25.9254
G01 X18.1695 Y25.9583
G01 X18.1815 Y25.9902
G01 X18.1903 Y26.0231
G01 X18.1966 Y26.0619
G01 X18.1984 Y26.0972
G01 X18.1985 Y45.2123
G01 X18.9430 Y45.9569
G01 X28.8226 Y45.9569
G01 X31.1411 Y43.9283
G01 X31.1411 Y42.1843
G01 X31.1424 Y42.1534
G01 X31.1473 Y42.1181
G01 X31.1544 Y42.0880
G01 X31.1667 Y42.0521
G01 X31.1794 Y42.0239
G01 X31.1958 Y41.9949
G01 X31.2149 Y41.9676
G01 X31.2372 Y41.9414
G01 X31.2602 Y41.9190
G01 X31.2861 Y41.8981
G01 X36.0486 Y38.4056
G01 X36.0799 Y38.3851
G01 X36.1108 Y38.3691
G01 X36.1156 Y38.3670
G01 X36.1481 Y38.3545
G01 X36.1816 Y38.3454
G01 X36.1868 Y38.3443
G01 X36.2211 Y38.3388
G01 X36.2585 Y38.3369
G01 X47.0535 Y38.3369
G01 X47.0717 Y38.3373
G01 X47.0883 Y38.3386
G01 X47.1051 Y38.3406
G01 X47.1227 Y38.3437
G01 X47.1381 Y38.3471
G01 X47.1577 Y38.3525
G01 X47.1726 Y38.3575
G01 X49.6390 Y39.2363
G01 X49.6598 Y39.2445
G01 X49.6723 Y39.2501
G01 X49.6911 Y39.2597
G01 X49.7030 Y39.2666
G01 X49.7197 Y39.2773
G01 X49.7319 Y39.2860
G01 X49.7484 Y39.2991
G01 X49.7588 Y39.3082
G01 X49.7739 Y39.3228
G01 X49.7833 Y39.3329
G01 X49.7970 Y39.3489
G01 X49.8275 Y39.3870
G01 X49.8486 Y39.4164
G01 X49.8583 Y39.4331
G01 X49.9142 Y39.4473
G01 X50.0159 Y39.4838
G01 X50.1124 Y39.5295
G01 X50.2041 Y39.5843
G01 X50.2918 Y39.6494
G01 X50.3701 Y39.7202
G01 X50.4452 Y39.8029
G01 X50.5088 Y39.8887
G01 X50.5631 Y39.9792
G01 X50.6105 Y40.0790
G01 X50.6469 Y40.1808
G01 X50.6726 Y40.2831
G01 X50.6891 Y40.3936
G01 X50.6943 Y40.5003
G01 X50.6943 Y42.6021
G01 X50.6887 Y42.7112
G01 X50.6732 Y42.8156
G01 X50.6476 Y42.9181
G01 X50.6105 Y43.0221
G01 X50.5631 Y43.1219
G01 X50.5088 Y43.2125
G01 X50.4459 Y43.2973
G01 X50.3719 Y43.3793
G01 X50.2899 Y43.4533
G01 X50.2051 Y43.5162
G01 X50.1146 Y43.5705
G01 X50.0148 Y43.6179
G01 X49.9107 Y43.6549
G01 X49.8083 Y43.6805
G01 X49.7038 Y43.6961
G01 X49.5935 Y43.7017
G01 X49.4832 Y43.6961
G01 X49.3787 Y43.6805
G01 X49.2763 Y43.6549
G01 X49.1722 Y43.6179
G01 X49.0724 Y43.5705
G01 X48.9819 Y43.5162
G01 X48.8971 Y43.4533
G01 X48.8143 Y43.3784
G01 X48.7426 Y43.2992
G01 X48.6796 Y43.2145
G01 X48.6216 Y43.1176
G01 X48.5765 Y43.0221
G01 X48.5401 Y42.9204
G01 X48.5138 Y42.8156
G01 X48.4981 Y42.7100
G01 X48.4927 Y42.6009
G01 X48.4927 Y40.5003
G01 X48.4980 Y40.3924
G01 X48.5138 Y40.2855
G01 X48.5401 Y40.1808
G01 X48.5770 Y40.0779
G01 X48.6227 Y39.9814
G01 X48.6789 Y39.8877
G01 X48.7434 Y39.8010
G01 X48.8143 Y39.7228
G01 X48.8353 Y39.7035
G01 X46.9921 Y39.0468
G01 X36.3747 Y39.0468
G01 X31.8509 Y42.3642
G01 X31.8509 Y44.0905
G01 X31.8494 Y44.1229
G01 X31.8450 Y44.1538
G01 X31.8367 Y44.1888
G01 X31.8258 Y44.2205
G01 X31.8130 Y44.2490
G01 X31.7952 Y44.2803
G01 X31.7758 Y44.3077
G01 X31.7555 Y44.3314
G01 X31.7297 Y44.3564
G01 X29.1897 Y46.5789
G01 X29.1590 Y46.6029
G01 X29.1303 Y46.6210
G01 X29.0977 Y46.6372
G01 X29.0636 Y46.6501
G01 X29.0284 Y46.6593
G01 X28.9924 Y46.6649
G01 X28.9560 Y46.6668
G01 X18.8996 Y46.6668
G01 X18.8666 Y46.6652
G01 X18.8140 Y46.6599
G01 X18.7746 Y46.6537
G01 X18.7384 Y46.6439
G01 X18.6914 Y46.6282
G01 X18.6459 Y46.6095
G01 X18.5980 Y46.5855
G01 X18.5655 Y46.5669
G01 X18.5362 Y46.5458
G01 X18.4971 Y46.5146
G01 X18.4729 Y46.4931
G01 X18.4499 Y46.4686
G01 X18.4457 Y46.4635
G01 X17.5917 Y45.6094
G01 X17.5691 Y45.5845
G01 X17.5484 Y45.5565
G01 X17.5305 Y45.5266
G01 X17.5166 Y45.4974
G01 X17.5032 Y45.4600
G01 X17.4954 Y45.4286
G01 X17.4901 Y45.3917
G01 X17.4886 Y45.3593
G01 X17.4885 Y26.1923
G01 X17.2153 Y25.7118
G01 X14.8585 Y25.7118
G01 X14.5430 Y26.1849
G01 X14.5507 Y26.1909
G01 X14.6079 Y26.2429
G01 X14.6615 Y26.3020
G01 X14.7090 Y26.3660
G01 X14.7500 Y26.4344
G01 X14.7840 Y26.5064
G01 X14.8109 Y26.5815
G01 X14.8303 Y26.6588
G01 X14.8418 Y26.7365
G01 X14.8459 Y26.8173
G01 X14.8459 Y28.3413
G01 X14.8417 Y28.4234
G01 X14.8303 Y28.4998
G01 X14.8116 Y28.5748
G01 X14.7849 Y28.6499
G01 X14.7500 Y28.7243
G01 X14.7083 Y28.7937
G01 X14.6599 Y28.8585
G01 X14.6079 Y28.9158
G01 X14.5498 Y28.9685
G01 X14.4838 Y29.0175
G01 X14.4175 Y29.0572
G01 X14.3884 Y29.0711
G01 X14.3885 Y31.1676
G01 X14.4175 Y31.1815
G01 X14.4838 Y31.2212
G01 X14.5498 Y31.2701
G01 X14.6079 Y31.3229
G01 X14.6599 Y31.3801
G01 X14.7096 Y31.4470
G01 X14.7500 Y31.5144
G01 X14.7830 Y31.5842
G01 X14.8109 Y31.6615
G01 X14.8303 Y31.7388
G01 X14.8417 Y31.8153
G01 X14.8459 Y31.8973
G01 X14.8459 Y33.4213
G01 X14.8420 Y33.5009
G01 X14.8303 Y33.5798
G01 X14.8109 Y33.6571
G01 X14.7830 Y33.7344
G01 X14.7500 Y33.8043
G01 X14.7103 Y33.8706
G01 X14.6622 Y33.9357
G01 X14.6079 Y33.9958
G01 X14.5479 Y34.0501
G01 X14.4838 Y34.0975
G01 X14.4175 Y34.1372
G01 X14.3884 Y34.1511
G01 X14.3885 Y42.5976
G01 X14.4175 Y42.6115
G01 X14.4838 Y42.6512
G01 X14.5479 Y42.6986
G01 X14.6079 Y42.7529
G01 X14.6622 Y42.8129
G01 X14.7103 Y42.8781
G01 X14.7500 Y42.9444
G01 X14.7830 Y43.0142
G01 X14.8109 Y43.0915
G01 X14.8303 Y43.1688
G01 X14.8420 Y43.2477
G01 X14.8459 Y43.3273
G01 X14.8459 Y44.8513
G01 X14.8421 Y44.9285
G01 X14.8303 Y45.0098
G01 X14.8109 Y45.0871
G01 X14.7840 Y45.1622
G01 X14.7487 Y45.2364
G01 X14.7090 Y45.3027
G01 X14.6630 Y45.3648
G01 X14.6096 Y45.4240
G01 X14.5489 Y45.4793
G01 X14.4848 Y45.5268
G01 X14.4165 Y45.5678
G01 X14.3444 Y45.6019
G01 X14.2693 Y45.6287
G01 X14.1896 Y45.6485
G01 X14.1107 Y45.6600
G01 X14.0335 Y45.6637
G01 X13.9563 Y45.6600
G01 X13.8750 Y45.6481
G01 X13.8000 Y45.6294
G01 X13.7204 Y45.6009
G01 X13.6505 Y45.5678
G01 X13.5822 Y45.5268
G01 X13.5181 Y45.4793
G01 X13.4608 Y45.4275
G01 X13.4040 Y45.3648
G01 X13.3580 Y45.3027
G01 X13.3170 Y45.2343
G01 X13.2830 Y45.1622
G01 X13.2569 Y45.0895
G01 X13.2363 Y45.0074
G01 X13.2250 Y44.9309
G01 X13.2212 Y44.8538
G01 X13.2211 Y43.3273
G01 X13.2250 Y43.2477
G01 X13.2367 Y43.1688
G01 X13.2561 Y43.0915
G01 X13.2840 Y43.0142
G01 X13.3170 Y42.9444
G01 X13.3567 Y42.8781
G01 X13.4048 Y42.8129
G01 X13.4591 Y42.7529
G01 X13.5191 Y42.6986
G01 X13.5832 Y42.6512
G01 X13.6495 Y42.6115
G01 X13.6786 Y42.5976
G01 X13.6785 Y34.1511
G01 X13.6495 Y34.1372
G01 X13.5832 Y34.0975
G01 X13.5172 Y34.0485
G01 X13.4591 Y33.9958
G01 X13.4071 Y33.9385
G01 X13.3574 Y33.8716
G01 X13.3170 Y33.8043
G01 X13.2840 Y33.7344
G01 X13.2561 Y33.6571
G01 X13.2367 Y33.5798
G01 X13.2253 Y33.5034
G01 X13.2211 Y33.4213
G00 Z2.0000
G00 X8.8516 Y35.9606
G01 F60.00
G01 Z-0.0349
G01 F60.00
G01 X9.0554 Y35.9606
G01 X9.2418 Y36.0378
G01 X9.3459 Y36.1419
G01 X9.3508 Y36.1482
G01 X9.3617 Y36.1602
G01 X9.3736 Y36.1711
G01 X9.3800 Y36.1760
G01 X9.3848 Y36.1808
G01 X9.4211 Y36.2692
G01 X9.3733 Y36.2574
G01 X9.1663 Y36.2267
G01 X8.9535 Y36.2161
G01 X8.7407 Y36.2267
G01 X8.5337 Y36.2574
G01 X8.4859 Y36.2692
G01 X8.5222 Y36.1808
G01 X8.5270 Y36.1760
G01 X8.5334 Y36.1711
G01 X8.5453 Y36.1602
G01 X8.5562 Y36.1482
G01 X8.5611 Y36.1419
G01 X8.6652 Y36.0378
G01 X8.8516 Y35.9606
G00 Z2.0000
G00 X8.1411 Y32.9697
G01 F60.00
G01 Z-0.0349
G01 F60.00
G01 X8.1411 Y31.8961
G01 X8.1453 Y31.8153
G01 X8.1567 Y31.7388
G01 X8.1754 Y31.6639
G01 X8.2030 Y31.5864
G01 X8.2370 Y31.5144
G01 X8.2780 Y31.4460
G01 X8.3263 Y31.3810
G01 X8.3791 Y31.3229
G01 X8.4391 Y31.2686
G01 X8.5032 Y31.2212
G01 X8.5695 Y31.1815
G01 X8.5986 Y31.1676
G01 X8.5985 Y29.0711
G01 X8.5695 Y29.0572
G01 X8.5032 Y29.0175
G01 X8.4372 Y28.9685
G01 X8.3774 Y28.9140
G01 X8.3255 Y28.8567
G01 X8.2787 Y28.7937
G01 X8.2370 Y28.7243
G01 X8.2021 Y28.6499
G01 X8.1761 Y28.5771
G01 X8.1573 Y28.5022
G01 X8.1450 Y28.4209
G01 X8.1411 Y28.3413
G01 X8.1411 Y26.8161
G01 X8.1453 Y26.7353
G01 X8.1567 Y26.6588
G01 X8.1754 Y26.5839
G01 X8.2040 Y26.5042
G01 X8.2370 Y26.4344
G01 X8.2794 Y26.3640
G01 X8.3255 Y26.3020
G01 X8.3791 Y26.2429
G01 X8.4381 Y26.1893
G01 X8.5032 Y26.1412
G01 X8.5705 Y26.1009
G01 X8.6426 Y26.0668
G01 X8.7177 Y26.0399
G01 X8.7938 Y26.0208
G01 X8.8739 Y26.0089
G01 X8.9523 Y26.0050
G01 X9.0319 Y26.0087
G01 X9.0648 Y26.0135
G01 X12.0911 Y22.9873
G01 X12.0911 Y13.9268
G01 X12.0929 Y13.8908
G01 X12.0979 Y13.8576
G01 X12.1057 Y13.8261
G01 X12.1191 Y13.7887
G01 X12.1330 Y13.7595
G01 X12.1509 Y13.7296
G01 X12.1716 Y13.7016
G01 X12.1933 Y13.6776
G01 X13.4650 Y12.4058
G01 X13.4918 Y12.3817
G01 X13.5188 Y12.3617
G01 X13.5465 Y12.3450
G01 X13.5802 Y12.3289
G01 X13.6153 Y12.3165
G01 X13.6468 Y12.3087
G01 X13.6812 Y12.3036
G01 X13.7160 Y12.3019
G01 X14.3363 Y12.3019
G01 X14.6780 Y11.9602
G01 X14.6837 Y11.9555
G01 X14.6900 Y11.9518
G01 X14.6968 Y11.9489
G01 X14.7039 Y11.9472
G01 X14.7125 Y11.9464
G01 X15.2595 Y11.9464
G01 X15.2681 Y11.9472
G01 X15.2752 Y11.9489
G01 X15.2809 Y11.9512
G01 X15.2873 Y11.9549
G01 X15.2931 Y11.9594
G01 X15.3961 Y12.0623
G01 X17.2759 Y10.1825
G01 X17.3008 Y10.1599
G01 X17.3268 Y10.1406
G01 X17.3587 Y10.1213
G01 X17.3902 Y10.1064
G01 X17.4206 Y10.0954
G01 X17.4568 Y10.0862
G01 X17.4912 Y10.0811
G01 X17.5260 Y10.0794
G01 X22.6085 Y10.0794
G01 X22.6408 Y10.0811
G01 X22.6728 Y10.0858
G01 X22.7090 Y10.0947
G01 X22.7418 Y10.1064
G01 X22.7711 Y10.1202
G01 X22.8032 Y10.1392
G01 X22.8312 Y10.1599
G01 X22.8561 Y10.1825
G01 X23.0326 Y10.3589
G01 X23.4494 Y10.3589
G01 X26.8009 Y7.0075
G01 X26.8258 Y6.9849
G01 X26.8518 Y6.9656
G01 X26.8837 Y6.9463
G01 X26.9152 Y6.9314
G01 X26.9456 Y6.9204
G01 X26.9842 Y6.9108
G01 X27.0162 Y6.9061
G01 X27.0510 Y6.9044
G01 X38.7985 Y6.9044
G01 X38.8333 Y6.9061
G01 X38.8677 Y6.9112
G01 X38.8992 Y6.9190
G01 X38.9366 Y6.9324
G01 X38.9658 Y6.9463
G01 X38.9957 Y6.9642
G01 X39.0237 Y6.9849
G01 X39.0477 Y7.0066
G01 X40.3195 Y8.2783
G01 X40.3436 Y8.3051
G01 X40.3636 Y8.3321
G01 X40.3815 Y8.3620
G01 X40.3964 Y8.3935
G01 X40.4074 Y8.4240
G01 X40.4170 Y8.4625
G01 X40.4217 Y8.4945
G01 X40.4234 Y8.5281
G01 X40.4234 Y11.7043
G01 X40.4218 Y11.7383
G01 X40.4174 Y11.7698
G01 X40.4098 Y11.8018
G01 X40.3993 Y11.8330
G01 X40.3865 Y11.8620
G01 X39.7504 Y13.1342
G01 X39.7320 Y13.1662
G01 X39.7128 Y13.1933
G01 X39.6911 Y13.2184
G01 X39.6634 Y13.2448
G01 X39.6351 Y13.2665
G01 X39.6047 Y13.2853
G01 X39.5702 Y13.3018
G01 X39.5391 Y13.3132
G01 X39.5069 Y13.3215
G01 X39.4692 Y13.3275
G01 X39.4335 Y13.3293
G01 X37.9930 Y13.3293
G01 X37.2590 Y14.0633
G01 X37.3159 Y14.0838
G01 X37.4113 Y14.1289
G01 X37.5061 Y14.1857
G01 X37.5937 Y14.2510
G01 X37.6719 Y14.3219
G01 X37.7436 Y14.4010
G01 X37.8088 Y14.4887
G01 X37.8654 Y14.5836
G01 X37.9105 Y14.6790
G01 X37.9461 Y14.7784
G01 X37.9734 Y14.8867
G01 X37.9890 Y14.9924
G01 X37.9943 Y15.1003
G01 X37.9943 Y17.2021
G01 X37.9890 Y17.3088
G01 X37.9732 Y17.4156
G01 X37.9469 Y17.5204
G01 X37.9095 Y17.6244
G01 X37.8643 Y17.7198
G01 X37.8101 Y17.8104
G01 X37.7444 Y17.8992
G01 X37.6701 Y17.9810
G01 X37.5918 Y18.0518
G01 X37.5071 Y18.1148
G01 X37.4124 Y18.1717
G01 X37.3125 Y18.2188
G01 X37.2130 Y18.2543
G01 X37.1107 Y18.2800
G01 X36.9990 Y18.2966
G01 X36.8935 Y18.3017
G01 X36.7880 Y18.2966
G01 X36.6787 Y18.2805
G01 X36.5716 Y18.2535
G01 X36.4722 Y18.2179
G01 X36.3746 Y18.1717
G01 X36.2799 Y18.1148
G01 X36.1952 Y18.0518
G01 X36.1151 Y17.9793
G01 X36.0411 Y17.8973
G01 X35.9782 Y17.8125
G01 X35.9277 Y17.7282
G01 X33.7559 Y20.0974
G01 X33.7560 Y22.6855
G01 X37.4805 Y27.0308
G01 X37.5025 Y27.0592
G01 X37.5220 Y27.0908
G01 X37.5382 Y27.1243
G01 X37.5497 Y27.1557
G01 X37.5581 Y27.1880
G01 X37.5641 Y27.2259
G01 X37.5659 Y27.2606
G01 X37.5660 Y30.0819
G01 X41.2628 Y30.0819
G01 X41.2628 Y29.7752
G01 X41.2662 Y29.7068
G01 X41.2762 Y29.6390
G01 X41.2934 Y29.5701
G01 X41.3169 Y29.5044
G01 X41.3467 Y29.4414
G01 X41.3832 Y29.3805
G01 X41.4257 Y29.3237
G01 X41.4709 Y29.2739
G01 X41.5208 Y29.2286
G01 X41.5786 Y29.1855
G01 X41.6385 Y29.1496
G01 X41.7015 Y29.1198
G01 X41.7696 Y29.0956
G01 X41.8348 Y29.0793
G01 X41.9014 Y29.0694
G01 X41.9735 Y29.0657
G01 X42.0456 Y29.0694
G01 X42.1122 Y29.0793
G01 X42.1774 Y29.0956
G01 X42.2455 Y29.1198
G01 X42.3085 Y29.1496
G01 X42.3684 Y29.1855
G01 X42.4262 Y29.2286
G01 X42.4761 Y29.2739
G01 X42.5213 Y29.3237
G01 X42.5638 Y29.3805
G01 X42.6003 Y29.4414
G01 X42.6301 Y29.5044
G01 X42.6536 Y29.5701
G01 X42.6708 Y29.6390
G01 X42.6808 Y29.7068
G01 X42.6842 Y29.7752
G01 X42.6842 Y30.0819
G01 X43.8028 Y30.0819
G01 X43.8028 Y29.7764
G01 X43.8062 Y29.7068
G01 X43.8164 Y29.6378
G01 X43.8327 Y29.5725
G01 X43.8569 Y29.5044
G01 X43.8867 Y29.4414
G01 X43.9226 Y29.3816
G01 X43.9641 Y29.3255
G01 X44.0092 Y29.2756
G01 X44.0646 Y29.2255
G01 X44.1186 Y29.1855
G01 X44.1796 Y29.1490
G01 X44.2415 Y29.1198
G01 X44.3049 Y29.0971
G01 X44.3748 Y29.0793
G01 X44.4463 Y29.0689
G01 X44.5135 Y29.0657
G01 X44.5807 Y29.0689
G01 X44.6522 Y29.0793
G01 X44.7221 Y29.0971
G01 X44.7855 Y29.1198
G01 X44.8463 Y29.1485
G01 X44.9084 Y29.1855
G01 X44.9644 Y29.2270
G01 X45.0143 Y29.2722
G01 X45.0629 Y29.3255
G01 X45.1058 Y29.3836
G01 X45.1403 Y29.4414
G01 X45.1691 Y29.5022
G01 X45.1936 Y29.5701
G01 X45.2110 Y29.6402
G01 X45.2210 Y29.7092
G01 X45.2242 Y29.7752
G01 X45.2242 Y29.8591
G01 X45.3906 Y29.6927
G01 X45.3906 Y29.2108
G01 X45.3910 Y29.2047
G01 X45.3921 Y29.1986
G01 X45.3940 Y29.1928
G01 X45.3965 Y29.1872
G01 X45.4004 Y29.1810
G01 X45.4052 Y29.1754
G01 X45.7939 Y28.7869
G01 X45.8007 Y28.7817
G01 X45.8083 Y28.7777
G01 X45.8177 Y28.7749
G01 X45.8262 Y28.7739
G01 X46.3745 Y28.7739
G01 X46.3807 Y28.7743
G01 X46.3867 Y28.7754
G01 X46.3914 Y28.7768
G01 X46.3970 Y28.7793
G01 X46.4033 Y28.7830
G01 X46.4099 Y28.7886
G01 X46.7968 Y29.1754
G01 X46.8030 Y29.1830
G01 X46.8076 Y29.1916
G01 X46.8104 Y29.2010
G01 X46.8114 Y29.2108
G01 X46.8114 Y29.7579
G01 X46.8110 Y29.7640
G01 X46.8099 Y29.7700
G01 X46.8085 Y29.7747
G01 X46.8061 Y29.7803
G01 X46.8023 Y29.7867
G01 X46.7968 Y29.7932
G01 X46.4099 Y30.1801
G01 X46.4033 Y30.1856
G01 X46.3948 Y30.1904
G01 X46.3855 Y30.1935
G01 X46.3794 Y30.1945
G01 X46.3745 Y30.1947
G01 X45.8926 Y30.1947
G01 X45.3995 Y30.6878
G01 X45.3746 Y30.7104
G01 X45.3457 Y30.7320
G01 X45.3136 Y30.7510
G01 X45.2820 Y30.7656
G01 X45.2515 Y30.7765
G01 X45.2242 Y30.7834
G01 X45.2242 Y31.0972
G01 X45.2210 Y31.1644
G01 X45.2106 Y31.2359
G01 X45.1936 Y31.3035
G01 X45.1701 Y31.3692
G01 X45.1414 Y31.4301
G01 X45.1044 Y31.4921
G01 X45.0629 Y31.5481
G01 X45.0178 Y31.5980
G01 X44.9634 Y31.6474
G01 X44.9084 Y31.6882
G01 X44.8507 Y31.7228
G01 X44.7832 Y31.7547
G01 X44.7198 Y31.7773
G01 X44.6522 Y31.7943
G01 X44.5832 Y31.8045
G01 X44.5160 Y31.8079
G01 X44.4414 Y31.8042
G01 X44.3748 Y31.7943
G01 X44.3072 Y31.7773
G01 X44.2415 Y31.7538
G01 X44.1807 Y31.7251
G01 X44.1166 Y31.6868
G01 X44.0626 Y31.6466
G01 X44.0109 Y31.5998
G01 X43.9641 Y31.5481
G01 X43.9240 Y31.4941
G01 X43.8856 Y31.4301
G01 X43.8569 Y31.3692
G01 X43.8341 Y31.3059
G01 X43.8164 Y31.2359
G01 X43.8060 Y31.1644
G01 X43.8028 Y31.0972
G01 X43.8028 Y30.7918
G01 X42.6842 Y30.7918
G01 X42.6842 Y31.0984
G01 X42.6808 Y31.1669
G01 X42.6708 Y31.2347
G01 X42.6536 Y31.3035
G01 X42.6301 Y31.3692
G01 X42.6003 Y31.4323
G01 X42.5638 Y31.4931
G01 X42.5213 Y31.5500
G01 X42.4761 Y31.5998
G01 X42.4262 Y31.6450
G01 X42.3684 Y31.6882
G01 X42.3085 Y31.7240
G01 X42.2432 Y31.7547
G01 X42.1798 Y31.7773
G01 X42.1146 Y31.7938
G01 X42.0432 Y31.8045
G01 X41.9735 Y31.8079
G01 X41.9014 Y31.8042
G01 X41.8348 Y31.7943
G01 X41.7696 Y31.7780
G01 X41.7015 Y31.7538
G01 X41.6385 Y31.7240
G01 X41.5786 Y31.6882
G01 X41.5208 Y31.6450
G01 X41.4709 Y31.5998
G01 X41.4257 Y31.5500
G01 X41.3832 Y31.4931
G01 X41.3467 Y31.4323
G01 X41.3169 Y31.3692
G01 X41.2934 Y31.3035
G01 X41.2762 Y31.2347
G01 X41.2662 Y31.1669
G01 X41.2628 Y31.0984
G01 X41.2628 Y30.7918
G01 X37.6755 Y30.7918
G01 X37.6537 Y30.8136
G01 X38.4839 Y32.2664
G01 X38.7558 Y32.2664
G01 X38.7619 Y32.2670
G01 X38.7679 Y32.2682
G01 X38.7748 Y32.2707
G01 X38.7803 Y32.2735
G01 X38.7853 Y32.2770
G01 X38.7899 Y32.2811
G01 X39.1776 Y32.6688
G01 X39.1823 Y32.6745
G01 X39.1861 Y32.6808
G01 X39.1889 Y32.6876
G01 X39.1907 Y32.6947
G01 X39.1914 Y32.7033
G01 X39.1914 Y33.2504
G01 X39.1904 Y33.2601
G01 X39.1876 Y33.2695
G01 X39.1830 Y33.2781
G01 X39.1768 Y33.2857
G01 X38.7890 Y33.6734
G01 X38.7823 Y33.6788
G01 X38.7737 Y33.6834
G01 X38.7643 Y33.6863
G01 X38.7545 Y33.6872
G01 X38.2062 Y33.6872
G01 X38.1989 Y33.6865
G01 X38.1906 Y33.6843
G01 X38.1839 Y33.6813
G01 X38.1777 Y33.6774
G01 X38.1721 Y33.6726
G01 X37.7852 Y33.2857
G01 X37.7797 Y33.2792
G01 X37.7754 Y33.2717
G01 X37.7731 Y33.2660
G01 X37.7718 Y33.2613
G01 X37.7708 Y33.2553
G01 X37.7706 Y33.2504
G01 X37.7706 Y32.7033
G01 X37.7710 Y32.6972
G01 X37.7724 Y32.6899
G01 X37.7749 Y32.6830
G01 X37.7784 Y32.6765
G01 X37.7827 Y32.6706
G01 X37.8555 Y32.5976
G01 X36.9028 Y30.9304
G01 X36.8974 Y30.9206
G01 X36.8876 Y30.9005
G01 X36.8826 Y30.8890
G01 X36.8748 Y30.8681
G01 X36.8713 Y30.8574
G01 X36.8653 Y30.8346
G01 X36.8629 Y30.8236
G01 X36.8591 Y30.8003
G01 X36.8578 Y30.7891
G01 X36.8562 Y30.7656
G01 X36.8561 Y30.7543
G01 X36.8560 Y27.3931
G01 X33.1315 Y23.0478
G01 X33.1095 Y23.0194
G01 X33.0894 Y22.9867
G01 X33.0748 Y22.9567
G01 X33.0631 Y22.9254
G01 X33.0536 Y22.8894
G01 X33.0479 Y22.8527
G01 X33.0461 Y22.8168
G01 X33.0461 Y19.9593
G01 X33.0466 Y19.9399
G01 X33.0478 Y19.9245
G01 X33.0502 Y19.9053
G01 X33.0529 Y19.8901
G01 X33.0572 Y19.8711
G01 X33.0613 Y19.8563
G01 X33.0675 Y19.8379
G01 X33.0736 Y19.8224
G01 X33.0810 Y19.8058
G01 X33.0880 Y19.7920
G01 X33.0976 Y19.7751
G01 X33.1052 Y19.7631
G01 X33.1178 Y19.7453
G01 X33.1266 Y19.7341
G01 X33.1393 Y19.7195
G01 X35.7927 Y16.8249
G01 X35.7927 Y16.5043
G01 X35.6223 Y16.5043
G01 X35.5887 Y16.5026
G01 X35.5543 Y16.4974
G01 X35.5181 Y16.4882
G01 X35.4877 Y16.4773
G01 X35.4584 Y16.4635
G01 X35.4263 Y16.4445
G01 X35.3974 Y16.4229
G01 X35.3725 Y16.4003
G01 X33.6094 Y14.6372
G01 X33.1262 Y14.6372
G01 X33.1177 Y14.6363
G01 X33.1095 Y14.6339
G01 X33.1017 Y14.6301
G01 X33.0939 Y14.6243
G01 X32.7052 Y14.2357
G01 X32.6990 Y14.2281
G01 X32.6944 Y14.2195
G01 X32.6916 Y14.2101
G01 X32.6906 Y14.2004
G01 X32.6906 Y13.6533
G01 X32.6910 Y13.6472
G01 X32.6918 Y13.6423
G01 X32.6935 Y13.6364
G01 X32.6954 Y13.6319
G01 X32.6997 Y13.6245
G01 X32.7052 Y13.6179
G01 X33.0921 Y13.2311
G01 X33.0997 Y13.2249
G01 X33.1083 Y13.2202
G01 X33.1177 Y13.2174
G01 X33.1275 Y13.2164
G01 X33.6745 Y13.2164
G01 X33.6819 Y13.2170
G01 X33.6891 Y13.2186
G01 X33.6959 Y13.2212
G01 X33.7033 Y13.2255
G01 X33.7099 Y13.2311
G01 X34.0968 Y13.6179
G01 X34.1023 Y13.6245
G01 X34.1071 Y13.6330
G01 X34.1092 Y13.6388
G01 X34.1104 Y13.6435
G01 X34.1114 Y13.6533
G01 X34.1114 Y14.1352
G01 X35.7705 Y15.7944
G01 X35.7927 Y15.7944
G01 X35.7927 Y15.1003
G01 X35.7980 Y14.9924
G01 X35.8138 Y14.8855
G01 X35.8401 Y14.7808
G01 X35.8765 Y14.6790
G01 X35.9239 Y14.5792
G01 X35.9782 Y14.4887
G01 X36.0426 Y14.4020
G01 X36.1151 Y14.3219
G01 X36.1942 Y14.2502
G01 X36.2819 Y14.1850
G01 X36.3735 Y14.1301
G01 X36.4722 Y14.0833
G01 X36.5386 Y14.0595
G01 X36.5386 Y13.9256
G01 X36.5403 Y13.8920
G01 X36.5456 Y13.8564
G01 X36.5538 Y13.8238
G01 X36.5666 Y13.7887
G01 X36.5805 Y13.7595
G01 X36.5971 Y13.7317
G01 X36.6184 Y13.7026
G01 X36.6425 Y13.6758
G01 X37.5968 Y12.7216
G01 X37.6208 Y12.6999
G01 X37.6488 Y12.6792
G01 X37.6787 Y12.6613
G01 X37.7079 Y12.6474
G01 X37.7453 Y12.6340
G01 X37.7768 Y12.6262
G01 X37.8124 Y12.6210
G01 X37.8460 Y12.6194
G01 X39.2141 Y12.6194
G01 X39.7136 Y11.6205
G01 X39.7135 Y8.6763
G01 X38.6515 Y7.6143
G01 X27.1980 Y7.6143
G01 X23.9514 Y10.8609
G01 X23.9514 Y11.3429
G01 X23.9504 Y11.3526
G01 X23.9492 Y11.3574
G01 X23.9471 Y11.3631
G01 X23.9430 Y11.3706
G01 X23.9368 Y11.3782
G01 X23.5499 Y11.7651
G01 X23.5423 Y11.7713
G01 X23.5348 Y11.7754
G01 X23.5291 Y11.7776
G01 X23.5243 Y11.7788
G01 X23.5145 Y11.7797
G01 X22.9662 Y11.7797
G01 X22.9577 Y11.7788
G01 X22.9495 Y11.7764
G01 X22.9407 Y11.7720
G01 X22.9339 Y11.7668
G01 X22.5452 Y11.3782
G01 X22.5397 Y11.3717
G01 X22.5354 Y11.3642
G01 X22.5331 Y11.3585
G01 X22.5318 Y11.3538
G01 X22.5308 Y11.3478
G01 X22.5306 Y11.3429
G01 X22.5306 Y10.8609
G01 X22.4590 Y10.7893
G01 X17.6730 Y10.7893
G01 X15.6964 Y12.7659
G01 X15.6963 Y12.9328
G01 X15.6957 Y12.9389
G01 X15.6939 Y12.9460
G01 X15.6911 Y12.9528
G01 X15.6873 Y12.9592
G01 X15.6818 Y12.9657
G01 X15.2949 Y13.3526
G01 X15.2873 Y13.3588
G01 X15.2809 Y13.3624
G01 X15.2741 Y13.3651
G01 X15.2669 Y13.3667
G01 X15.2595 Y13.3672
G01 X14.7125 Y13.3672
G01 X14.7063 Y13.3668
G01 X14.7003 Y13.3657
G01 X14.6933 Y13.3634
G01 X14.6878 Y13.3607
G01 X14.6827 Y13.3574
G01 X14.6780 Y13.3534
G01 X14.3363 Y13.0118
G01 X13.8630 Y13.0118
G01 X12.8009 Y14.0738
G01 X12.8009 Y23.1343
G01 X12.7992 Y23.1691
G01 X12.7945 Y23.2011
G01 X12.7849 Y23.2397
G01 X12.7739 Y23.2702
G01 X12.7590 Y23.3016
G01 X12.7397 Y23.3335
G01 X12.7204 Y23.3595
G01 X12.6978 Y23.3844
G01 X9.6617 Y26.4206
G01 X9.6705 Y26.4355
G01 X9.7036 Y26.5053
G01 X9.7309 Y26.5815
G01 X9.7503 Y26.6588
G01 X9.7621 Y26.7401
G01 X9.7659 Y26.8173
G01 X9.7659 Y28.3413
G01 X9.7621 Y28.4197
G01 X9.7503 Y28.4998
G01 X9.7301 Y28.5795
G01 X9.7040 Y28.6522
G01 X9.6711 Y28.7221
G01 X9.6283 Y28.7937
G01 X9.5799 Y28.8585
G01 X9.5279 Y28.9158
G01 X9.4698 Y28.9685
G01 X9.4038 Y29.0175
G01 X9.3375 Y29.0572
G01 X9.3084 Y29.0711
G01 X9.3085 Y31.1676
G01 X9.3375 Y31.1815
G01 X9.4038 Y31.2212
G01 X9.4679 Y31.2686
G01 X9.5279 Y31.3229
G01 X9.5822 Y31.3829
G01 X9.6303 Y31.4481
G01 X9.6700 Y31.5144
G01 X9.7030 Y31.5842
G01 X9.7309 Y31.6615
G01 X9.7505 Y31.7400
G01 X9.7620 Y31.8177
G01 X9.7659 Y31.8973
G01 X9.7659 Y33.4213
G01 X9.7617 Y33.5034
G01 X9.7503 Y33.5798
G01 X9.7309 Y33.6571
G01 X9.7030 Y33.7344
G01 X9.6700 Y33.8043
G01 X9.6290 Y33.8727
G01 X9.5799 Y33.9385
G01 X9.5279 Y33.9958
G01 X9.4689 Y34.0493
G01 X9.4048 Y34.0968
G01 X9.3386 Y34.1366
G01 X9.2644 Y34.1719
G01 X9.1870 Y34.1994
G01 X9.1120 Y34.2181
G01 X9.0343 Y34.2297
G01 X8.9510 Y34.2336
G01 X8.8739 Y34.2298
G01 X8.7950 Y34.2181
G01 X8.7153 Y34.1979
G01 X8.6426 Y34.1719
G01 X8.5716 Y34.1383
G01 X8.5002 Y34.0954
G01 X8.4381 Y34.0493
G01 X8.3799 Y33.9966
G01 X8.3248 Y33.9357
G01 X8.2787 Y33.8737
G01 X8.2645 Y33.8503
G01 X6.1334 Y35.9813
G01 X6.1335 Y40.7673
G01 X8.2645 Y42.8984
G01 X8.2787 Y42.8750
G01 X8.3248 Y42.8129
G01 X8.3799 Y42.7520
G01 X8.4381 Y42.6993
G01 X8.5002 Y42.6533
G01 X8.5716 Y42.6103
G01 X8.6426 Y42.5768
G01 X8.7153 Y42.5507
G01 X8.7950 Y42.5306
G01 X8.8739 Y42.5189
G01 X8.9510 Y42.5150
G01 X9.0343 Y42.5190
G01 X9.1120 Y42.5306
G01 X9.1870 Y42.5493
G01 X9.2644 Y42.5768
G01 X9.3386 Y42.6121
G01 X9.4048 Y42.6519
G01 X9.4689 Y42.6993
G01 X9.5296 Y42.7547
G01 X9.5815 Y42.8120
G01 X9.6290 Y42.8760
G01 X9.6711 Y42.9466
G01 X9.7040 Y43.0164
G01 X9.7309 Y43.0915
G01 X9.7503 Y43.1688
G01 X9.7617 Y43.2453
G01 X9.7659 Y43.3273
G01 X9.7659 Y44.8525
G01 X9.7617 Y44.9334
G01 X9.7503 Y45.0098
G01 X9.7312 Y45.0860
G01 X9.7030 Y45.1644
G01 X9.6700 Y45.2343
G01 X9.6290 Y45.3027
G01 X9.5799 Y45.3685
G01 X9.5279 Y45.4258
G01 X9.4689 Y45.4793
G01 X9.4048 Y45.5268
G01 X9.3386 Y45.5666
G01 X9.2644 Y45.6019
G01 X9.1893 Y45.6287
G01 X9.1144 Y45.6476
G01 X9.0319 Y45.6599
G01 X8.9535 Y45.6637
G01 X8.8763 Y45.6600
G01 X8.7950 Y45.6481
G01 X8.7177 Y45.6287
G01 X8.6449 Y45.6027
G01 X8.5705 Y45.5678
G01 X8.5022 Y45.5268
G01 X8.4401 Y45.4808
G01 X8.3791 Y45.4258
G01 X8.3255 Y45.3667
G01 X8.2794 Y45.3047
G01 X8.2359 Y45.2321
G01 X8.2030 Y45.1622
G01 X8.1761 Y45.0871
G01 X8.1567 Y45.0098
G01 X8.1449 Y44.9297
G01 X8.1411 Y44.8513
G01 X8.1411 Y43.7789
G01 X5.5267 Y41.1644
G01 X5.5041 Y41.1395
G01 X5.4834 Y41.1115
G01 X5.4655 Y41.0816
G01 X5.4516 Y41.0524
G01 X5.4382 Y41.0150
G01 X5.4304 Y40.9836
G01 X5.4252 Y40.9479
G01 X5.4236 Y40.9143
G01 X5.4236 Y35.8343
G01 X5.4253 Y35.7995
G01 X5.4300 Y35.7675
G01 X5.4392 Y35.7301
G01 X5.4516 Y35.6962
G01 X5.4655 Y35.6670
G01 X5.4821 Y35.6392
G01 X5.5041 Y35.6091
G01 X5.5275 Y35.5833
G01 X8.1411 Y32.9697
G00 Z2.0000
G00 X8.4854 Y40.4793
G01 F60.00
G01 Z-0.0349
G01 F60.00
G01 X8.5337 Y40.4913
G01 X8.7407 Y40.5220
G01 X8.9535 Y40.5325
G01 X9.1663 Y40.5220
G01 X9.3733 Y40.4913
G01 X9.4216 Y40.4793
G01 X9.3851 Y40.5676
G01 X9.2418 Y40.7109
G01 X9.0554 Y40.7881
G01 X8.8516 Y40.7881
G01 X8.6652 Y40.7109
G01 X8.5219 Y40.5676
G01 X8.4854 Y40.4793
G00 Z2.0000
G00 X7.4491 Y41.6502
G01 F60.00
G01 Z-0.0349
G01 F60.00
G01 X6.9702 Y41.1720
G01 X6.9614 Y41.1640
G01 X6.9536 Y41.1555
G01 X6.4907 Y40.6933
G01 X6.4799 Y40.6813
G01 X6.4710 Y40.6693
G01 X6.4606 Y40.6524
G01 X6.4531 Y40.6367
G01 X6.4480 Y40.6227
G01 X6.4428 Y40.6022
G01 X6.4405 Y40.5863
G01 X6.4396 Y40.5689
G01 X6.4396 Y36.1823
G01 X6.4408 Y36.1625
G01 X6.4430 Y36.1478
G01 X6.4473 Y36.1309
G01 X6.4541 Y36.1123
G01 X6.4605 Y36.0988
G01 X6.4682 Y36.0860
G01 X6.4798 Y36.0700
G01 X6.4915 Y36.0571
G01 X8.1375 Y34.4111
G01 X8.1503 Y34.3995
G01 X8.1632 Y34.3898
G01 X8.1792 Y34.3802
G01 X8.1950 Y34.3727
G01 X8.2113 Y34.3669
G01 X8.2306 Y34.3623
G01 X8.2454 Y34.3602
G01 X8.2602 Y34.3594
G01 X8.2775 Y34.3600
G01 X8.2960 Y34.3625
G01 X8.3117 Y34.3663
G01 X8.3304 Y34.3728
G01 X8.7323 Y34.5397
G01 X9.1752 Y34.5397
G01 X9.5729 Y34.3768
G01 X9.5885 Y34.3696
G01 X9.7893 Y34.1674
G01 X9.7986 Y34.1572
G01 X9.8082 Y34.1484
G01 X9.9007 Y34.0552
G01 X10.0369 Y33.7287
G01 X10.0421 Y33.7142
G01 X10.0492 Y33.6993
G01 X10.0718 Y33.6450
G01 X10.0718 Y31.6761
G01 X10.0434 Y31.6074
G01 X10.0396 Y31.5993
G01 X10.0366 Y31.5911
G01 X9.9007 Y31.2636
G01 X9.6665 Y31.0294
G01 X9.6541 Y31.0155
G01 X9.6445 Y31.0025
G01 X9.6355 Y30.9876
G01 X9.6281 Y30.9719
G01 X9.6230 Y30.9579
G01 X9.6176 Y30.9363
G01 X9.6155 Y30.9215
G01 X9.6146 Y30.9042
G01 X9.6146 Y29.3370
G01 X9.6155 Y29.3198
G01 X9.6180 Y29.3027
G01 X9.6229 Y29.2836
G01 X9.6280 Y29.2696
G01 X9.6342 Y29.2562
G01 X9.6441 Y29.2392
G01 X9.6551 Y29.2243
G01 X9.6659 Y29.2124
G01 X9.7078 Y29.1701
G01 X9.7115 Y29.1653
G01 X9.7224 Y29.1534
G01 X9.7343 Y29.1425
G01 X9.7380 Y29.1396
G01 X9.9007 Y28.9753
G01 X10.0718 Y28.5650
G01 X10.0718 Y26.5960
G01 X10.0669 Y26.5820
G01 X10.0626 Y26.5651
G01 X10.0600 Y26.5479
G01 X10.0591 Y26.5305
G01 X10.0600 Y26.5132
G01 X10.0621 Y26.4984
G01 X10.0667 Y26.4790
G01 X10.0726 Y26.4627
G01 X10.0812 Y26.4448
G01 X10.0889 Y26.4320
G01 X10.0978 Y26.4199
G01 X10.1101 Y26.4060
G01 X10.3582 Y26.1579
G01 X10.3720 Y26.1457
G01 X10.3839 Y26.1369
G01 X10.3976 Y26.1286
G01 X10.4142 Y26.1206
G01 X10.4281 Y26.1155
G01 X10.4495 Y26.1100
G01 X10.4641 Y26.1078
G01 X10.4813 Y26.1069
G01 X10.4984 Y26.1076
G01 X10.5155 Y26.1099
G01 X10.5322 Y26.1140
G01 X10.5485 Y26.1196
G01 X10.5641 Y26.1268
G01 X10.5769 Y26.1341
G01 X10.5920 Y26.1447
G01 X10.6041 Y26.1552
G01 X10.6192 Y26.1713
G01 X10.6281 Y26.1831
G01 X10.6372 Y26.1977
G01 X10.6449 Y26.2131
G01 X10.6510 Y26.2292
G01 X10.6555 Y26.2458
G01 X10.6584 Y26.2628
G01 X10.6596 Y26.2799
G01 X10.6591 Y26.2971
G01 X10.6566 Y26.3166
G01 X10.6533 Y26.3310
G01 X10.6483 Y26.3462
G01 X10.6409 Y26.3631
G01 X10.5985 Y26.4480
G01 X10.5511 Y26.5923
G01 X10.5276 Y26.7422
G01 X10.5276 Y27.2753
G01 X10.6811 Y27.2753
G01 X10.6811 Y26.8173
G01 X10.6849 Y26.7389
G01 X10.6973 Y26.6564
G01 X10.7161 Y26.5815
G01 X10.7430 Y26.5064
G01 X10.7770 Y26.4344
G01 X10.8180 Y26.3660
G01 X10.8655 Y26.3020
G01 X10.9191 Y26.2429
G01 X10.9781 Y26.1893
G01 X11.0422 Y26.1419
G01 X11.1105 Y26.1009
G01 X11.1804 Y26.0678
G01 X11.1894 Y26.0643
G01 X11.1894 Y25.9004
G01 X11.1231 Y25.9219
G01 X11.0400 Y25.9656
G01 X11.0243 Y25.9729
G01 X11.0056 Y25.9793
G01 X10.9911 Y25.9828
G01 X10.9739 Y25.9852
G01 X10.9566 Y25.9860
G01 X10.9393 Y25.9851
G01 X10.9222 Y25.9824
G01 X10.9031 Y25.9774
G01 X10.8868 Y25.9712
G01 X10.8734 Y25.9647
G01 X10.8607 Y25.9571
G01 X10.8457 Y25.9462
G01 X10.8337 Y25.9354
G01 X10.8188 Y25.9189
G01 X10.8094 Y25.9058
G01 X10.8001 Y25.8898
G01 X10.7938 Y25.8763
G01 X10.7880 Y25.8599
G01 X10.7838 Y25.8431
G01 X10.7815 Y25.8272
G01 X10.7805 Y25.8086
G01 X10.7812 Y25.7938
G01 X10.7845 Y25.7718
G01 X10.7882 Y25.7574
G01 X10.7940 Y25.7410
G01 X10.8015 Y25.7254
G01 X10.8091 Y25.7126
G01 X10.8207 Y25.6966
G01 X10.8324 Y25.6837
G01 X13.0070 Y23.5091
G01 X13.1071 Y23.2668
G01 X13.1071 Y14.2748
G01 X13.1083 Y14.2550
G01 X13.1105 Y14.2403
G01 X13.1144 Y14.2246
G01 X13.1206 Y14.2070
G01 X13.1293 Y14.1892
G01 X13.1370 Y14.1764
G01 X13.1458 Y14.1644
G01 X13.1581 Y14.1505
G01 X13.9388 Y13.3698
G01 X13.9536 Y13.3566
G01 X13.9656 Y13.3478
G01 X13.9784 Y13.3401
G01 X13.9962 Y13.3314
G01 X14.0138 Y13.3252
G01 X14.0319 Y13.3209
G01 X14.0466 Y13.3188
G01 X14.0615 Y13.3180
G01 X14.1351 Y13.3180
G01 X14.1525 Y13.3188
G01 X14.1696 Y13.3214
G01 X14.1888 Y13.3264
G01 X14.2029 Y13.3314
G01 X14.2164 Y13.3378
G01 X14.2324 Y13.3471
G01 X14.2474 Y13.3582
G01 X14.2603 Y13.3698
G01 X14.5640 Y13.6736
G01 X15.4080 Y13.6736
G01 X15.5729 Y13.5087
G01 X15.5849 Y13.4979
G01 X15.6009 Y13.4862
G01 X15.6148 Y13.4780
G01 X15.6317 Y13.4703
G01 X15.6458 Y13.4653
G01 X15.6603 Y13.4616
G01 X15.6774 Y13.4588
G01 X15.6972 Y13.4577
G01 X15.7146 Y13.4585
G01 X15.7317 Y13.4611
G01 X15.7486 Y13.4653
G01 X15.7672 Y13.4721
G01 X15.7807 Y13.4786
G01 X15.7956 Y13.4875
G01 X15.8114 Y13.4995
G01 X15.8224 Y13.5095
G01 X15.8341 Y13.5224
G01 X15.8457 Y13.5384
G01 X15.8534 Y13.5513
G01 X15.8608 Y13.5670
G01 X15.8666 Y13.5833
G01 X15.8703 Y13.5978
G01 X15.8736 Y13.6198
G01 X15.8743 Y13.6347
G01 X15.8743 Y14.2215
G01 X15.8734 Y14.2389
G01 X15.8708 Y14.2561
G01 X15.8666 Y14.2730
G01 X15.8607 Y14.2894
G01 X15.8520 Y14.3073
G01 X15.8436 Y14.3211
G01 X15.8323 Y14.3359
G01 X15.8222 Y14.3469
G01 X15.8111 Y14.3570
G01 X15.7972 Y14.3675
G01 X15.7802 Y14.3778
G01 X15.7622 Y14.3861
G01 X15.7481 Y14.3911
G01 X15.7336 Y14.3947
G01 X15.7127 Y14.3978
G01 X15.6965 Y14.3985
G01 X15.6816 Y14.3978
G01 X15.6619 Y14.3950
G01 X15.6427 Y14.3899
G01 X15.6286 Y14.3847
G01 X15.6151 Y14.3783
G01 X15.5960 Y14.3667
G01 X15.5841 Y14.3577
G01 X15.5721 Y14.3468
G01 X15.4074 Y14.1801
G01 X14.5642 Y14.1801
G01 X14.1105 Y14.6355
G01 X14.1028 Y14.6438
G01 X14.0951 Y14.6510
G01 X13.9693 Y14.7772
G01 X13.9693 Y15.6188
G01 X14.2730 Y15.9225
G01 X14.2847 Y15.9354
G01 X14.2950 Y15.9494
G01 X14.3040 Y15.9643
G01 X14.3114 Y15.9800
G01 X14.3165 Y15.9940
G01 X14.3219 Y16.0156
G01 X14.3240 Y16.0304
G01 X14.3249 Y16.0477
G01 X14.3248 Y22.2884
G01 X14.3240 Y22.3033
G01 X14.3215 Y22.3205
G01 X14.3172 Y22.3374
G01 X14.3123 Y22.3514
G01 X14.3027 Y22.3716
G01 X14.2950 Y22.3843
G01 X14.2847 Y22.3983
G01 X14.2730 Y22.4112
G01 X13.9693 Y22.7149
G01 X13.9693 Y23.5563
G01 X14.5640 Y24.1511
G01 X15.4080 Y24.1511
G01 X15.7117 Y23.8473
G01 X15.7236 Y23.8364
G01 X15.7406 Y23.8240
G01 X15.7534 Y23.8164
G01 X15.7691 Y23.8089
G01 X15.7855 Y23.8031
G01 X15.8000 Y23.7994
G01 X15.8220 Y23.7961
G01 X15.8369 Y23.7955
G01 X20.6477 Y23.7955
G01 X20.6650 Y23.7963
G01 X20.6809 Y23.7986
G01 X20.7013 Y23.8038
G01 X20.7153 Y23.8089
G01 X20.7288 Y23.8152
G01 X20.7459 Y23.8252
G01 X20.7617 Y23.8371
G01 X20.7727 Y23.8472
G01 X20.7828 Y23.8581
G01 X20.7947 Y23.8739
G01 X20.8048 Y23.8910
G01 X20.8111 Y23.9045
G01 X20.8170 Y23.9208
G01 X20.8210 Y23.9364
G01 X20.8271 Y23.9668
G01 X20.8301 Y23.9756
G01 X20.8340 Y23.9913
G01 X20.8364 Y24.0073
G01 X20.8370 Y24.0159
G01 X20.9311 Y24.4835
G01 X20.9331 Y24.4917
G01 X20.9343 Y24.4993
G01 X20.9791 Y24.7220
G01 X20.9839 Y24.7406
G01 X20.9865 Y24.7590
G01 X20.9891 Y24.7719
G01 X20.9914 Y24.7869
G01 X20.9923 Y24.8044
G01 X20.9924 Y25.8242
G01 X20.9912 Y25.8440
G01 X20.9890 Y25.8587
G01 X20.9847 Y25.8756
G01 X20.9789 Y25.8919
G01 X20.9715 Y25.9076
G01 X20.9625 Y25.9225
G01 X20.9506 Y25.9384
G01 X20.9405 Y25.9494
G01 X20.7063 Y26.1836
G01 X20.5471 Y26.5676
G01 X20.5384 Y26.5855
G01 X20.5293 Y26.6002
G01 X20.5203 Y26.6122
G01 X20.5104 Y26.6233
G01 X20.4967 Y26.6359
G01 X20.4838 Y26.6456
G01 X20.4669 Y26.6560
G01 X20.4512 Y26.6634
G01 X20.4349 Y26.6693
G01 X20.4192 Y26.6732
G01 X20.3984 Y26.6762
G01 X20.3835 Y26.6769
G01 X20.3686 Y26.6762
G01 X20.3490 Y26.6735
G01 X20.3298 Y26.6685
G01 X20.3158 Y26.6634
G01 X20.3022 Y26.6571
G01 X20.2852 Y26.6471
G01 X20.2712 Y26.6367
G01 X20.2601 Y26.6267
G01 X20.2467 Y26.6122
G01 X20.2350 Y26.5962
G01 X20.2274 Y26.5833
G01 X20.2204 Y26.5688
G01 X20.0607 Y26.1836
G01 X19.7472 Y25.8701
G01 X19.3348 Y25.6990
G01 X18.8921 Y25.6990
G01 X18.6300 Y25.8074
G01 X18.6133 Y25.8134
G01 X18.5973 Y25.8174
G01 X18.5785 Y25.8202
G01 X18.5608 Y25.8209
G01 X18.5431 Y25.8198
G01 X18.5255 Y25.8170
G01 X18.5084 Y25.8125
G01 X18.4918 Y25.8062
G01 X18.4759 Y25.7984
G01 X18.4619 Y25.7896
G01 X18.4450 Y25.7764
G01 X18.4340 Y25.7658
G01 X18.4240 Y25.7543
G01 X18.4122 Y25.7378
G01 X18.4041 Y25.7233
G01 X18.3906 Y25.7098
G01 X18.3809 Y25.6991
G01 X18.3714 Y25.6868
G01 X18.3636 Y25.6746
G01 X18.0196 Y25.0757
G01 X18.0100 Y25.0560
G01 X17.9799 Y24.9816
G01 X17.9664 Y24.9681
G01 X17.9547 Y24.9550
G01 X17.9450 Y24.9418
G01 X17.9382 Y24.9307
G01 X17.9298 Y24.9156
G01 X17.8645 Y24.8647
G01 X17.8511 Y24.8528
G01 X17.7946 Y24.7963
G01 X17.7721 Y24.7862
G01 X17.7558 Y24.7777
G01 X17.7396 Y24.7668
G01 X17.7224 Y24.7537
G01 X17.6434 Y24.7315
G01 X17.6272 Y24.7259
G01 X17.5556 Y24.6969
G01 X17.5508 Y24.6957
G01 X17.5322 Y24.6957
G01 X17.5124 Y24.6944
G01 X17.4940 Y24.6912
G01 X17.4694 Y24.6854
G01 X17.3885 Y24.6945
G01 X17.3685 Y24.6957
G01 X14.7498 Y24.6957
G01 X14.7334 Y24.6949
G01 X14.7194 Y24.6930
G01 X14.6680 Y24.6834
G01 X14.6164 Y24.6928
G01 X14.6006 Y24.6950
G01 X14.5858 Y24.6957
G01 X14.5376 Y24.6957
G01 X14.4939 Y24.7146
G01 X14.4785 Y24.7203
G01 X14.4626 Y24.7246
G01 X14.4108 Y24.7356
G01 X14.3695 Y24.7631
G01 X14.3560 Y24.7712
G01 X14.3418 Y24.7780
G01 X14.2941 Y24.7980
G01 X14.2595 Y24.8326
G01 X14.2479 Y24.8430
G01 X14.2345 Y24.8531
G01 X14.1921 Y24.8819
G01 X14.1648 Y24.9228
G01 X14.1540 Y24.9371
G01 X14.1417 Y24.9503
G01 X14.1064 Y24.9842
G01 X14.0866 Y25.0312
G01 X14.0803 Y25.0442
G01 X14.0717 Y25.0586
G01 X14.0354 Y25.1132
G01 X14.0283 Y25.1250
G01 X14.0202 Y25.1360
G01 X13.8732 Y25.3570
G01 X13.8632 Y25.3739
G01 X13.8518 Y25.3892
G01 X13.7046 Y25.6104
G01 X13.6956 Y25.6254
G01 X13.6856 Y25.6388
G01 X13.6113 Y25.7506
G01 X13.6016 Y25.7635
G01 X13.5916 Y25.7747
G01 X13.5751 Y25.7897
G01 X13.5631 Y25.7986
G01 X13.5471 Y25.8081
G01 X13.5325 Y25.8150
G01 X13.3998 Y25.8701
G01 X13.0863 Y26.1836
G01 X12.9152 Y26.5961
G01 X12.9152 Y28.5650
G01 X13.0863 Y28.9753
G01 X13.2490 Y29.1396
G01 X13.2527 Y29.1425
G01 X13.2646 Y29.1534
G01 X13.2755 Y29.1653
G01 X13.2792 Y29.1701
G01 X13.3220 Y29.2133
G01 X13.3334 Y29.2262
G01 X13.3429 Y29.2392
G01 X13.3517 Y29.2540
G01 X13.3590 Y29.2696
G01 X13.3641 Y29.2836
G01 X13.3694 Y29.3051
G01 X13.3715 Y29.3198
G01 X13.3724 Y29.3370
G01 X13.3724 Y30.9042
G01 X13.3715 Y30.9215
G01 X13.3690 Y30.9387
G01 X13.3640 Y30.9579
G01 X13.3589 Y30.9719
G01 X13.3526 Y30.9855
G01 X13.3425 Y31.0025
G01 X13.3314 Y31.0174
G01 X13.3205 Y31.0294
G01 X13.0863 Y31.2636
G01 X12.9504 Y31.5911
G01 X12.9474 Y31.5993
G01 X12.9436 Y31.6074
G01 X12.9152 Y31.6761
G01 X12.9152 Y33.6450
G01 X12.9378 Y33.6993
G01 X12.9449 Y33.7142
G01 X12.9501 Y33.7287
G01 X13.0863 Y34.0553
G01 X13.1761 Y34.1460
G01 X13.1884 Y34.1572
G01 X13.2007 Y34.1708
G01 X13.3211 Y34.2924
G01 X13.3334 Y34.3062
G01 X13.3429 Y34.3192
G01 X13.3517 Y34.3340
G01 X13.3590 Y34.3496
G01 X13.3641 Y34.3636
G01 X13.3694 Y34.3851
G01 X13.3715 Y34.3998
G01 X13.3724 Y34.4170
G01 X13.3723 Y42.3366
G01 X13.3715 Y42.3515
G01 X13.3690 Y42.3687
G01 X13.3647 Y42.3856
G01 X13.3598 Y42.3996
G01 X13.3502 Y42.4198
G01 X13.3425 Y42.4325
G01 X13.3322 Y42.4465
G01 X13.3205 Y42.4594
G01 X13.0863 Y42.6936
G01 X12.9152 Y43.1061
G01 X12.9152 Y45.0750
G01 X12.9700 Y45.2065
G01 X12.9779 Y45.2230
G01 X12.9838 Y45.2394
G01 X13.0863 Y45.4852
G01 X13.2536 Y45.6537
G01 X13.2672 Y45.6659
G01 X13.2800 Y45.6803
G01 X13.3998 Y45.8009
G01 X13.8118 Y45.9697
G01 X14.2552 Y45.9697
G01 X14.6672 Y45.8009
G01 X14.7870 Y45.6803
G01 X14.7998 Y45.6659
G01 X14.8134 Y45.6537
G01 X14.9807 Y45.4852
G01 X15.0832 Y45.2395
G01 X15.0891 Y45.2230
G01 X15.0970 Y45.2064
G01 X15.1406 Y45.1021
G01 X15.1475 Y45.0875
G01 X15.1552 Y45.0747
G01 X15.1684 Y45.0569
G01 X15.1785 Y45.0459
G01 X15.1914 Y45.0343
G01 X15.2053 Y45.0240
G01 X15.2181 Y45.0163
G01 X15.2370 Y45.0073
G01 X15.2522 Y45.0019
G01 X15.2666 Y44.9982
G01 X15.2886 Y44.9950
G01 X15.3035 Y44.9943
G01 X15.3208 Y44.9951
G01 X15.3380 Y44.9977
G01 X15.3524 Y45.0012
G01 X15.3722 Y45.0082
G01 X15.3868 Y45.0151
G01 X15.4017 Y45.0240
G01 X15.4156 Y45.0343
G01 X15.4267 Y45.0443
G01 X15.4417 Y45.0607
G01 X15.4505 Y45.0727
G01 X15.4595 Y45.0875
G01 X15.4669 Y45.1032
G01 X15.5100 Y45.2064
G01 X15.5179 Y45.2230
G01 X15.5238 Y45.2395
G01 X15.6263 Y45.4852
G01 X15.7936 Y45.6537
G01 X15.8072 Y45.6659
G01 X15.8200 Y45.6803
G01 X15.9397 Y45.8008
G01 X16.1438 Y45.8842
G01 X16.1586 Y45.8912
G01 X16.1716 Y45.8989
G01 X16.1897 Y45.9123
G01 X16.2009 Y45.9225
G01 X16.8977 Y46.6193
G01 X16.9085 Y46.6313
G01 X16.9174 Y46.6432
G01 X16.9289 Y46.6623
G01 X16.9352 Y46.6759
G01 X16.9411 Y46.6922
G01 X16.9453 Y46.7091
G01 X16.9475 Y46.7238
G01 X16.9486 Y46.7461
G01 X16.9478 Y46.7610
G01 X16.9453 Y46.7782
G01 X16.9411 Y46.7950
G01 X16.9361 Y46.8091
G01 X16.9278 Y46.8271
G01 X16.9188 Y46.8420
G01 X16.9100 Y46.8540
G01 X16.8968 Y46.8688
G01 X16.8820 Y46.8820
G01 X16.8700 Y46.8908
G01 X16.8572 Y46.8986
G01 X16.8394 Y46.9072
G01 X16.8207 Y46.9137
G01 X16.8062 Y46.9173
G01 X16.7914 Y46.9195
G01 X16.7716 Y46.9207
G01 X6.2865 Y46.9207
G01 X6.2691 Y46.9198
G01 X6.2496 Y46.9167
G01 X6.2351 Y46.9131
G01 X6.2210 Y46.9081
G01 X6.2030 Y46.8998
G01 X6.1861 Y46.8894
G01 X6.1742 Y46.8805
G01 X6.1631 Y46.8705
G01 X6.1496 Y46.8559
G01 X6.1380 Y46.8399
G01 X6.1303 Y46.8271
G01 X6.1239 Y46.8136
G01 X6.1171 Y46.7950
G01 X6.1124 Y46.7757
G01 X6.1103 Y46.7610
G01 X6.1095 Y46.7448
G01 X6.1094 Y42.6085
G01 X6.1106 Y42.5887
G01 X6.1128 Y42.5740
G01 X6.1171 Y42.5571
G01 X6.1239 Y42.5385
G01 X6.1303 Y42.5250
G01 X6.1393 Y42.5101
G01 X6.1496 Y42.4962
G01 X6.1596 Y42.4851
G01 X6.1742 Y42.4716
G01 X6.1902 Y42.4600
G01 X6.2030 Y42.4523
G01 X6.2165 Y42.4459
G01 X6.2363 Y42.4387
G01 X6.2520 Y42.4348
G01 X6.2667 Y42.4326
G01 X6.2865 Y42.4314
G01 X6.3063 Y42.4326
G01 X6.3210 Y42.4348
G01 X6.3355 Y42.4384
G01 X6.3554 Y42.4454
G01 X6.3700 Y42.4523
G01 X6.3828 Y42.4600
G01 X6.4007 Y42.4732
G01 X6.4117 Y42.4833
G01 X7.7833 Y43.8549
G01 X7.7950 Y43.8678
G01 X7.8060 Y43.8828
G01 X7.8143 Y43.8966
G01 X7.8207 Y43.9101
G01 X7.8275 Y43.9287
G01 X7.8322 Y43.9480
G01 X7.8343 Y43.9627
G01 X7.8351 Y43.9789
G01 X7.8352 Y45.0750
G01 X7.8900 Y45.2065
G01 X7.8979 Y45.2230
G01 X7.9038 Y45.2394
G01 X8.0063 Y45.4852
G01 X8.1736 Y45.6537
G01 X8.1872 Y45.6659
G01 X8.2000 Y45.6803
G01 X8.3198 Y45.8009
G01 X8.7318 Y45.9697
G01 X9.1752 Y45.9697
G01 X9.5872 Y45.8009
G01 X9.7070 Y45.6803
G01 X9.7198 Y45.6659
G01 X9.7334 Y45.6537
G01 X9.9007 Y45.4852
G01 X10.0032 Y45.2394
G01 X10.0091 Y45.2230
G01 X10.0170 Y45.2065
G01 X10.0718 Y45.0750
G01 X10.0718 Y43.1061
G01 X9.9007 Y42.6936
G01 X9.5872 Y42.3801
G01 X9.1748 Y42.2090
G01 X8.7323 Y42.2090
G01 X8.3305 Y42.3758
G01 X8.3142 Y42.3817
G01 X8.2973 Y42.3859
G01 X8.2826 Y42.3882
G01 X8.2603 Y42.3893
G01 X8.2454 Y42.3885
G01 X8.2282 Y42.3859
G01 X8.2114 Y42.3817
G01 X8.1950 Y42.3759
G01 X8.1793 Y42.3685
G01 X8.1644 Y42.3596
G01 X8.1504 Y42.3492
G01 X8.1384 Y42.3384
G01 X7.9795 Y42.1798
G01 X7.9741 Y42.1756
G01 X7.9622 Y42.1647
G01 X7.9513 Y42.1528
G01 X7.9472 Y42.1475
G01 X7.4761 Y41.6772
G01 X7.4618 Y41.6644
G01 X7.4491 Y41.6502
G00 Z2.0000
G00 X10.5506 Y43.1055
G01 F60.00
G01 Z-0.0349
G01 F60.00
G01 X10.5555 Y43.0917
G01 X10.5587 Y43.0793
G01 X10.5985 Y42.9580
G01 X10.6672 Y42.8207
G01 X10.7569 Y42.6989
G01 X10.8650 Y42.5907
G01 X10.9873 Y42.5007
G01 X11.1218 Y42.4323
G01 X11.1385 Y42.4269
G01 X11.1385 Y42.5976
G01 X11.1095 Y42.6115
G01 X11.0432 Y42.6512
G01 X10.9791 Y42.6986
G01 X10.9191 Y42.7529
G01 X10.8663 Y42.8110
G01 X10.8180 Y42.8760
G01 X10.7770 Y42.9444
G01 X10.7430 Y43.0164
G01 X10.7165 Y43.0903
G01 X10.6967 Y43.1688
G01 X10.6849 Y43.2501
G01 X10.6811 Y43.3273
G01 X10.6811 Y43.7853
G01 X10.5276 Y43.7853
G01 X10.5276 Y43.2522
G01 X10.5506 Y43.1055
G00 Z2.0000
G00 X10.6811 Y44.3934
G01 F60.00
G01 Z-0.0349
G01 F60.00
G01 X10.6811 Y44.8513
G01 X10.6849 Y44.9297
G01 X10.6973 Y45.0122
G01 X10.7161 Y45.0871
G01 X10.7421 Y45.1599
G01 X10.7770 Y45.2343
G01 X10.8180 Y45.3027
G01 X10.8655 Y45.3667
G01 X10.9191 Y45.4258
G01 X10.9781 Y45.4793
G01 X11.0422 Y45.5268
G01 X11.1105 Y45.5678
G01 X11.1804 Y45.6009
G01 X11.1894 Y45.6044
G01 X11.1894 Y45.7682
G01 X11.1218 Y45.7463
G01 X10.9864 Y45.6775
G01 X10.9620 Y45.6600
G01 X10.9546 Y45.6535
G01 X10.9426 Y45.6446
G01 X10.9291 Y45.6363
G01 X10.8650 Y45.5902
G01 X10.7574 Y45.4805
G01 X10.6668 Y45.3575
G01 X10.5983 Y45.2226
G01 X10.5511 Y45.0789
G01 X10.5276 Y44.9289
G01 X10.5276 Y44.3934
G01 X10.6811 Y44.3934
G00 Z2.0000
G00 X12.0579 Y45.6363
G01 F60.00
G01 Z-0.0349
G01 F60.00
G01 X12.0444 Y45.6446
G01 X12.0324 Y45.6535
G01 X12.0250 Y45.6600
G01 X12.0006 Y45.6775
G01 X11.8652 Y45.7463
G01 X11.7976 Y45.7682
G01 X11.7976 Y45.6044
G01 X11.8066 Y45.6009
G01 X11.8786 Y45.5666
G01 X11.9448 Y45.5268
G01 X12.0107 Y45.4777
G01 X12.0679 Y45.4258
G01 X12.1215 Y45.3667
G01 X12.1690 Y45.3027
G01 X12.2111 Y45.2321
G01 X12.2440 Y45.1622
G01 X12.2709 Y45.0871
G01 X12.2903 Y45.0098
G01 X12.3018 Y44.9322
G01 X12.3059 Y44.8513
G01 X12.3059 Y44.3934
G01 X12.4594 Y44.3934
G01 X12.4594 Y44.9289
G01 X12.4359 Y45.0789
G01 X12.3887 Y45.2226
G01 X12.3202 Y45.3575
G01 X12.2296 Y45.4805
G01 X12.1220 Y45.5902
G01 X12.0579 Y45.6363
G00 Z2.0000
G00 X12.4364 Y43.1055
G01 F60.00
G01 Z-0.0349
G01 F60.00
G01 X12.4594 Y43.2522
G01 X12.4594 Y43.7853
G01 X12.3059 Y43.7853
G01 X12.3059 Y43.3273
G01 X12.3021 Y43.2501
G01 X12.2903 Y43.1688
G01 X12.2705 Y43.0903
G01 X12.2440 Y43.0164
G01 X12.2100 Y42.9444
G01 X12.1690 Y42.8760
G01 X12.1207 Y42.8110
G01 X12.0679 Y42.7529
G01 X12.0079 Y42.6986
G01 X11.9438 Y42.6512
G01 X11.8775 Y42.6115
G01 X11.8485 Y42.5976
G01 X11.8485 Y42.4269
G01 X11.8652 Y42.4323
G01 X11.9997 Y42.5007
G01 X12.1219 Y42.5907
G01 X12.2301 Y42.6989
G01 X12.3198 Y42.8207
G01 X12.3885 Y42.9580
G01 X12.4283 Y43.0793
G01 X12.4315 Y43.0917
G01 X12.4364 Y43.1055
G00 Z2.0000
G00 X15.7611 Y44.8513
G01 F60.00
G01 Z-0.0349
G01 F60.00
G01 X15.7611 Y43.3261
G01 X15.7650 Y43.2477
G01 X15.7767 Y43.1688
G01 X15.7961 Y43.0915
G01 X15.8230 Y43.0164
G01 X15.8570 Y42.9444
G01 X15.8967 Y42.8781
G01 X15.9471 Y42.8101
G01 X15.9991 Y42.7529
G01 X16.0581 Y42.6993
G01 X16.1222 Y42.6519
G01 X16.1905 Y42.6109
G01 X16.2626 Y42.5768
G01 X16.3353 Y42.5507
G01 X16.4174 Y42.5301
G01 X16.4939 Y42.5189
G01 X16.5735 Y42.5149
G01 X16.6531 Y42.5189
G01 X16.7296 Y42.5301
G01 X16.8117 Y42.5507
G01 X16.8844 Y42.5768
G01 X16.9565 Y42.6109
G01 X17.0248 Y42.6519
G01 X17.0869 Y42.6978
G01 X17.1496 Y42.7547
G01 X17.2015 Y42.8120
G01 X17.2476 Y42.8740
G01 X17.2911 Y42.9466
G01 X17.3240 Y43.0164
G01 X17.3509 Y43.0915
G01 X17.3703 Y43.1688
G01 X17.3817 Y43.2453
G01 X17.3859 Y43.3273
G01 X17.3859 Y44.8513
G01 X17.3820 Y44.9309
G01 X17.3703 Y45.0098
G01 X17.3509 Y45.0871
G01 X17.3240 Y45.1622
G01 X17.2911 Y45.2321
G01 X17.2490 Y45.3027
G01 X17.2030 Y45.3648
G01 X17.1496 Y45.4240
G01 X17.1448 Y45.4287
G01 X18.6255 Y46.9094
G01 X29.4597 Y46.9094
G01 X31.5835 Y45.0890
G01 X31.6130 Y45.0665
G01 X31.6414 Y45.0489
G01 X31.6714 Y45.0341
G01 X31.7074 Y45.0206
G01 X31.7434 Y45.0114
G01 X31.7776 Y45.0062
G01 X31.8135 Y45.0044
G01 X40.2390 Y45.0044
G01 X41.6061 Y43.6372
G01 X41.5511 Y43.6174
G01 X41.4557 Y43.5723
G01 X41.3609 Y43.5155
G01 X41.2752 Y43.4518
G01 X41.1969 Y43.3810
G01 X41.1234 Y43.3002
G01 X41.0582 Y43.2125
G01 X41.0016 Y43.1176
G01 X40.9565 Y43.0221
G01 X40.9209 Y42.9228
G01 X40.8936 Y42.8144
G01 X40.8780 Y42.7088
G01 X40.8727 Y42.6009
G01 X40.8727 Y40.4978
G01 X40.8783 Y40.3900
G01 X40.8938 Y40.2855
G01 X40.9194 Y40.1831
G01 X40.9565 Y40.0790
G01 X41.0039 Y39.9792
G01 X41.0582 Y39.8887
G01 X41.1211 Y39.8039
G01 X41.1951 Y39.7219
G01 X41.2752 Y39.6494
G01 X41.3599 Y39.5864
G01 X41.4568 Y39.5284
G01 X41.5522 Y39.4833
G01 X41.6540 Y39.4469
G01 X41.7587 Y39.4206
G01 X41.8632 Y39.4051
G01 X41.9760 Y39.3995
G01 X42.0814 Y39.4048
G01 X42.1858 Y39.4202
G01 X42.2954 Y39.4477
G01 X42.3948 Y39.4833
G01 X42.4924 Y39.5295
G01 X42.5871 Y39.5864
G01 X42.6718 Y39.6494
G01 X42.7519 Y39.7219
G01 X42.8259 Y39.8039
G01 X42.8888 Y39.8887
G01 X42.9443 Y39.9814
G01 X42.9905 Y40.0790
G01 X43.0261 Y40.1784
G01 X43.0534 Y40.2867
G01 X43.0690 Y40.3924
G01 X43.0743 Y40.5003
G01 X43.0743 Y42.6021
G01 X43.0690 Y42.7088
G01 X43.0532 Y42.8156
G01 X43.0269 Y42.9204
G01 X42.9895 Y43.0244
G01 X42.9443 Y43.1198
G01 X42.8888 Y43.2125
G01 X42.8244 Y43.2992
G01 X42.7510 Y43.3801
G01 X42.6718 Y43.4518
G01 X42.5841 Y43.5168
G01 X42.4913 Y43.5723
G01 X42.3948 Y43.6179
G01 X42.3284 Y43.6417
G01 X42.3284 Y43.7718
G01 X42.3268 Y43.8054
G01 X42.3216 Y43.8411
G01 X42.3135 Y43.8737
G01 X42.3014 Y43.9077
G01 X42.2853 Y43.9413
G01 X42.2686 Y43.9690
G01 X42.2494 Y43.9951
G01 X42.2262 Y44.0210
G01 X40.6370 Y45.6103
G01 X40.6092 Y45.6352
G01 X40.5832 Y45.6545
G01 X40.5533 Y45.6724
G01 X40.5195 Y45.6881
G01 X40.4890 Y45.6990
G01 X40.4576 Y45.7069
G01 X40.4208 Y45.7126
G01 X40.3860 Y45.7143
G01 X31.9448 Y45.7143
G01 X29.8210 Y47.5346
G01 X29.7915 Y47.5572
G01 X29.7631 Y47.5748
G01 X29.7331 Y47.5895
G01 X29.6971 Y47.6030
G01 X29.6611 Y47.6123
G01 X29.6269 Y47.6175
G01 X29.5910 Y47.6193
G01 X18.4785 Y47.6193
G01 X18.4437 Y47.6176
G01 X18.4093 Y47.6124
G01 X18.3731 Y47.6032
G01 X18.3427 Y47.5923
G01 X18.3112 Y47.5774
G01 X18.2793 Y47.5580
G01 X18.2533 Y47.5387
G01 X18.2284 Y47.5162
G01 X16.3421 Y45.6299
G01 X16.3353 Y45.6279
G01 X16.2626 Y45.6019
G01 X16.1884 Y45.5666
G01 X16.1222 Y45.5268
G01 X16.0601 Y45.4808
G01 X15.9982 Y45.4249
G01 X15.9455 Y45.3667
G01 X15.8980 Y45.3027
G01 X15.8570 Y45.2343
G01 X15.8230 Y45.1622
G01 X15.7961 Y45.0871
G01 X15.7767 Y45.0098
G01 X15.7650 Y44.9309
G01 X15.7611 Y44.8513
G00 Z2.0000
G00 X19.9259 Y43.3273
G01 F60.00
G01 Z-0.0349
G01 F60.00
G01 X19.9259 Y44.8513
G01 X19.9221 Y44.9285
G01 X19.9103 Y45.0098
G01 X19.8909 Y45.0871
G01 X19.8640 Y45.1622
G01 X19.8300 Y45.2343
G01 X19.7890 Y45.3027
G01 X19.7415 Y45.3667
G01 X19.6879 Y45.4258
G01 X19.6289 Y45.4793
G01 X19.5648 Y45.5268
G01 X19.4965 Y45.5678
G01 X19.4244 Y45.6019
G01 X19.3493 Y45.6287
G01 X19.2720 Y45.6481
G01 X19.1931 Y45.6598
G01 X19.1135 Y45.6637
G01 X19.0339 Y45.6598
G01 X18.9550 Y45.6481
G01 X18.8777 Y45.6287
G01 X18.8026 Y45.6019
G01 X18.7305 Y45.5678
G01 X18.6622 Y45.5268
G01 X18.5963 Y45.4777
G01 X18.5391 Y45.4258
G01 X18.4871 Y45.3685
G01 X18.4380 Y45.3027
G01 X18.3970 Y45.2343
G01 X18.3621 Y45.1599
G01 X18.3361 Y45.0871
G01 X18.3173 Y45.0122
G01 X18.3052 Y44.9322
G01 X18.3011 Y44.8513
G01 X18.3012 Y43.3249
G01 X18.3053 Y43.2453
G01 X18.3167 Y43.1688
G01 X18.3354 Y43.0939
G01 X18.3630 Y43.0164
G01 X18.3970 Y42.9444
G01 X18.4380 Y42.8760
G01 X18.4840 Y42.8139
G01 X18.5408 Y42.7512
G01 X18.5981 Y42.6993
G01 X18.6622 Y42.6519
G01 X18.7305 Y42.6109
G01 X18.8026 Y42.5768
G01 X18.8777 Y42.5499
G01 X18.9526 Y42.5311
G01 X19.0363 Y42.5187
G01 X19.1135 Y42.5149
G01 X19.1931 Y42.5189
G01 X19.2720 Y42.5306
G01 X19.3470 Y42.5493
G01 X19.4266 Y42.5778
G01 X19.4965 Y42.6109
G01 X19.5648 Y42.6519
G01 X19.6289 Y42.6993
G01 X19.6862 Y42.7512
G01 X19.7430 Y42.8139
G01 X19.7890 Y42.8760
G01 X19.8300 Y42.9444
G01 X19.8640 Y43.0164
G01 X19.8901 Y43.0892
G01 X19.9107 Y43.1713
G01 X19.9220 Y43.2477
G01 X19.9259 Y43.3273
G00 Z2.0000
G00 X20.8411 Y44.8513
G01 F60.00
G01 Z-0.0349
G01 F60.00
G01 X20.8411 Y43.3273
G01 X20.8450 Y43.2477
G01 X20.8567 Y43.1688
G01 X20.8761 Y43.0915
G01 X20.9040 Y43.0142
G01 X20.9370 Y42.9444
G01 X20.9767 Y42.8781
G01 X21.0248 Y42.8129
G01 X21.0791 Y42.7529
G01 X21.1391 Y42.6986
G01 X21.2032 Y42.6512
G01 X21.2695 Y42.6115
G01 X21.2986 Y42.5976
G01 X21.2986 Y36.1518
G01 X21.3006 Y36.1146
G01 X21.3054 Y36.0826
G01 X21.3138 Y36.0488
G01 X21.3266 Y36.0137
G01 X21.3405 Y35.9845
G01 X21.3577 Y35.9556
G01 X21.3791 Y35.9266
G01 X21.4025 Y35.9008
G01 X25.2125 Y32.0908
G01 X25.2393 Y32.0667
G01 X25.2663 Y32.0467
G01 X25.2962 Y32.0288
G01 X25.3277 Y32.0139
G01 X25.3581 Y32.0029
G01 X25.3967 Y31.9933
G01 X25.4287 Y31.9886
G01 X25.4623 Y31.9869
G01 X27.5390 Y31.9869
G01 X30.8236 Y28.7023
G01 X30.8235 Y20.4238
G01 X29.0225 Y18.6228
G01 X28.9991 Y18.5970
G01 X28.9791 Y18.5700
G01 X28.9605 Y18.5391
G01 X28.9447 Y18.5054
G01 X28.9338 Y18.4749
G01 X28.9259 Y18.4435
G01 X28.9204 Y18.4078
G01 X28.9186 Y18.3718
G01 X28.9185 Y18.0690
G01 X28.5777 Y17.7282
G01 X28.5737 Y17.7236
G01 X28.5702 Y17.7186
G01 X28.5674 Y17.7131
G01 X28.5653 Y17.7074
G01 X28.5636 Y17.7002
G01 X28.5631 Y17.6929
G01 X28.5631 Y17.1445
G01 X28.5643 Y17.1348
G01 X28.5669 Y17.1266
G01 X28.5715 Y17.1180
G01 X28.5769 Y17.1113
G01 X28.9186 Y16.7696
G01 X28.9186 Y15.5119
G01 X28.9203 Y15.4795
G01 X28.9250 Y15.4475
G01 X28.9338 Y15.4113
G01 X28.9456 Y15.3785
G01 X28.9594 Y15.3492
G01 X28.9784 Y15.3171
G01 X28.9991 Y15.2891
G01 X29.0225 Y15.2633
G01 X30.1506 Y14.1352
G01 X30.1506 Y13.6533
G01 X30.1516 Y13.6435
G01 X30.1531 Y13.6376
G01 X30.1549 Y13.6330
G01 X30.1590 Y13.6255
G01 X30.1652 Y13.6179
G01 X30.5530 Y13.2302
G01 X30.5597 Y13.2249
G01 X30.5683 Y13.2202
G01 X30.5777 Y13.2174
G01 X30.5862 Y13.2164
G01 X31.1345 Y13.2164
G01 X31.1431 Y13.2172
G01 X31.1502 Y13.2189
G01 X31.1559 Y13.2212
G01 X31.1613 Y13.2242
G01 X31.1663 Y13.2278
G01 X31.1699 Y13.2311
G01 X31.5568 Y13.6179
G01 X31.5630 Y13.6255
G01 X31.5676 Y13.6341
G01 X31.5704 Y13.6435
G01 X31.5714 Y13.6533
G01 X31.5714 Y14.2004
G01 X31.5709 Y14.2077
G01 X31.5696 Y14.2137
G01 X31.5671 Y14.2206
G01 X31.5636 Y14.2271
G01 X31.5600 Y14.2321
G01 X31.5568 Y14.2357
G01 X31.1699 Y14.6226
G01 X31.1623 Y14.6288
G01 X31.1548 Y14.6329
G01 X31.1491 Y14.6351
G01 X31.1443 Y14.6363
G01 X31.1345 Y14.6372
G01 X30.6526 Y14.6372
G01 X29.6284 Y15.6613
G01 X29.6285 Y16.7696
G01 X29.9701 Y17.1113
G01 X29.9755 Y17.1180
G01 X29.9801 Y17.1266
G01 X29.9829 Y17.1360
G01 X29.9839 Y17.1458
G01 X29.9839 Y17.6929
G01 X29.9834 Y17.7002
G01 X29.9814 Y17.7085
G01 X29.9796 Y17.7131
G01 X29.9768 Y17.7186
G01 X29.9733 Y17.7236
G01 X29.9693 Y17.7282
G01 X29.6285 Y18.0690
G01 X29.6285 Y18.2248
G01 X31.4303 Y20.0267
G01 X31.4529 Y20.0516
G01 X31.4722 Y20.0776
G01 X31.4915 Y20.1095
G01 X31.5064 Y20.1410
G01 X31.5174 Y20.1715
G01 X31.5269 Y20.2088
G01 X31.5317 Y20.2420
G01 X31.5334 Y20.2768
G01 X31.5334 Y28.8493
G01 X31.5317 Y28.8841
G01 X31.5270 Y28.9161
G01 X31.5178 Y28.9535
G01 X31.5054 Y28.9874
G01 X31.4915 Y29.0166
G01 X31.4749 Y29.0444
G01 X31.4529 Y29.0745
G01 X31.4295 Y29.1003
G01 X27.9370 Y32.5928
G01 X27.9102 Y32.6170
G01 X27.8832 Y32.6370
G01 X27.8533 Y32.6549
G01 X27.8218 Y32.6698
G01 X27.7914 Y32.6807
G01 X27.7528 Y32.6904
G01 X27.7208 Y32.6951
G01 X27.6872 Y32.6968
G01 X25.6105 Y32.6968
G01 X22.0084 Y36.2988
G01 X22.0085 Y42.5976
G01 X22.0375 Y42.6115
G01 X22.1038 Y42.6512
G01 X22.1679 Y42.6986
G01 X22.2279 Y42.7529
G01 X22.2822 Y42.8129
G01 X22.3303 Y42.8781
G01 X22.3700 Y42.9444
G01 X22.4030 Y43.0142
G01 X22.4309 Y43.0915
G01 X22.4503 Y43.1688
G01 X22.4620 Y43.2477
G01 X22.4659 Y43.3273
G01 X22.4659 Y44.8513
G01 X22.4617 Y44.9334
G01 X22.4503 Y45.0098
G01 X22.4309 Y45.0871
G01 X22.4040 Y45.1622
G01 X22.3700 Y45.2343
G01 X22.3290 Y45.3027
G01 X22.2815 Y45.3667
G01 X22.2279 Y45.4258
G01 X22.1689 Y45.4793
G01 X22.1048 Y45.5268
G01 X22.0365 Y45.5678
G01 X21.9644 Y45.6019
G01 X21.8893 Y45.6287
G01 X21.8120 Y45.6481
G01 X21.7331 Y45.6598
G01 X21.6535 Y45.6637
G01 X21.5763 Y45.6600
G01 X21.4950 Y45.6481
G01 X21.4200 Y45.6294
G01 X21.3404 Y45.6009
G01 X21.2705 Y45.5678
G01 X21.2022 Y45.5268
G01 X21.1381 Y45.4793
G01 X21.0774 Y45.4240
G01 X21.0255 Y45.3667
G01 X20.9780 Y45.3027
G01 X20.9370 Y45.2343
G01 X20.9030 Y45.1622
G01 X20.8761 Y45.0871
G01 X20.8567 Y45.0098
G01 X20.8450 Y44.9309
G01 X20.8411 Y44.8513
G00 Z2.0000
G00 X22.7718 Y43.1061
G01 F60.00
G01 Z-0.0349
G01 F60.00
G01 X22.6007 Y42.6936
G01 X22.3665 Y42.4594
G01 X22.3548 Y42.4465
G01 X22.3445 Y42.4325
G01 X22.3368 Y42.4198
G01 X22.3281 Y42.4019
G01 X22.3223 Y42.3856
G01 X22.3186 Y42.3711
G01 X22.3154 Y42.3503
G01 X22.3146 Y42.3342
G01 X22.3146 Y36.4998
G01 X22.3158 Y36.4800
G01 X22.3180 Y36.4653
G01 X22.3223 Y36.4484
G01 X22.3291 Y36.4298
G01 X22.3355 Y36.4163
G01 X22.3438 Y36.4025
G01 X22.3548 Y36.3875
G01 X22.3665 Y36.3746
G01 X25.6863 Y33.0548
G01 X25.6992 Y33.0432
G01 X25.7152 Y33.0315
G01 X25.7280 Y33.0239
G01 X25.7415 Y33.0174
G01 X25.7601 Y33.0106
G01 X25.7794 Y33.0059
G01 X25.7941 Y33.0038
G01 X25.8103 Y33.0030
G01 X27.8185 Y33.0030
G01 X28.0607 Y32.9029
G01 X31.7389 Y29.2247
G01 X31.7439 Y29.2108
G01 X31.7520 Y29.1939
G01 X31.8396 Y28.9818
G01 X31.8396 Y20.1466
G01 X31.7394 Y19.9020
G01 X31.4993 Y19.6623
G01 X31.4945 Y19.6585
G01 X31.4826 Y19.6476
G01 X31.4717 Y19.6357
G01 X31.4681 Y19.6311
G01 X30.9958 Y19.1596
G01 X30.9822 Y19.1473
G01 X30.9700 Y19.1338
G01 X30.4889 Y18.6534
G01 X30.4818 Y18.6469
G01 X30.4755 Y18.6400
G01 X30.1085 Y18.2736
G01 X30.0968 Y18.2607
G01 X30.0865 Y18.2468
G01 X30.0775 Y18.2319
G01 X30.0706 Y18.2173
G01 X30.0642 Y18.1998
G01 X30.0596 Y18.1805
G01 X30.0574 Y18.1657
G01 X30.0566 Y18.1508
G01 X30.0572 Y18.1335
G01 X30.0600 Y18.1138
G01 X30.0642 Y18.0969
G01 X30.0700 Y18.0806
G01 X30.0787 Y18.0627
G01 X30.0864 Y18.0499
G01 X30.0952 Y18.0379
G01 X30.1076 Y18.0240
G01 X30.2902 Y17.8413
G01 X30.2902 Y16.9999
G01 X29.9848 Y16.6944
G01 X29.9733 Y16.6814
G01 X29.9645 Y16.6693
G01 X29.9568 Y16.6566
G01 X29.9481 Y16.6387
G01 X29.9423 Y16.6224
G01 X29.9380 Y16.6055
G01 X29.9358 Y16.5908
G01 X29.9346 Y16.5710
G01 X29.9346 Y15.8623
G01 X29.9356 Y15.8437
G01 X29.9380 Y15.8278
G01 X29.9423 Y15.8109
G01 X29.9481 Y15.7945
G01 X29.9544 Y15.7810
G01 X29.9659 Y15.7619
G01 X29.9748 Y15.7500
G01 X29.9856 Y15.7380
G01 X30.7282 Y14.9954
G01 X30.7411 Y14.9838
G01 X30.7540 Y14.9741
G01 X30.7721 Y14.9634
G01 X30.7856 Y14.9570
G01 X30.8020 Y14.9512
G01 X30.8213 Y14.9465
G01 X30.8360 Y14.9444
G01 X30.8509 Y14.9436
G01 X31.1543 Y14.9436
G01 X31.1704 Y14.9444
G01 X31.1876 Y14.9469
G01 X31.2044 Y14.9511
G01 X31.2196 Y14.9565
G01 X31.2385 Y14.9656
G01 X31.2513 Y14.9733
G01 X31.2652 Y14.9836
G01 X31.2781 Y14.9952
G01 X31.2881 Y15.0061
G01 X31.3014 Y15.0240
G01 X31.3090 Y15.0367
G01 X31.3165 Y15.0524
G01 X31.3224 Y15.0687
G01 X31.3261 Y15.0831
G01 X31.3294 Y15.1051
G01 X31.3302 Y15.1199
G01 X31.3295 Y15.1360
G01 X31.3264 Y15.1568
G01 X31.3228 Y15.1712
G01 X31.3170 Y15.1876
G01 X31.3085 Y15.2054
G01 X31.3008 Y15.2182
G01 X31.2914 Y15.2312
G01 X31.2790 Y15.2451
G01 X31.1143 Y15.4118
G01 X31.1143 Y16.2538
G01 X31.7090 Y16.8486
G01 X32.5530 Y16.8486
G01 X33.1477 Y16.2538
G01 X33.1477 Y15.4118
G01 X32.9821 Y15.2442
G01 X32.9714 Y15.2322
G01 X32.9626 Y15.2202
G01 X32.9523 Y15.2033
G01 X32.9441 Y15.1853
G01 X32.9392 Y15.1712
G01 X32.9356 Y15.1568
G01 X32.9326 Y15.1372
G01 X32.9318 Y15.1199
G01 X32.9328 Y15.1026
G01 X32.9359 Y15.0831
G01 X32.9396 Y15.0687
G01 X32.9446 Y15.0547
G01 X32.9519 Y15.0389
G01 X32.9619 Y15.0219
G01 X32.9731 Y15.0071
G01 X32.9857 Y14.9935
G01 X32.9968 Y14.9836
G01 X33.0087 Y14.9747
G01 X33.0256 Y14.9644
G01 X33.0413 Y14.9570
G01 X33.0576 Y14.9511
G01 X33.0769 Y14.9465
G01 X33.0916 Y14.9444
G01 X33.1089 Y14.9436
G01 X33.4098 Y14.9436
G01 X33.4260 Y14.9444
G01 X33.4432 Y14.9470
G01 X33.4600 Y14.9512
G01 X33.4752 Y14.9566
G01 X33.4921 Y14.9645
G01 X33.5070 Y14.9734
G01 X33.5209 Y14.9838
G01 X33.5338 Y14.9954
G01 X35.2517 Y16.7133
G01 X35.2622 Y16.7250
G01 X35.2736 Y16.7405
G01 X35.2822 Y16.7550
G01 X35.2885 Y16.7681
G01 X35.2936 Y16.7817
G01 X35.2987 Y16.8003
G01 X35.3015 Y16.8169
G01 X35.3027 Y16.8338
G01 X35.3021 Y16.8519
G01 X35.3002 Y16.8674
G01 X35.2966 Y16.8839
G01 X35.2914 Y16.9000
G01 X35.2857 Y16.9134
G01 X35.2752 Y16.9323
G01 X35.2670 Y16.9443
G01 X35.2562 Y16.9573
G01 X34.6412 Y17.6286
G01 X34.6369 Y17.6342
G01 X34.6277 Y17.6443
G01 X34.6206 Y17.6512
G01 X33.7236 Y18.6303
G01 X33.7200 Y18.6349
G01 X33.7108 Y18.6451
G01 X33.7046 Y18.6511
G01 X32.9270 Y19.4998
G01 X32.9202 Y19.5069
G01 X32.8369 Y19.5882
G01 X32.8292 Y19.6008
G01 X32.8258 Y19.6056
G01 X32.7847 Y19.7185
G01 X32.7387 Y19.8317
G01 X32.7365 Y19.8464
G01 X32.7339 Y19.8570
G01 X32.7399 Y19.9771
G01 X32.7399 Y22.7863
G01 X32.7393 Y22.7999
G01 X32.7318 Y22.8985
G01 X32.7368 Y22.9189
G01 X32.7390 Y22.9339
G01 X32.7397 Y22.9479
G01 X32.7446 Y22.9585
G01 X32.7508 Y22.9764
G01 X32.7807 Y23.0505
G01 X32.8144 Y23.1495
G01 X32.8263 Y23.1661
G01 X32.8335 Y23.1783
G01 X32.8397 Y23.1913
G01 X32.9115 Y23.2631
G01 X32.9201 Y23.2724
G01 X33.2392 Y23.6445
G01 X33.2451 Y23.6501
G01 X33.2551 Y23.6611
G01 X33.2665 Y23.6764
G01 X35.3888 Y26.1519
G01 X35.3989 Y26.1630
G01 X35.4037 Y26.1692
G01 X35.8162 Y26.6505
G01 X35.8282 Y26.6634
G01 X35.8347 Y26.6720
G01 X36.2442 Y27.1496
G01 X36.2574 Y27.1638
G01 X36.2657 Y27.1748
G01 X36.5080 Y27.4574
G01 X36.5196 Y27.4727
G01 X36.5277 Y27.4858
G01 X36.5350 Y27.5008
G01 X36.5418 Y27.5187
G01 X36.5462 Y27.5361
G01 X36.5490 Y27.5538
G01 X36.5499 Y27.5717
G01 X36.5499 Y30.6426
G01 X36.5491 Y30.6590
G01 X36.5468 Y30.6752
G01 X36.5434 Y30.6901
G01 X36.5380 Y30.7088
G01 X36.5418 Y30.7364
G01 X36.5441 Y30.7464
G01 X36.5463 Y30.7611
G01 X36.5472 Y30.7762
G01 X36.5485 Y30.7860
G01 X36.5497 Y30.8043
G01 X36.5499 Y30.8879
G01 X36.5581 Y30.9084
G01 X36.5640 Y30.9265
G01 X36.5682 Y30.9462
G01 X36.5713 Y30.9681
G01 X36.6122 Y31.0408
G01 X36.6202 Y31.0573
G01 X36.6499 Y31.1290
G01 X36.6639 Y31.1430
G01 X36.6751 Y31.1555
G01 X36.6838 Y31.1672
G01 X36.7011 Y31.1956
G01 X36.7034 Y31.2001
G01 X36.8334 Y31.4276
G01 X36.8382 Y31.4342
G01 X36.8459 Y31.4470
G01 X36.8530 Y31.4618
G01 X36.9760 Y31.6769
G01 X36.9804 Y31.6831
G01 X36.9881 Y31.6959
G01 X36.9950 Y31.7101
G01 X37.4077 Y32.4321
G01 X37.4174 Y32.4478
G01 X37.4215 Y32.4562
G01 X37.4421 Y32.4924
G01 X37.4492 Y32.5066
G01 X37.4553 Y32.5225
G01 X37.4609 Y32.5441
G01 X37.4633 Y32.5597
G01 X37.4643 Y32.5780
G01 X37.4643 Y33.4086
G01 X37.4634 Y33.4260
G01 X37.4609 Y33.4432
G01 X37.4566 Y33.4600
G01 X37.4512 Y33.4752
G01 X37.4421 Y33.4942
G01 X37.4344 Y33.5070
G01 X37.4256 Y33.5190
G01 X37.4124 Y33.5338
G01 X37.3976 Y33.5470
G01 X37.3856 Y33.5558
G01 X37.3728 Y33.5636
G01 X37.3550 Y33.5722
G01 X37.3362 Y33.5787
G01 X37.3217 Y33.5823
G01 X37.3046 Y33.5848
G01 X37.2872 Y33.5857
G01 X35.9791 Y33.5857
G01 X35.9650 Y33.5851
G01 X35.8683 Y33.5774
G01 X35.8586 Y33.5800
G01 X35.8435 Y33.5832
G01 X35.8283 Y33.5851
G01 X35.8102 Y33.5857
G01 X35.7271 Y33.6218
G01 X35.7110 Y33.6278
G01 X35.6180 Y33.6564
G01 X35.6023 Y33.6686
G01 X35.5888 Y33.6770
G01 X35.5735 Y33.6847
G01 X35.5659 Y33.6880
G01 X35.4980 Y33.7540
G01 X35.4880 Y33.7630
G01 X35.0175 Y34.1556
G01 X35.0138 Y34.1595
G01 X35.0018 Y34.1703
G01 X34.9862 Y34.1817
G01 X34.7095 Y34.4126
G01 X34.7020 Y34.4192
G01 X34.6964 Y34.4235
G01 X33.8462 Y35.1329
G01 X33.8331 Y35.1427
G01 X33.8203 Y35.1505
G01 X33.8023 Y35.1594
G01 X33.7833 Y35.1660
G01 X33.7687 Y35.1697
G01 X33.7513 Y35.1723
G01 X33.7337 Y35.1732
G01 X29.6316 Y35.1732
G01 X29.6155 Y35.1724
G01 X29.5947 Y35.1692
G01 X29.5802 Y35.1656
G01 X29.5639 Y35.1597
G01 X29.5482 Y35.1523
G01 X29.5353 Y35.1447
G01 X29.5175 Y35.1314
G01 X29.5064 Y35.1213
G01 X29.1011 Y34.7160
G01 X28.1759 Y34.7160
G01 X27.7697 Y35.1222
G01 X27.7577 Y35.1330
G01 X27.7437 Y35.1433
G01 X27.7288 Y35.1523
G01 X27.7131 Y35.1597
G01 X27.6968 Y35.1656
G01 X27.6799 Y35.1698
G01 X27.6627 Y35.1723
G01 X27.6466 Y35.1732
G01 X27.0916 Y35.1732
G01 X27.0767 Y35.1725
G01 X27.0547 Y35.1692
G01 X27.0402 Y35.1656
G01 X27.0239 Y35.1597
G01 X27.0082 Y35.1523
G01 X26.9953 Y35.1447
G01 X26.9775 Y35.1314
G01 X26.9664 Y35.1213
G01 X26.5611 Y34.7160
G01 X25.6359 Y34.7160
G01 X24.9802 Y35.3717
G01 X24.9802 Y36.2993
G01 X25.3295 Y36.6475
G01 X25.3423 Y36.6591
G01 X25.3535 Y36.6714
G01 X25.6357 Y36.9527
G01 X26.5611 Y36.9527
G01 X26.9664 Y36.5473
G01 X26.9784 Y36.5364
G01 X26.9933 Y36.5253
G01 X27.0060 Y36.5176
G01 X27.0262 Y36.5081
G01 X27.0402 Y36.5031
G01 X27.0571 Y36.4989
G01 X27.0743 Y36.4963
G01 X27.0904 Y36.4955
G01 X27.6466 Y36.4955
G01 X27.6627 Y36.4963
G01 X27.6799 Y36.4989
G01 X27.6968 Y36.5031
G01 X27.7131 Y36.5089
G01 X27.7288 Y36.5164
G01 X27.7437 Y36.5253
G01 X27.7577 Y36.5357
G01 X27.7697 Y36.5465
G01 X28.1759 Y36.9527
G01 X29.1011 Y36.9527
G01 X29.5064 Y36.5473
G01 X29.5184 Y36.5364
G01 X29.5333 Y36.5253
G01 X29.5460 Y36.5176
G01 X29.5662 Y36.5081
G01 X29.5802 Y36.5031
G01 X29.5971 Y36.4989
G01 X29.6143 Y36.4963
G01 X29.6292 Y36.4955
G01 X33.3680 Y36.4955
G01 X33.3831 Y36.4962
G01 X33.4030 Y36.4990
G01 X33.4201 Y36.5033
G01 X33.4366 Y36.5093
G01 X33.4525 Y36.5169
G01 X33.4676 Y36.5261
G01 X33.4816 Y36.5367
G01 X33.4946 Y36.5487
G01 X33.5077 Y36.5639
G01 X33.5165 Y36.5762
G01 X33.5242 Y36.5893
G01 X33.5317 Y36.6052
G01 X33.5380 Y36.6230
G01 X33.5418 Y36.6389
G01 X33.5445 Y36.6588
G01 X33.5450 Y36.6764
G01 X33.5437 Y36.6940
G01 X33.5404 Y36.7126
G01 X33.5360 Y36.7284
G01 X33.5296 Y36.7448
G01 X33.5216 Y36.7605
G01 X33.5135 Y36.7733
G01 X33.4995 Y36.7910
G01 X33.4890 Y36.8018
G01 X33.4755 Y36.8132
G01 X32.6841 Y37.4181
G01 X32.6792 Y37.4223
G01 X32.6650 Y37.4327
G01 X32.3636 Y37.6631
G01 X32.3516 Y37.6738
G01 X32.3396 Y37.6826
G01 X32.3311 Y37.6879
G01 X31.7047 Y38.1667
G01 X31.6963 Y38.1741
G01 X31.6843 Y38.1830
G01 X31.6788 Y38.1865
G01 X31.0459 Y38.6702
G01 X31.0409 Y38.6745
G01 X31.0266 Y38.6850
G01 X30.7237 Y38.9165
G01 X30.7158 Y38.9234
G01 X30.7038 Y38.9323
G01 X30.6989 Y38.9355
G01 X30.6831 Y38.9475
G01 X30.6715 Y38.9556
G01 X30.6561 Y38.9643
G01 X30.6432 Y38.9701
G01 X30.6254 Y38.9763
G01 X30.6093 Y38.9801
G01 X30.5930 Y38.9824
G01 X30.5765 Y38.9832
G01 X29.7815 Y38.9832
G01 X29.7641 Y38.9823
G01 X29.7446 Y38.9792
G01 X29.7278 Y38.9748
G01 X29.7137 Y38.9697
G01 X29.7002 Y38.9634
G01 X29.6831 Y38.9533
G01 X29.6692 Y38.9430
G01 X29.6563 Y38.9313
G01 X29.6431 Y38.9165
G01 X29.6343 Y38.9045
G01 X29.6266 Y38.8917
G01 X29.6189 Y38.8761
G01 X29.6114 Y38.8552
G01 X29.6078 Y38.8407
G01 X29.6052 Y38.8223
G01 X29.6044 Y38.8061
G01 X29.6044 Y38.6784
G01 X29.4505 Y38.6784
G01 X29.4504 Y38.6936
G01 X29.4495 Y38.6997
G01 X29.4483 Y38.7045
G01 X29.4462 Y38.7102
G01 X29.4434 Y38.7157
G01 X29.4399 Y38.7207
G01 X29.4367 Y38.7244
G01 X28.9895 Y39.1717
G01 X28.9829 Y39.1772
G01 X28.9744 Y39.1820
G01 X28.9686 Y39.1842
G01 X28.9639 Y39.1854
G01 X28.9541 Y39.1863
G01 X28.3192 Y39.1862
G01 X28.3107 Y39.1848
G01 X28.3026 Y39.1820
G01 X28.2951 Y39.1779
G01 X28.2884 Y39.1725
G01 X27.8403 Y38.7244
G01 X27.8363 Y38.7197
G01 X27.8330 Y38.7146
G01 X27.8308 Y38.7102
G01 X27.8287 Y38.7045
G01 X27.8275 Y38.6997
G01 X27.8266 Y38.6936
G01 X27.8265 Y38.6784
G01 X27.6726 Y38.6784
G01 X27.6726 Y38.8061
G01 X27.6717 Y38.8235
G01 X27.6692 Y38.8407
G01 X27.6649 Y38.8575
G01 X27.6591 Y38.8739
G01 X27.6511 Y38.8907
G01 X27.6427 Y38.9045
G01 X27.6339 Y38.9165
G01 X27.6207 Y38.9313
G01 X27.6059 Y38.9445
G01 X27.5939 Y38.9533
G01 X27.5811 Y38.9611
G01 X27.5633 Y38.9697
G01 X27.5445 Y38.9762
G01 X27.5300 Y38.9798
G01 X27.5153 Y38.9820
G01 X27.4955 Y38.9832
G01 X27.2415 Y38.9832
G01 X27.2254 Y38.9824
G01 X27.2070 Y38.9798
G01 X27.1901 Y38.9756
G01 X27.1737 Y38.9697
G01 X27.1580 Y38.9623
G01 X27.1431 Y38.9533
G01 X27.1292 Y38.9430
G01 X27.1163 Y38.9313
G01 X27.1046 Y38.9184
G01 X27.0943 Y38.9045
G01 X27.0853 Y38.8896
G01 X27.0779 Y38.8739
G01 X27.0724 Y38.8587
G01 X27.0674 Y38.8382
G01 X27.0653 Y38.8235
G01 X27.0645 Y38.8086
G01 X27.0644 Y38.6784
G01 X26.9105 Y38.6784
G01 X26.9104 Y38.6936
G01 X26.9098 Y38.6985
G01 X26.9083 Y38.7045
G01 X26.9062 Y38.7102
G01 X26.9034 Y38.7157
G01 X26.9007 Y38.7197
G01 X26.8967 Y38.7244
G01 X26.4495 Y39.1717
G01 X26.4449 Y39.1757
G01 X26.4398 Y39.1792
G01 X26.4344 Y39.1820
G01 X26.4286 Y39.1842
G01 X26.4227 Y39.1856
G01 X26.4178 Y39.1862
G01 X26.4026 Y39.1863
G01 X26.4025 Y39.2874
G01 X26.4017 Y39.3036
G01 X26.3995 Y39.3185
G01 X26.3949 Y39.3378
G01 X26.3890 Y39.3542
G01 X26.3815 Y39.3700
G01 X26.3717 Y39.3860
G01 X26.3620 Y39.3990
G01 X26.3502 Y39.4119
G01 X26.1129 Y39.6474
G01 X26.0992 Y39.6628
G01 X26.0873 Y39.6737
G01 X26.0829 Y39.6772
G01 X26.0132 Y39.7463
G01 X26.0021 Y39.7562
G01 X25.9882 Y39.7664
G01 X25.9733 Y39.7753
G01 X25.9599 Y39.7816
G01 X25.9390 Y39.7891
G01 X25.9246 Y39.7926
G01 X25.9087 Y39.7950
G01 X25.8902 Y39.7960
G01 X25.6359 Y39.7960
G01 X24.9802 Y40.4517
G01 X24.9802 Y41.3793
G01 X25.2522 Y41.6504
G01 X25.2661 Y41.6629
G01 X25.2783 Y41.6764
G01 X25.6638 Y42.0607
G01 X25.6738 Y42.0718
G01 X25.6842 Y42.0857
G01 X25.6932 Y42.1006
G01 X25.7007 Y42.1163
G01 X25.7065 Y42.1327
G01 X25.7108 Y42.1496
G01 X25.7134 Y42.1668
G01 X25.7142 Y42.1842
G01 X25.7134 Y42.2015
G01 X25.7108 Y42.2188
G01 X25.7066 Y42.2356
G01 X25.7008 Y42.2520
G01 X25.6933 Y42.2677
G01 X25.6844 Y42.2827
G01 X25.6740 Y42.2966
G01 X25.6641 Y42.3077
G01 X24.9802 Y42.9917
G01 X24.9802 Y43.9193
G01 X25.2134 Y44.1517
G01 X25.2280 Y44.1648
G01 X25.2408 Y44.1790
G01 X25.6357 Y44.5727
G01 X26.5613 Y44.5727
G01 X26.9561 Y44.1792
G01 X26.9690 Y44.1648
G01 X26.9838 Y44.1516
G01 X27.2453 Y43.8911
G01 X27.2564 Y43.8812
G01 X27.2703 Y43.8709
G01 X27.2852 Y43.8620
G01 X27.3009 Y43.8546
G01 X27.3172 Y43.8487
G01 X27.3340 Y43.8445
G01 X27.3512 Y43.8420
G01 X27.3685 Y43.8411
G01 X27.3858 Y43.8420
G01 X27.4030 Y43.8445
G01 X27.4198 Y43.8487
G01 X27.4361 Y43.8546
G01 X27.4518 Y43.8620
G01 X27.4667 Y43.8709
G01 X27.4806 Y43.8812
G01 X27.4917 Y43.8911
G01 X27.7532 Y44.1516
G01 X27.7680 Y44.1648
G01 X27.7809 Y44.1792
G01 X28.1757 Y44.5727
G01 X29.1013 Y44.5727
G01 X29.4962 Y44.1790
G01 X29.5090 Y44.1648
G01 X29.5236 Y44.1517
G01 X29.7568 Y43.9193
G01 X29.7568 Y42.9917
G01 X29.7046 Y42.9394
G01 X29.6921 Y42.9256
G01 X29.6825 Y42.9126
G01 X29.6736 Y42.8977
G01 X29.6662 Y42.8820
G01 X29.6600 Y42.8645
G01 X29.6561 Y42.8488
G01 X29.6534 Y42.8291
G01 X29.6527 Y42.8142
G01 X29.6534 Y42.7993
G01 X29.6557 Y42.7821
G01 X29.6603 Y42.7628
G01 X29.6662 Y42.7465
G01 X29.6736 Y42.7308
G01 X29.6825 Y42.7159
G01 X29.6929 Y42.7019
G01 X29.7046 Y42.6890
G01 X29.7688 Y42.6248
G01 X29.7779 Y42.6164
G01 X29.7887 Y42.6078
G01 X30.4129 Y42.1566
G01 X30.4194 Y42.1508
G01 X30.4314 Y42.1419
G01 X30.4428 Y42.1350
G01 X30.5414 Y42.0637
G01 X30.5570 Y42.0536
G01 X30.5714 Y42.0462
G01 X30.5876 Y42.0397
G01 X30.6043 Y42.0349
G01 X30.6215 Y42.0317
G01 X30.6388 Y42.0302
G01 X30.6562 Y42.0305
G01 X30.6735 Y42.0324
G01 X30.6882 Y42.0355
G01 X30.7060 Y42.0409
G01 X30.7209 Y42.0472
G01 X30.7405 Y42.0580
G01 X30.7527 Y42.0666
G01 X30.7660 Y42.0778
G01 X30.7781 Y42.0904
G01 X30.7890 Y42.1040
G01 X30.7984 Y42.1186
G01 X30.8064 Y42.1341
G01 X30.8128 Y42.1503
G01 X30.8173 Y42.1659
G01 X30.8208 Y42.1854
G01 X30.8220 Y42.2003
G01 X30.8220 Y42.2112
G01 X30.8303 Y42.2460
G01 X30.8332 Y42.2622
G01 X30.8339 Y42.2680
G01 X30.8349 Y42.2859
G01 X30.8348 Y43.7120
G01 X30.8341 Y43.7276
G01 X30.8321 Y43.7419
G01 X30.8278 Y43.7605
G01 X30.8214 Y43.7785
G01 X30.8154 Y43.7916
G01 X30.8083 Y43.8041
G01 X30.7958 Y43.8217
G01 X30.7864 Y43.8326
G01 X30.7743 Y43.8442
G01 X29.2645 Y45.1638
G01 X29.2607 Y45.1679
G01 X29.2496 Y45.1779
G01 X29.2405 Y45.1848
G01 X28.7576 Y45.6069
G01 X28.7433 Y45.6182
G01 X28.7291 Y45.6272
G01 X28.7117 Y45.6360
G01 X28.6922 Y45.6431
G01 X28.6771 Y45.6470
G01 X28.6617 Y45.6494
G01 X28.6410 Y45.6507
G01 X22.7990 Y45.6507
G01 X22.7817 Y45.6498
G01 X22.7645 Y45.6473
G01 X22.7477 Y45.6431
G01 X22.7313 Y45.6372
G01 X22.7135 Y45.6286
G01 X22.7007 Y45.6209
G01 X22.6868 Y45.6105
G01 X22.6722 Y45.5971
G01 X22.6622 Y45.5860
G01 X22.6519 Y45.5721
G01 X22.6418 Y45.5550
G01 X22.6355 Y45.5415
G01 X22.6296 Y45.5252
G01 X22.6254 Y45.5083
G01 X22.6232 Y45.4936
G01 X22.6220 Y45.4726
G01 X22.6228 Y45.4565
G01 X22.6253 Y45.4393
G01 X22.6295 Y45.4224
G01 X22.6349 Y45.4072
G01 X22.7017 Y45.2453
G01 X22.7036 Y45.2382
G01 X22.7091 Y45.2230
G01 X22.7160 Y45.2084
G01 X22.7194 Y45.2024
G01 X22.7718 Y45.0753
G01 X22.7718 Y43.1061
G00 Z2.0000
G00 X25.3011 Y43.1033
G01 F60.00
G01 Z-0.0349
G01 F60.00
G01 X25.7475 Y42.6570
G01 X25.7521 Y42.6529
G01 X25.7582 Y42.6488
G01 X25.7649 Y42.6457
G01 X25.7707 Y42.6438
G01 X25.7768 Y42.6427
G01 X25.7829 Y42.6423
G01 X26.4141 Y42.6423
G01 X26.4227 Y42.6431
G01 X26.4298 Y42.6448
G01 X26.4366 Y42.6477
G01 X26.4419 Y42.6508
G01 X26.4477 Y42.6553
G01 X26.5804 Y42.7879
G01 X27.4359 Y41.9325
G01 X27.4608 Y41.9099
G01 X27.4909 Y41.8879
G01 X27.5187 Y41.8713
G01 X27.5479 Y41.8574
G01 X27.5818 Y41.8450
G01 X27.6192 Y41.8358
G01 X27.6512 Y41.8311
G01 X27.6860 Y41.8294
G01 X29.1310 Y41.8294
G01 X29.1389 Y41.8232
G01 X36.0503 Y36.8169
G01 X36.0837 Y36.7955
G01 X36.1144 Y36.7799
G01 X36.1491 Y36.7667
G01 X36.1849 Y36.7571
G01 X36.2189 Y36.7516
G01 X36.2585 Y36.7494
G01 X42.2857 Y36.7494
G01 X42.3097 Y36.7095
G01 X42.3497 Y36.6554
G01 X42.3972 Y36.6026
G01 X42.4497 Y36.5549
G01 X42.5047 Y36.5141
G01 X42.5656 Y36.4775
G01 X42.6286 Y36.4477
G01 X42.6943 Y36.4242
G01 X42.7632 Y36.4070
G01 X42.8309 Y36.3970
G01 X42.9006 Y36.3936
G01 X44.2226 Y36.3936
G01 X44.2911 Y36.3970
G01 X44.3576 Y36.4068
G01 X44.4300 Y36.4250
G01 X44.4934 Y36.4477
G01 X44.5564 Y36.4775
G01 X44.6163 Y36.5134
G01 X44.6703 Y36.5534
G01 X44.7257 Y36.6035
G01 X44.7708 Y36.6534
G01 X44.8123 Y36.7095
G01 X44.8493 Y36.7715
G01 X44.8780 Y36.8323
G01 X44.9015 Y36.8980
G01 X44.9185 Y36.9657
G01 X44.9287 Y37.0347
G01 X44.9321 Y37.1043
G01 X44.9284 Y37.1764
G01 X44.9185 Y37.2430
G01 X44.9022 Y37.3083
G01 X44.8789 Y37.3740
G01 X44.8482 Y37.4394
G01 X44.8123 Y37.4992
G01 X44.7708 Y37.5552
G01 X44.7222 Y37.6086
G01 X44.6723 Y37.6537
G01 X44.6183 Y37.6939
G01 X44.5586 Y37.7299
G01 X44.4934 Y37.7609
G01 X44.4277 Y37.7844
G01 X44.3601 Y37.8014
G01 X44.2898 Y37.8117
G01 X44.2214 Y37.8150
G01 X42.9006 Y37.8150
G01 X42.8309 Y37.8116
G01 X42.7632 Y37.8016
G01 X42.6943 Y37.7844
G01 X42.6286 Y37.7609
G01 X42.5656 Y37.7311
G01 X42.5047 Y37.6946
G01 X42.4497 Y37.6537
G01 X42.3972 Y37.6060
G01 X42.3497 Y37.5533
G01 X42.3097 Y37.4992
G01 X42.2857 Y37.4593
G01 X36.3735 Y37.4593
G01 X29.5782 Y42.3816
G01 X29.5236 Y42.4362
G01 X29.4996 Y42.4579
G01 X29.4707 Y42.4795
G01 X29.4430 Y42.4961
G01 X29.4093 Y42.5123
G01 X29.3742 Y42.5246
G01 X29.3427 Y42.5324
G01 X29.3107 Y42.5373
G01 X29.2747 Y42.5393
G01 X27.8330 Y42.5393
G01 X26.9105 Y43.4618
G01 X26.9105 Y43.7712
G01 X26.9100 Y43.7773
G01 X26.9083 Y43.7845
G01 X26.9062 Y43.7902
G01 X26.9034 Y43.7957
G01 X26.8999 Y43.8007
G01 X26.8959 Y43.8053
G01 X26.4495 Y44.2517
G01 X26.4429 Y44.2572
G01 X26.4366 Y44.2610
G01 X26.4321 Y44.2630
G01 X26.4263 Y44.2648
G01 X26.4202 Y44.2659
G01 X26.4141 Y44.2663
G01 X25.7829 Y44.2663
G01 X25.7731 Y44.2654
G01 X25.7637 Y44.2625
G01 X25.7551 Y44.2579
G01 X25.7475 Y44.2517
G01 X25.3011 Y43.8053
G01 X25.2956 Y43.7987
G01 X25.2908 Y43.7902
G01 X25.2877 Y43.7809
G01 X25.2865 Y43.7712
G01 X25.2865 Y43.1387
G01 X25.2875 Y43.1289
G01 X25.2903 Y43.1196
G01 X25.2949 Y43.1109
G01 X25.3011 Y43.1033
G00 Z2.0000
G00 X25.3011 Y40.5633
G01 F60.00
G01 Z-0.0349
G01 F60.00
G01 X25.7475 Y40.1170
G01 X25.7521 Y40.1129
G01 X25.7572 Y40.1094
G01 X25.7637 Y40.1061
G01 X25.7695 Y40.1041
G01 X25.7755 Y40.1029
G01 X25.7816 Y40.1023
G01 X26.0910 Y40.1023
G01 X26.8000 Y39.3933
G01 X26.8240 Y39.3715
G01 X26.8538 Y39.3492
G01 X26.8859 Y39.3302
G01 X26.9152 Y39.3164
G01 X26.9456 Y39.3054
G01 X26.9806 Y39.2964
G01 X27.0162 Y39.2911
G01 X27.0510 Y39.2894
G01 X30.7408 Y39.2894
G01 X36.0429 Y35.2349
G01 X36.0701 Y35.2160
G01 X36.1010 Y35.1988
G01 X36.1291 Y35.1863
G01 X36.1583 Y35.1764
G01 X36.1915 Y35.1683
G01 X36.2254 Y35.1634
G01 X36.2585 Y35.1619
G01 X45.7782 Y35.1619
G01 X45.8022 Y35.1220
G01 X45.8422 Y35.0679
G01 X45.8897 Y35.0151
G01 X45.9422 Y34.9674
G01 X45.9972 Y34.9266
G01 X46.0581 Y34.8900
G01 X46.1211 Y34.8602
G01 X46.1868 Y34.8367
G01 X46.2557 Y34.8195
G01 X46.3234 Y34.8095
G01 X46.3931 Y34.8061
G01 X47.7151 Y34.8061
G01 X47.7836 Y34.8095
G01 X47.8526 Y34.8197
G01 X47.9202 Y34.8367
G01 X47.9836 Y34.8593
G01 X48.0511 Y34.8912
G01 X48.1088 Y34.9259
G01 X48.1648 Y34.9674
G01 X48.2165 Y35.0143
G01 X48.2617 Y35.0641
G01 X48.3062 Y35.1240
G01 X48.3407 Y35.1818
G01 X48.3705 Y35.2448
G01 X48.3940 Y35.3105
G01 X48.4107 Y35.3770
G01 X48.4212 Y35.4472
G01 X48.4246 Y35.5168
G01 X48.4212 Y35.5865
G01 X48.4104 Y35.6579
G01 X48.3933 Y35.7255
G01 X48.3705 Y35.7888
G01 X48.3418 Y35.8497
G01 X48.3048 Y35.9117
G01 X48.2633 Y35.9677
G01 X48.2165 Y36.0194
G01 X48.1648 Y36.0662
G01 X48.1088 Y36.1078
G01 X48.0467 Y36.1447
G01 X47.9859 Y36.1734
G01 X47.9225 Y36.1962
G01 X47.8550 Y36.2134
G01 X47.7836 Y36.2241
G01 X47.7164 Y36.2275
G01 X46.3931 Y36.2275
G01 X46.3234 Y36.2241
G01 X46.2557 Y36.2141
G01 X46.1868 Y36.1969
G01 X46.1211 Y36.1734
G01 X46.0581 Y36.1436
G01 X45.9972 Y36.1071
G01 X45.9422 Y36.0662
G01 X45.8897 Y36.0185
G01 X45.8422 Y35.9658
G01 X45.8022 Y35.9117
G01 X45.7782 Y35.8718
G01 X36.3787 Y35.8718
G01 X31.0766 Y39.9263
G01 X31.0474 Y39.9463
G01 X31.0206 Y39.9614
G01 X30.9914 Y39.9744
G01 X30.9590 Y39.9855
G01 X30.9268 Y39.9931
G01 X30.8941 Y39.9977
G01 X30.8610 Y39.9993
G01 X27.1980 Y39.9993
G01 X26.7649 Y40.4324
G01 X26.8975 Y40.5651
G01 X26.9014 Y40.5699
G01 X26.9052 Y40.5762
G01 X26.9080 Y40.5830
G01 X26.9098 Y40.5901
G01 X26.9105 Y40.5987
G01 X26.9105 Y41.2299
G01 X26.9095 Y41.2397
G01 X26.9083 Y41.2445
G01 X26.9062 Y41.2502
G01 X26.9021 Y41.2577
G01 X26.8959 Y41.2653
G01 X26.4495 Y41.7117
G01 X26.4429 Y41.7172
G01 X26.4355 Y41.7215
G01 X26.4275 Y41.7245
G01 X26.4190 Y41.7261
G01 X25.7829 Y41.7263
G01 X25.7731 Y41.7254
G01 X25.7637 Y41.7225
G01 X25.7551 Y41.7179
G01 X25.7475 Y41.7117
G01 X25.3003 Y41.2644
G01 X25.2943 Y41.2567
G01 X25.2903 Y41.2491
G01 X25.2875 Y41.2397
G01 X25.2865 Y41.2312
G01 X25.2865 Y40.5987
G01 X25.2875 Y40.5889
G01 X25.2903 Y40.5796
G01 X25.2949 Y40.5709
G01 X25.3011 Y40.5633
G00 Z2.0000
G00 X25.2865 Y38.6900
G01 F60.00
G01 Z-0.0349
G01 F60.00
G01 X25.2872 Y38.6985
G01 X25.2899 Y38.7079
G01 X25.2943 Y38.7167
G01 X25.3003 Y38.7244
G01 X25.7475 Y39.1717
G01 X25.7521 Y39.1757
G01 X25.7572 Y39.1792
G01 X25.7626 Y39.1820
G01 X25.7684 Y39.1842
G01 X25.7731 Y39.1854
G01 X25.7792 Y39.1862
G01 X25.7944 Y39.1863
G01 X25.7944 Y39.3403
G01 X25.6992 Y39.3403
G01 X25.5291 Y39.1708
G01 X25.5201 Y39.1610
G01 X25.5100 Y39.1517
G01 X25.1326 Y38.7758
G01 X25.1326 Y38.6784
G01 X25.2865 Y38.6784
G01 X25.2865 Y38.6900
G00 Z2.0000
G00 X25.3011 Y38.0233
G01 F60.00
G01 Z-0.0349
G01 F60.00
G01 X25.2971 Y38.0279
G01 X25.2936 Y38.0330
G01 X25.2908 Y38.0384
G01 X25.2887 Y38.0442
G01 X25.2872 Y38.0501
G01 X25.2866 Y38.0550
G01 X25.2865 Y38.0703
G01 X25.1326 Y38.0703
G01 X25.1326 Y37.9752
G01 X25.6994 Y37.4084
G01 X25.7944 Y37.4084
G01 X25.7944 Y37.5623
G01 X25.7792 Y37.5625
G01 X25.7743 Y37.5631
G01 X25.7684 Y37.5645
G01 X25.7626 Y37.5666
G01 X25.7572 Y37.5694
G01 X25.7521 Y37.5729
G01 X25.7484 Y37.5761
G01 X25.3011 Y38.0233
G00 Z2.0000
G00 X26.4495 Y37.5770
G01 F60.00
G01 Z-0.0349
G01 F60.00
G01 X26.4449 Y37.5729
G01 X26.4398 Y37.5694
G01 X26.4344 Y37.5666
G01 X26.4286 Y37.5645
G01 X26.4239 Y37.5633
G01 X26.4178 Y37.5625
G01 X26.4026 Y37.5623
G01 X26.4026 Y37.4084
G01 X26.4976 Y37.4084
G01 X27.0644 Y37.9752
G01 X27.0644 Y38.0703
G01 X26.9105 Y38.0703
G01 X26.9104 Y38.0550
G01 X26.9095 Y38.0489
G01 X26.9083 Y38.0442
G01 X26.9062 Y38.0384
G01 X26.9040 Y38.0340
G01 X26.9007 Y38.0289
G01 X26.8967 Y38.0242
G01 X26.4495 Y37.5770
G00 Z2.0000
G00 X27.8265 Y38.0703
G01 F60.00
G01 Z-0.0349
G01 F60.00
G01 X27.6726 Y38.0703
G01 X27.6726 Y37.9752
G01 X28.2394 Y37.4084
G01 X28.3344 Y37.4084
G01 X28.3344 Y37.5623
G01 X28.3192 Y37.5625
G01 X28.3143 Y37.5631
G01 X28.3084 Y37.5645
G01 X28.3026 Y37.5666
G01 X28.2972 Y37.5694
G01 X28.2921 Y37.5729
G01 X28.2875 Y37.5770
G01 X27.8403 Y38.0242
G01 X27.8371 Y38.0279
G01 X27.8336 Y38.0330
G01 X27.8308 Y38.0384
G01 X27.8287 Y38.0442
G01 X27.8275 Y38.0489
G01 X27.8266 Y38.0550
G01 X27.8265 Y38.0703
G00 Z2.0000
G00 X28.9895 Y37.5770
G01 F60.00
G01 Z-0.0349
G01 F60.00
G01 X28.9849 Y37.5729
G01 X28.9798 Y37.5694
G01 X28.9744 Y37.5666
G01 X28.9686 Y37.5645
G01 X28.9639 Y37.5633
G01 X28.9578 Y37.5625
G01 X28.9426 Y37.5623
G01 X28.9426 Y37.4084
G01 X29.0376 Y37.4084
G01 X29.6044 Y37.9752
G01 X29.6044 Y38.0703
G01 X29.4505 Y38.0703
G01 X29.4504 Y38.0550
G01 X29.4495 Y38.0489
G01 X29.4483 Y38.0442
G01 X29.4462 Y38.0384
G01 X29.4440 Y38.0340
G01 X29.4407 Y38.0289
G01 X29.4367 Y38.0242
G01 X28.9895 Y37.5770
G00 Z2.0000
G00 X27.8411 Y40.5633
G01 F60.00
G01 Z-0.0349
G01 F60.00
G01 X28.2875 Y40.1170
G01 X28.2951 Y40.1108
G01 X28.3037 Y40.1061
G01 X28.3131 Y40.1033
G01 X28.3229 Y40.1023
G01 X28.9541 Y40.1023
G01 X28.9639 Y40.1033
G01 X28.9733 Y40.1061
G01 X28.9819 Y40.1108
G01 X28.9895 Y40.1170
G01 X29.4359 Y40.5633
G01 X29.4421 Y40.5709
G01 X29.4467 Y40.5796
G01 X29.4495 Y40.5889
G01 X29.4505 Y40.5987
G01 X29.4505 Y41.2299
G01 X29.4495 Y41.2397
G01 X29.4467 Y41.2491
G01 X29.4421 Y41.2577
G01 X29.4359 Y41.2653
G01 X28.9895 Y41.7117
G01 X28.9819 Y41.7179
G01 X28.9733 Y41.7225
G01 X28.9639 Y41.7254
G01 X28.9541 Y41.7263
G01 X28.3229 Y41.7263
G01 X28.3131 Y41.7254
G01 X28.3037 Y41.7225
G01 X28.2951 Y41.7179
G01 X28.2875 Y41.7117
G01 X27.8411 Y41.2653
G01 X27.8371 Y41.2607
G01 X27.8343 Y41.2567
G01 X27.8299 Y41.2479
G01 X27.8275 Y41.2397
G01 X27.8265 Y41.2299
G01 X27.8265 Y40.5975
G01 X27.8277 Y40.5877
G01 X27.8308 Y40.5784
G01 X27.8356 Y40.5699
G01 X27.8411 Y40.5633
G00 Z2.0000
G00 X27.8411 Y43.1033
G01 F60.00
G01 Z-0.0349
G01 F60.00
G01 X28.2875 Y42.6570
G01 X28.2951 Y42.6508
G01 X28.3037 Y42.6461
G01 X28.3131 Y42.6433
G01 X28.3229 Y42.6423
G01 X28.9541 Y42.6423
G01 X28.9639 Y42.6433
G01 X28.9733 Y42.6461
G01 X28.9819 Y42.6508
G01 X28.9895 Y42.6570
G01 X29.4359 Y43.1033
G01 X29.4421 Y43.1109
G01 X29.4467 Y43.1196
G01 X29.4495 Y43.1289
G01 X29.4505 Y43.1387
G01 X29.4505 Y43.7699
G01 X29.4495 Y43.7797
G01 X29.4467 Y43.7891
G01 X29.4421 Y43.7977
G01 X29.4359 Y43.8053
G01 X28.9895 Y44.2517
G01 X28.9819 Y44.2579
G01 X28.9733 Y44.2625
G01 X28.9639 Y44.2654
G01 X28.9541 Y44.2663
G01 X28.3229 Y44.2663
G01 X28.3131 Y44.2654
G01 X28.3037 Y44.2625
G01 X28.2951 Y44.2579
G01 X28.2875 Y44.2517
G01 X27.8411 Y43.8053
G01 X27.8371 Y43.8007
G01 X27.8343 Y43.7967
G01 X27.8299 Y43.7879
G01 X27.8275 Y43.7797
G01 X27.8265 Y43.7699
G01 X27.8265 Y43.1375
G01 X27.8277 Y43.1277
G01 X27.8308 Y43.1184
G01 X27.8356 Y43.1099
G01 X27.8411 Y43.1033
G00 Z2.0000
G00 X32.1457 Y44.2691
G01 F60.00
G01 Z-0.0349
G01 F60.00
G01 X32.1478 Y44.2554
G01 X32.1514 Y44.2409
G01 X32.1571 Y44.2237
G01 X32.1572 Y44.1154
G01 X32.1576 Y44.1042
G01 X32.1622 Y44.0420
G01 X32.1630 Y44.0249
G01 X32.1642 Y44.0160
G01 X32.1650 Y44.0041
G01 X32.1629 Y43.9969
G01 X32.1596 Y43.9818
G01 X32.1578 Y43.9676
G01 X32.1571 Y43.9522
G01 X32.1574 Y42.6026
G01 X32.1581 Y42.5925
G01 X32.1608 Y42.5753
G01 X32.1648 Y42.5596
G01 X32.1706 Y42.5433
G01 X32.1780 Y42.5276
G01 X32.1863 Y42.5137
G01 X32.1933 Y42.5038
G01 X32.2045 Y42.4905
G01 X32.2160 Y42.4792
G01 X32.2295 Y42.4682
G01 X32.6472 Y42.1620
G01 X32.6588 Y42.1516
G01 X32.6707 Y42.1427
G01 X32.6878 Y42.1322
G01 X32.9912 Y41.9097
G01 X32.9991 Y41.9027
G01 X33.0111 Y41.8937
G01 X33.0240 Y41.8857
G01 X33.3339 Y41.6585
G01 X33.3420 Y41.6512
G01 X33.3540 Y41.6423
G01 X33.3672 Y41.6340
G01 X33.6780 Y41.4062
G01 X33.6833 Y41.4015
G01 X33.6943 Y41.3934
G01 X33.7028 Y41.3880
G01 X34.0087 Y41.1637
G01 X34.0227 Y41.1508
G01 X34.0347 Y41.1419
G01 X34.0495 Y41.1328
G01 X34.0545 Y41.1301
G01 X34.6942 Y40.6611
G01 X34.7060 Y40.6505
G01 X34.7179 Y40.6415
G01 X34.7353 Y40.6309
G01 X35.0382 Y40.4089
G01 X35.0464 Y40.4015
G01 X35.0583 Y40.3926
G01 X35.0717 Y40.3843
G01 X35.3715 Y40.1645
G01 X35.3881 Y40.1537
G01 X35.4014 Y40.1468
G01 X35.4175 Y40.1402
G01 X35.4342 Y40.1353
G01 X35.4512 Y40.1320
G01 X35.4686 Y40.1304
G01 X35.4860 Y40.1305
G01 X35.5032 Y40.1323
G01 X35.5203 Y40.1358
G01 X35.5369 Y40.1409
G01 X35.5529 Y40.1477
G01 X35.5682 Y40.1560
G01 X35.5826 Y40.1658
G01 X35.5960 Y40.1769
G01 X35.6082 Y40.1893
G01 X35.6191 Y40.2028
G01 X35.6287 Y40.2173
G01 X35.6368 Y40.2327
G01 X35.6433 Y40.2488
G01 X35.6482 Y40.2655
G01 X35.6511 Y40.2802
G01 X35.6531 Y40.3024
G01 X35.6530 Y40.3173
G01 X35.6513 Y40.3334
G01 X35.6405 Y40.4023
G01 X35.6405 Y41.2453
G01 X35.7927 Y41.2453
G01 X35.7927 Y40.5003
G01 X35.7980 Y40.3924
G01 X35.8138 Y40.2855
G01 X35.8401 Y40.1808
G01 X35.8765 Y40.0790
G01 X35.9227 Y39.9814
G01 X35.9796 Y39.8867
G01 X36.0426 Y39.8020
G01 X36.1134 Y39.7237
G01 X36.1952 Y39.6494
G01 X36.2819 Y39.5850
G01 X36.3768 Y39.5284
G01 X36.4722 Y39.4833
G01 X36.5716 Y39.4477
G01 X36.6787 Y39.4206
G01 X36.7868 Y39.4047
G01 X36.8935 Y39.3995
G01 X37.0014 Y39.4048
G01 X37.1083 Y39.4206
G01 X37.2130 Y39.4469
G01 X37.3148 Y39.4833
G01 X37.4124 Y39.5295
G01 X37.5051 Y39.5850
G01 X37.5918 Y39.6494
G01 X37.6719 Y39.7219
G01 X37.7444 Y39.8020
G01 X37.8088 Y39.8887
G01 X37.8643 Y39.9814
G01 X37.9105 Y40.0790
G01 X37.9469 Y40.1808
G01 X37.9732 Y40.2855
G01 X37.9890 Y40.3924
G01 X37.9943 Y40.5003
G01 X37.9943 Y42.6009
G01 X37.9890 Y42.7088
G01 X37.9729 Y42.8168
G01 X37.9461 Y42.9228
G01 X37.9105 Y43.0221
G01 X37.8654 Y43.1176
G01 X37.8088 Y43.2125
G01 X37.7452 Y43.2983
G01 X37.6701 Y43.3810
G01 X37.5918 Y43.4518
G01 X37.5051 Y43.5162
G01 X37.4124 Y43.5717
G01 X37.3170 Y43.6169
G01 X37.2154 Y43.6535
G01 X37.1976 Y43.6582
G01 X37.1976 Y43.8194
G01 X37.3746 Y43.7625
G01 X37.5496 Y43.6739
G01 X37.5669 Y43.6611
G01 X37.5762 Y43.6527
G01 X37.5881 Y43.6438
G01 X37.6029 Y43.6346
G01 X37.7105 Y43.5555
G01 X37.8506 Y43.4176
G01 X37.9193 Y43.3215
G01 X37.9284 Y43.3101
G01 X37.9385 Y43.2995
G01 X37.9521 Y43.2875
G01 X37.9670 Y43.2769
G01 X37.9797 Y43.2696
G01 X37.9996 Y43.2607
G01 X38.0135 Y43.2561
G01 X38.0300 Y43.2522
G01 X38.0469 Y43.2500
G01 X38.0615 Y43.2494
G01 X38.0809 Y43.2503
G01 X38.0977 Y43.2530
G01 X38.1142 Y43.2572
G01 X38.1302 Y43.2630
G01 X38.1456 Y43.2704
G01 X38.1602 Y43.2791
G01 X38.1739 Y43.2892
G01 X38.1857 Y43.2998
G01 X38.1996 Y43.3151
G01 X38.2083 Y43.3268
G01 X38.2166 Y43.3403
G01 X38.2242 Y43.3555
G01 X38.2417 Y43.3964
G01 X38.6372 Y43.7919
G01 X39.1538 Y44.0062
G01 X39.7132 Y44.0062
G01 X40.2298 Y43.7919
G01 X40.5783 Y43.4434
G01 X40.5893 Y43.4334
G01 X40.6051 Y43.4214
G01 X40.6222 Y43.4114
G01 X40.6357 Y43.4050
G01 X40.6498 Y43.4000
G01 X40.6702 Y43.3947
G01 X40.6861 Y43.3924
G01 X40.7060 Y43.3916
G01 X40.7209 Y43.3924
G01 X40.7356 Y43.3945
G01 X40.7525 Y43.3985
G01 X40.7713 Y43.4050
G01 X40.7870 Y43.4125
G01 X40.8019 Y43.4214
G01 X40.8168 Y43.4325
G01 X40.8287 Y43.4434
G01 X40.9735 Y43.5882
G01 X40.9859 Y43.6020
G01 X40.9955 Y43.6151
G01 X41.0032 Y43.6278
G01 X41.0119 Y43.6457
G01 X41.0177 Y43.6621
G01 X41.0214 Y43.6766
G01 X41.0246 Y43.6974
G01 X41.0253 Y43.7135
G01 X41.0242 Y43.7333
G01 X41.0219 Y43.7481
G01 X41.0183 Y43.7626
G01 X41.0127 Y43.7791
G01 X41.0043 Y43.7971
G01 X40.9954 Y43.8120
G01 X40.9850 Y43.8259
G01 X40.9741 Y43.8379
G01 X40.6562 Y44.1549
G01 X40.6458 Y44.1663
G01 X40.6338 Y44.1772
G01 X40.1621 Y44.6474
G01 X40.1502 Y44.6581
G01 X40.1362 Y44.6685
G01 X40.1213 Y44.6774
G01 X40.1079 Y44.6838
G01 X40.0870 Y44.6912
G01 X40.0725 Y44.6948
G01 X40.0541 Y44.6974
G01 X40.0380 Y44.6982
G01 X32.2250 Y44.6982
G01 X32.2100 Y44.6975
G01 X32.1879 Y44.6942
G01 X32.1734 Y44.6905
G01 X32.1569 Y44.6846
G01 X32.1412 Y44.6771
G01 X32.1283 Y44.6694
G01 X32.1104 Y44.6560
G01 X32.0994 Y44.6459
G01 X32.0877 Y44.6329
G01 X32.0773 Y44.6189
G01 X32.0690 Y44.6049
G01 X32.0611 Y44.5880
G01 X32.0560 Y44.5739
G01 X32.0507 Y44.5522
G01 X32.0485 Y44.5349
G01 X32.0479 Y44.5199
G01 X32.0487 Y44.5049
G01 X32.0516 Y44.4852
G01 X32.0563 Y44.4672
G01 X32.0620 Y44.4520
G01 X32.0981 Y44.3669
G01 X32.1457 Y44.2691
G00 Z2.0000
G00 X36.1841 Y43.6346
G01 F60.00
G01 Z-0.0349
G01 F60.00
G01 X36.0765 Y43.5555
G01 X35.9361 Y43.4173
G01 X35.8209 Y43.2578
G01 X35.7955 Y43.2068
G01 X35.7923 Y43.2014
G01 X35.7315 Y43.0812
G01 X35.7041 Y42.9990
G01 X35.7011 Y42.9877
G01 X35.6942 Y42.9694
G01 X35.6694 Y42.8949
G01 X35.6405 Y42.6996
G01 X35.6405 Y41.8534
G01 X35.7927 Y41.8534
G01 X35.7927 Y42.6009
G01 X35.7980 Y42.7088
G01 X35.8138 Y42.8156
G01 X35.8401 Y42.9204
G01 X35.8765 Y43.0221
G01 X35.9216 Y43.1176
G01 X35.9782 Y43.2125
G01 X36.0426 Y43.2992
G01 X36.1151 Y43.3793
G01 X36.1952 Y43.4518
G01 X36.2819 Y43.5162
G01 X36.3746 Y43.5717
G01 X36.4722 Y43.6179
G01 X36.5716 Y43.6535
G01 X36.5894 Y43.6582
G01 X36.5894 Y43.8194
G01 X36.4124 Y43.7625
G01 X36.2373 Y43.6738
G01 X36.2207 Y43.6616
G01 X36.2108 Y43.6527
G01 X36.1989 Y43.6438
G01 X36.1841 Y43.6346
G00 Z2.0000
G00 X40.5343 Y40.5003
G01 F60.00
G01 Z-0.0349
G01 F60.00
G01 X40.5343 Y42.6009
G01 X40.5292 Y42.7063
G01 X40.5132 Y42.8156
G01 X40.4869 Y42.9204
G01 X40.4505 Y43.0221
G01 X40.4043 Y43.1198
G01 X40.3488 Y43.2125
G01 X40.2844 Y43.2992
G01 X40.2119 Y43.3793
G01 X40.1318 Y43.4518
G01 X40.0451 Y43.5162
G01 X39.9524 Y43.5717
G01 X39.8548 Y43.6179
G01 X39.7530 Y43.6543
